Damindarov/ARM_ex/q_pointcloud_reduced.csv
q1,q2,q3,q4,q5
-0.270002435,2.377670356,-2.932971433,-0.690801318,0.692808447
-0.155770636,2.951379204,-3.054155922,-0.143466065,2.504198411
-0.142418867,2.954447166,-3.020408343,-0.142069801,2.504198411
-0.140935337,2.949845223,-2.971320955,-0.142069801,2.526451359
-0.194342412,2.940641338,-2.87468016,-0.142069801,2.536836068
-0.315991861,2.916097644,-2.894621911,-0.171391333,2.584309023
-0.489564855,2.897689873,-2.906893758,-0.227241869,2.686672584
-0.715061395,2.880816084,-2.939107357,-0.288328392,2.783102025
-0.959843822,2.886952007,-3.002000573,-0.356396233,2.8365091
-1.217978019,2.911495701,-3.051087961,-0.409105177,2.84095969
-1.458309857,2.929903472,-3.121651081,-0.449945881,2.84095969
-1.663036978,2.940641338,-3.19068022,-0.511032405,2.753431428
-1.832159382,2.948311242,3.044952037,-0.600393263,2.702991413
-1.96567707,2.951379204,3.008136496,-0.634601716,2.714859651
-2.023534735,2.949845223,2.968252993,-0.642630231,2.677771405
-2.005732376,2.946777261,2.94524328,-0.640535835,2.738596129
-1.888533517,2.94524328,3.012738439,-0.590968485,2.743046719
-1.714960523,2.931437452,3.057223884,-0.533023554,2.817223212
-1.514683991,2.929903472,-3.193748182,-0.471587964,2.879531466
-1.30550628,2.906893758,-3.163068565,-0.393048148,2.904751474
-1.062207383,2.85780637,3.061825827,-0.360934089,2.907718534
-0.807040246,2.845534523,3.026544267,-0.302989158,2.943323251
-0.562257819,2.865476275,-3.201418086,-0.241204503,2.955191489
-0.314508331,2.890019969,3.054155922,-0.182212374,3.066456229
-0.069725904,2.922233567,3.040350095,-0.098785636,3.100577416
0.172089464,2.954447166,-3.147728756,-0.039793507,3.018983274
0.354563638,2.975922898,-3.10170933,-0.002443461,2.94925737
0.474729557,-3.287321015,-3.048019999,-0.002792527,2.974477378
0.504400154,-3.281185092,-3.008136496,-0.002792527,2.924037362
0.384234235,-3.298058882,-3.057223884,-0.002792527,2.873597347
0.169122405,2.942175319,-3.161534584,-0.007330383,2.894366765
-0.060824724,2.879282103,-3.126253024,-0.07819075,2.876564407
-0.283354204,2.828660734,-2.957515127,-0.240855437,3.081291528
-0.569675468,2.796447135,-2.890019969,-0.366868209,3.217776275
-0.899019098,2.773437422,-2.942175319,-0.405963584,3.213325686
-1.209076839,2.770369461,-3.043418056,-0.500909495,3.153984491
-1.480562804,2.759631594,-3.132388947,-0.594110077,3.103544476
-1.692707575,2.745825767,3.071029712,-0.723962574,2.895850295
-1.838093502,2.71668013,3.011204458,-0.884881931,2.682221994
-1.927105294,2.676796627,2.969786974,-1.045801288,2.685189054
-1.947874712,2.667592742,2.911495701,-1.110029404,2.751947898
-1.913753525,2.66452478,2.923767548,-1.016479756,2.751947898
-1.781719367,2.66452478,2.932971433,-0.848928148,2.771233786
-1.559189887,2.669126723,3.041884075,-0.707556479,2.921070303
-1.280286273,2.672194685,-3.081767578,-0.609119909,2.986345617
-0.992481479,2.692136436,-2.911495701,-0.53162729,3.087225647
-0.710610805,2.701340321,-2.811786944,-0.45762533,3.125797424
-0.391651884,2.718214111,-2.725884015,-0.432143523,3.158435081
-0.083077672,2.765767518,-2.574019909,-0.36756634,3.263765701
0.203243591,2.844000543,-2.389942203,-0.368962604,3.336458665
0.424289541,2.919165605,-2.29636937,-0.396887872,3.438822225
0.583027237,-3.291922958,-2.133767397,-0.441917367,3.538218726
0.640884901,-3.258175379,-1.92821396,-0.515221195,3.613878749
0.584510766,-3.29499092,-1.96349552,-0.536863278,3.566405794
0.393135414,2.899223854,-2.15677711,-0.486946861,3.49371283
0.139451807,2.816388887,-2.368466471,-0.450294947,3.449206934
-0.160221225,2.745825767,-2.549476215,-0.445757091,3.394316329
-0.491048385,2.698272359,-2.741223824,-0.46181412,3.315689246
-0.827809664,2.689068474,-2.867010256,-0.507192681,3.244479813
-1.139350936,2.702874302,-2.994330668,-0.565835743,3.145083312
-1.396001602,2.695204398,-3.10170933,-0.659385391,3.035302102
-1.611113433,2.672194685,3.078699616,-0.78819069,2.855794989
-1.793587606,2.659922838,2.995864649,-0.953647903,2.763816137
-1.924138234,2.644583029,2.917631625,-1.113869129,2.725244361
-1.955292361,2.64611701,2.929903472,-1.250702942,2.72821142
-1.884082928,2.618505354,2.966719013,-1.265014642,2.855794989
-1.657102858,2.572485928,-3.199884106,-1.136907475,2.848377339
-1.317374519,2.498854846,-3.104777291,-0.931656755,2.924037362
-0.9835803,2.500388826,-2.952913185,-0.728849496,3.018983274
-0.713577865,2.554078157,-2.854738409,-0.550825912,3.091676237
-0.471762497,2.635379144,-2.805651021,-0.477522083,3.208875096
-0.318958921,2.692136436,-2.899223854,-0.380132711,3.251897462
-0.201760062,2.755029652,-3.107845253,-0.288328392,3.317172776
-0.056374135,2.8393986,3.012738439,-0.197222205,3.327557485
0.118682389,2.882350064,3.057223884,-0.134739418,3.27266688
0.290771853,2.923767548,-3.028078248,-0.13962634,3.271183351
0.43912484,2.952913185,-2.845534523,-0.188146493,3.376513971
0.445058959,2.960583089,-2.771903441,-0.225147474,3.398766919
0.298189503,2.917631625,-2.834796657,-0.244695161,3.400250449
0.066758844,2.834796657,-2.899223854,-0.29356438,3.240029223
-0.229947129,2.758097614,-2.934505414,-0.380830843,3.201457447
-0.538521341,2.696738379,-2.985126783,-0.473333293,3.121346834
-0.855996732,2.64611701,-3.046486018,-0.613308699,2.974477378
-1.136383876,2.564816023,-3.051087961,-0.820304748,2.928487952
-1.397485132,2.47124319,-3.04955398,-0.981922237,2.716343181
-1.584409895,2.417553859,-3.06796175,-1.225221135,2.478978403
-1.676388747,2.408349974,-3.066427769,-1.448623279,2.441890156
-1.673421687,2.409883955,-3.01427242,-1.651430538,2.410736029
-1.571058126,2.385340261,-2.982058821,-1.684242728,2.600627852
-1.42270514,2.359262586,-2.99739863,-1.499586893,2.502714881
-1.223912138,2.336252873,-3.03268019,-1.229409925,2.62436433
-0.999899128,2.357728605,-3.009670477,-0.950855376,2.815739682
-0.772919059,2.434427649,-2.897689873,-0.69987703,2.898817355
-0.508850743,2.535670387,-2.696738379,-0.604232987,3.087225647
-0.256650667,2.641515067,-2.517262616,-0.559901624,3.326073956
-0.034121187,2.7350879,-2.377670356,-0.503352956,3.505581069
0.21511183,2.817922868,-2.265689753,-0.531278224,3.720692899
0.458410728,2.896155892,-2.110757684,-0.608072711,3.797836452
0.636434312,2.954447166,-1.868388706,-0.694291976,3.802287042
0.716544924,2.959049108,-1.742602274,-0.723962574,3.867562356
0.637917842,2.914563663,-1.802427528,-0.722217244,3.879430595
0.425773071,2.845534523,-1.992641157,-0.701273293,3.886848244
0.148352986,2.753495671,-2.210466441,-0.68975412,3.848276468
-0.191375352,2.676796627,-2.412951917,-0.680329342,3.802287042
-0.563741348,2.638447105,-2.586291756,-0.680329342,3.783001154
-0.968745001,2.661456818,-2.745825767,-0.680329342,3.699923481
-1.342594527,2.702874302,-2.943709299,-0.692895713,3.670252884
-1.615564022,2.732019939,-3.129320985,-0.749793447,3.554537555
-1.844027621,2.761165575,3.035748152,-0.845088424,3.504097539
-2.030952384,2.778039365,2.897689873,-0.939685269,3.474426942
-2.111062997,2.791845193,2.819456849,-0.989601686,3.517449308
-2.068040631,2.759631594,2.779573346,-0.929911425,3.533768137
-1.894467637,2.690602455,2.773437422,-0.837408975,3.50113048
-1.615564022,2.623107297,2.917631625,-0.766199542,3.478877532
-1.281769803,2.587825736,-3.094039425,-0.696735437,3.511515189
-0.925722635,2.567883985,-2.788777231,-0.64856435,3.649483466
-0.532587221,2.567883985,-2.538738348,-0.638790506,3.71624231
-0.172089464,2.61083545,-2.304039274,-0.649611548,3.757781146
0.154287106,2.679864589,-2.126097493,-0.677536816,3.809704691
0.427256601,2.750427709,-1.952757654,-0.699527964,3.828990579
0.642368431,2.80411704,-1.808563452,-0.747349986,3.828990579
0.821875545,2.824058791,-1.678175077,-0.784700032,3.831957639
0.838194373,2.793379174,-1.6122139,-0.799011732,3.849759998
0.636434312,2.715146149,-1.742602274,-0.786794427,3.845309408
0.370882466,2.630777201,-1.955825616,-0.76550141,3.845309408
0.041538836,2.538738348,-2.218136345,-0.762708883,3.817122341
-0.361981287,2.457437362,-2.572485928,-0.758869159,3.732561138
-0.792204947,2.437495611,-2.888485988,-0.767246739,3.642065817
-1.207593309,2.452835419,-3.199884106,-0.782605637,3.480361061
-1.569574596,2.474311152,2.805651021,-0.823795407,3.376513971
-1.900401756,2.515728635,2.580155832,-0.892561379,3.260798642
-2.103645347,2.569417966,2.501922807,-1.01368723,3.262282171
-2.145184184,2.574019909,2.485049018,-1.100953692,3.266732761
-2.047271213,2.520330578,2.472777171,-1.059414856,3.290469239
-1.818807614,2.426757744,2.524932521,-0.949459113,3.291952769
-1.492431043,2.337786854,2.744291786,-0.856258531,3.369096322
-1.08742739,2.284097523,-3.127787004,-0.803200522,3.483328121
-0.664621379,2.264155772,-2.715146149,-0.793077612,3.578274032
-0.234397719,2.305573255,-2.314777141,-0.805643983,3.665802294
0.123132979,2.403748031,-1.965029501,-0.824842604,3.71030819
0.424289541,2.526466501,-1.719592561,-0.840550568,3.759264676
0.643851961,2.639981086,-1.530912913,-0.859051058,3.781517624
0.75956729,2.667592742,-1.449611927,-0.870221165,3.778550564
0.676489618,2.604699526,-1.544718741,-0.879296877,3.774099975
0.496982505,2.511126693,-1.751806159,-0.879296877,3.751847027
0.275936555,2.414485897,-1.972699405,-0.893259511,3.71624231
-0.10681415,2.327048988,-2.308641217,-0.893608577,3.640582287
-0.593411946,2.297903351,-2.696738379,-0.893957643,3.49519636
-1.09187798,2.330116949,-3.081767578,-0.895702972,3.38689868
-1.502815752,2.412951917,2.897689873,-0.900589894,3.179204499
-1.820291143,2.500388826,2.618505354,-0.924326372,2.995246796
-2.008699436,2.569417966,2.501922807,-1.040914366,2.854311459
-2.069524161,2.609301469,2.532602425,-1.185078562,2.869146757
-2.035402974,2.574019909,2.574019909,-1.254542666,2.968543258
-1.842544091,2.497320865,2.621573316,-1.206720645,2.873597347
-1.547321648,2.409883955,2.690602455,-1.141445331,2.898817355
-1.149735645,2.353126662,2.952913185,-1.055226066,2.958158549
-0.735830813,2.333184911,-2.99739863,-0.929213294,3.084258588
-0.370882466,2.346990739,-2.7350879,-0.818210353,3.244479813
-0.066758844,2.422155802,-2.351592682,-0.783652834,3.363162202
0.127583568,2.475845132,-1.988039214,-0.71837752,3.566405794
0.403520123,2.546408253,-1.693514886,-0.762708883,3.646516406
0.65423667,2.632311182,-1.445009984,-0.787492558,3.652450526
0.755116701,2.676796627,-1.294679859,-0.791681349,3.653934056
0.709127275,2.624641277,-1.458815812,-0.793426678,3.576790503
0.54445546,2.535670387,-1.756408102,-0.810530905,3.346843374
0.286321264,2.455903381,-2.130699436,-0.845088424,3.197006857
-0.069725904,2.399146089,-2.581689813,-0.867428638,3.010082094
-0.480663676,2.389942203,-3.021942324,-0.926420767,2.72821142
-0.900502628,2.43596163,2.900757835,-1.019621349,2.415186619
-1.320341579,2.512660673,2.624641277,-1.118057919,2.306888939
-1.698641695,2.623107297,2.449767458,-1.160643953,2.256448923
-2.017600615,2.722816053,2.333184911,-1.162389282,2.160019482
-2.18375596,2.790311212,2.40221405,-1.23150432,2.238646565
-2.158535952,2.799515097,2.480447075,-1.33412968,2.312823058
-1.990897078,2.718214111,2.468175228,-1.319468915,2.360296014
-1.74759818,2.603165545,2.451301438,-1.179144443,2.367713663
-1.410836901,2.488116979,2.511126693,-1.011243769,2.435956037
-1.016217957,2.409883955,2.690602455,-0.838456173,2.533869008
-0.624566073,2.403748031,3.031146209,-0.744906525,2.814256152
-0.335277749,2.442097553,-2.913029682,-0.634950782,2.94925737
-0.057857665,2.515728635,-2.504990769,-0.605978316,3.247446873
0.194342412,2.61083545,-2.080078067,-0.591317551,3.465525763
0.428740131,2.719748092,-1.759476064,-0.585732497,3.550086965
0.587477826,2.834796657,-1.486427468,-0.58712876,3.596076391
0.673522558,2.903825797,-1.300815782,-0.625526004,3.526350487
0.686874327,2.867010256,-1.518641066,-0.627271333,3.438822225
0.523686042,2.748893728,-2.006446985,-0.58712876,3.17327038
0.261101256,2.650718952,-2.475845132,-0.591317551,2.903267944
-0.069725904,2.597029622,-2.899223854,-0.680678408,2.701507883
-0.459894258,2.592427679,3.012738439,-0.836710843,2.51309959
-0.884183799,2.643049048,2.730485958,-0.986809159,2.459692515
-1.275835683,2.727417996,2.552544176,-1.070934029,2.348427775
-1.599245194,2.808718982,2.477379113,-1.148077582,2.100678288
-1.8529288,2.871612198,2.475845132,-1.210909435,2.030952384
-2.048754742,2.903825797,2.485049018,-1.304110017,2.109579467
-2.091777109,2.905359778,2.537204368,-1.420698011,2.306888939
-1.907819405,2.854738409,2.587825736,-1.430471855,2.309855999
-1.631882851,2.773437422,2.609301469,-1.276184749,2.329141887
-1.292154512,2.704408283,2.686000512,-1.100953692,2.330625417
-0.934623814,2.670660704,2.85780637,-0.939336203,2.478978403
-0.562257819,2.64611701,-3.199884106,-0.780511241,2.596177262
-0.203243591,2.652252933,-2.932971433,-0.668112038,2.62584786
0.075660023,2.698272359,-2.592427679,-0.595157275,2.792003204
0.296705973,2.750427709,-2.187456728,-0.533023554,3.027884453
0.485114266,2.819456849,-1.84077705,-0.545240858,3.137665663
0.578576647,2.905359778,-1.486427468,-0.586081563,3.136182133
0.629016662,2.966719013,-1.371378902,-0.613308699,3.094643297
0.614181364,2.914563663,-1.668971192,-0.57875118,3.048653871
0.43170719,2.814854906,-2.15524313,-0.580845575,2.903267944
0.097912971,2.721282073,-2.644583029,-0.651356877,2.676287875
-0.335277749,2.682932551,-3.08483554,-0.754331303,2.544253717
-0.790721418,2.724350034,2.919165605,-0.842644963,2.449307806
-1.210560369,2.805651021,2.728951977,-0.907222145,2.435956037
-1.559189887,2.906893758,2.633845163,-0.960978286,2.343977185
-1.799521725,2.972854936,2.604699526,-1.062207383,2.179305371
-1.944907652,-3.282719073,2.626175258,-1.219985147,2.192657139
-1.980512369,-3.282719073,2.672194685,-1.353328302,2.542770187
-1.86182998,2.954447166,2.718214111,-1.343554458,2.51606665
-1.630399321,2.896155892,2.767301499,-1.228013662,2.481945463
-1.339627467,2.827126753,2.82252481,-1.060112988,2.462659575
-1.017701487,2.759631594,2.911495701,-0.877551548,2.520517239
-0.688357857,2.724350034,3.048019999,-0.729896693,2.627331389
-0.32637657,2.725884015,-3.005068534,-0.649262482,2.700024353
-0.011868239,2.762699556,-2.710544206,-0.56443948,2.83502557
0.203243591,2.802583059,-2.359262586,-0.490786586,3.079807998
0.370882466,2.851670447,-1.99877708,-0.477173017,3.326073956
0.513301333,2.905359778,-1.668971192,-0.544542727,3.260798642
0.569675468,2.937573376,-1.483359506,-0.633554518,3.229644514
0.563741348,2.90996172,-1.710388676,-0.624478806,3.229644514
0.360497757,2.830194715,-2.19052469,-0.479616478,3.223710395
0.047472956,2.782641308,-2.779573346,-0.41469023,3.115412715
-0.281870674,2.794913155,-3.133922928,-0.483805269,2.978927967
-0.626049603,2.834796657,2.865476275,-0.584685299,2.875080877
-0.959843822,2.919165605,2.695204398,-0.709650874,2.766783197
-1.247648616,-3.270447226,2.632311182,-0.860796387,2.673320815
-1.501332223,-3.176874392,2.647650991,-1.010894703,2.50716547
-1.704575814,-3.123185062,2.702874302,-1.180889772,2.444857216
-1.823258203,-3.115515157,2.76883548,-1.298874029,2.476011343
-1.768367598,-3.147728756,2.781107327,-1.335875009,2.542770187
-1.535453409,-3.216757895,2.747359747,-1.228013662,2.597660792
-1.216494489,-3.293456939,2.725884015,-0.986460093,2.590243143
-0.900502628,2.922233567,2.741223824,-0.734434549,2.608045501
-0.578576647,2.890019969,2.865476275,-0.573864258,2.645133748
-0.307090682,2.890019969,2.99739863,-0.447851486,2.783102025
-0.066758844,2.897689873,-3.034214171,-0.299149434,2.980411497
0.195825942,2.906893758,-2.589359717,-0.261101256,3.223710395
0.43319072,2.94524328,-2.241146059,-0.404218255,3.440305755
0.609730774,-3.276583149,-1.98036931,-0.537910475,3.573823443
0.661654319,-3.258175379,-1.843845012,-0.56862827,3.446239875
0.526653102,2.943709299,-2.233476154,-0.455181869,3.375030441
0.145385927,2.879282103,-2.963651051,-0.287630261,3.082775058
-0.200276532,2.894621911,2.850136466,-0.350462114,2.793486734
-0.504400154,2.932971433,2.658388857,-0.515570261,2.659969047
-0.823359075,-3.285787035,2.526466501,-0.651705943,2.467110164
-1.127482697,-3.215223914,2.498854846,-0.809483707,2.330625417
-1.382649833,-3.152330698,2.517262616,-0.967261471,2.320240708
-1.584409895,-3.107845253,2.581689813,-1.145983187,2.265350103
-1.717927583,-3.094039425,2.689068474,-1.36694187,2.222327737
-1.765400538,-3.098641368,2.790311212,-1.507266342,2.40480191
-1.649685209,-3.129320985,2.807185002,-1.431169987,2.382548962
-1.397485132,-3.19068022,2.745825767,-1.221032345,2.339526596
-1.108196809,-3.25970936,2.692136436,-0.965516142,2.345460715
-0.821875545,2.972854936,2.721282073,-0.761661686,2.430021918
-0.562257819,2.936039395,2.807185002,-0.600393263,2.570957255
-0.321925981,2.916097644,2.960583089,-0.471238898,2.664419636
-0.115715329,2.888485988,3.048019999,-0.344527994,2.886949116
0.060824724,2.871612198,-3.048019999,-0.203156325,3.142116252
0.246265957,2.87468016,-2.773437422,-0.144862328,3.297886888
0.388684824,2.908427739,-2.649184971,-0.18675023,3.39134927
0.373849526,2.937573376,-2.580155832,-0.231081593,3.380964561
0.151320046,2.923767548,-2.75196169,-0.236317581,3.259315112
-0.145385927,2.89155395,3.017340381,-0.253072742,3.06200564
-0.373849526,2.897689873,2.810252963,-0.405265452,2.876564407
-0.522202512,2.914563663,2.773437422,-0.609818041,2.873597347
-0.620115483,2.929903472,2.764233537,-0.788539756,2.812772623
-0.661654319,2.937573376,2.778039365,-1.002866188,2.793486734
-0.631983722,2.936039395,2.816388887,-1.206371579,2.751947898
-0.498466034,2.922233567,2.883884045,-1.40394285,2.61843021
-0.525169572,2.905359778,2.755029652,-1.400452192,2.768266727
-0.663137849,2.90996172,2.434427649,-1.329242758,2.585792553
-0.749182581,2.929903472,2.188990709,-1.313185729,2.584309023
-0.805556716,2.951379204,1.948155711,-1.313185729,2.588759613
-0.815941425,2.974388917,1.796291605,-1.291543646,2.565023135
-0.858963791,-3.293456939,1.846912974,-1.262222115,2.560572546
-1.016217957,-3.291922958,1.937417845,-1.251052008,2.627331389
-1.266934504,-3.298058882,1.971165425,-1.243721625,2.640683158
-1.553255768,-3.296524901,1.961961539,-1.233947781,2.649584337
-1.820291143,-3.290388977,1.922078037,-1.222777674,2.659969047
-2.035402974,-3.287321015,1.940485807,-1.195899603,2.597660792
-2.1807889,-3.298058882,2.007980966,-1.20288092,2.640683158
-2.284635991,2.975922898,2.090815933,-1.23150432,2.648100808
-2.309855999,2.97899086,2.161379053,-1.289449251,2.743046719
-2.174854781,2.974388917,2.152175168,-1.312138532,2.794970264
-1.928588823,2.971320955,2.107689722,-1.268854366,2.812772623
-1.670454627,2.948311242,2.001845042,-1.204277184,2.827607921
-1.397485132,2.920699586,1.954291635,-1.160993018,2.84095969
-1.121548577,2.906893758,1.978835329,-1.128180828,2.84392675
-0.850062612,2.897689873,2.026388736,-1.088736387,2.84541028
-0.623082543,2.890019969,2.055534373,-1.062207383,2.84095969
-0.468795437,2.880816084,2.061670296,-1.062207383,2.857278518
-0.363464817,2.882350064,2.129165455,-1.052084473,2.876564407
-0.416871892,2.877748122,2.165980996,-1.046848485,2.876564407
-0.611214304,2.865476275,2.233476154,-1.048244749,2.912169123
-0.845612023,2.845534523,2.31324316,-1.050339144,2.955191489
-1.103746219,2.833262676,2.351592682,-1.049990078,2.987829146
-1.373748654,2.831728696,2.328582968,-1.051386341,3.044203281
-1.617047552,2.845534523,2.316311121,-1.065348975,3.051620931
-1.844027621,2.867010256,2.320913064,-1.084896663,3.069423289
-2.005732376,2.876214141,2.368466471,-1.146681319,3.064972699
-2.091777109,2.893087931,2.468175228,-1.245117888,3.085742118
-2.103645347,2.897689873,2.501922807,-1.261873049,3.133215073
-1.987930018,2.882350064,2.466641247,-1.213352896,3.161402141
-1.769851128,2.860874332,2.389942203,-1.16762527,3.140632723
-1.495398103,2.82252481,2.365398509,-1.142841594,3.146566842
-1.171988593,2.790311212,2.397612108,-1.130275224,3.16288567
-0.861930851,2.778039365,2.446699496,-1.067792436,3.198490387
-0.560774289,2.764233537,2.472777171,-0.997281135,3.155468021
-0.240331838,2.756563633,2.540272329,-0.936194611,3.174753909
0.051923545,2.759631594,2.621573316,-0.885929128,3.219259805
0.281870674,2.761165575,2.672194685,-0.874060889,3.306788067
0.453960138,2.759631594,2.707476245,-0.85974919,3.309755127
0.489564855,2.745825767,2.675262646,-0.837408975,3.254864522
0.302640092,2.705942264,2.569417966,-0.86812677,3.250413932
-0.007417649,2.673728665,2.434427649,-0.899542696,3.228160984
-0.379783645,2.650718952,2.333184911,-0.915599726,3.192556268
-0.735830813,2.652252933,2.265689753,-0.959232957,3.179204499
-1.105229749,2.690602455,2.205864498,-0.991696081,3.127280954
-1.431606319,2.750427709,2.210466441,-1.052782605,3.106511536
-1.728312292,2.802583059,2.238078097,-1.099557429,3.085742118
-1.944907652,2.831728696,2.287165485,-1.111076602,3.004147975
-2.097711228,2.834796657,2.356194624,-1.142841594,3.064972699
-2.170404191,2.834796657,2.41908784,-1.166229006,3.066456229
-2.045787683,2.799515097,2.442097553,-1.205673447,3.142116252
-1.806939375,2.753495671,2.388408223,-1.134114948,3.136182133
-1.461276916,2.71668013,2.420621821,-1.048244749,3.100577416
-1.112647398,2.66452478,2.509592712,-1.000422727,3.094643297
-0.76253435,2.632311182,2.587825736,-0.956789496,3.072390349
-0.421322481,2.635379144,2.707476245,-0.932005821,3.05755505
-0.11274827,2.661456818,2.820990829,-0.904778684,3.05903858
0.149836516,2.692136436,2.914563663,-0.885929128,3.05607152
0.363464817,2.715146149,2.992796687,-0.876155285,3.078324468
0.473246027,2.725884015,3.064893789,-0.853466004,3.06052211
0.320442451,2.71668013,3.000466592,-0.866032375,3.024917393
0.048956486,2.709010226,2.917631625,-0.879296877,2.964092669
-0.264068316,2.696738379,2.873146179,-0.879995009,2.909202064
-0.606763714,2.705942264,2.824058791,-0.90931654,2.907718534
-0.968745001,2.7350879,2.759631594,-0.949808179,2.889916175
-1.348528647,2.784175288,2.690602455,-1.005309649,2.881014996
-1.627432261,2.834796657,2.655320895,-1.082453202,2.863212638
-1.845511151,2.871612198,2.662990799,-1.173559389,2.855794989
-1.986446488,2.879282103,2.682932551,-1.310742268,2.848377339
-2.059139452,2.883884045,2.765767518,-1.428028394,2.915136183
-1.9671606,2.844000543,2.851670447,-1.413716694,2.892883235
-1.709026404,2.799515097,2.936039395,-1.330988088,2.885465586
-1.391551013,2.778039365,3.028078248,-1.239532835,2.881014996
-1.051822674,2.739689843,-3.179942354,-1.136907475,2.882498526
-0.686874327,2.724350034,-3.025010286,-1.054178868,2.833542041
-0.317475391,2.730485958,-2.807185002,-1.00356432,2.821673802
0.007417649,2.76883548,-2.606233507,-1.000073661,2.83502557
0.272969495,2.808718982,-2.485049018,-0.959232957,2.956675019
0.427256601,2.825592772,-2.432893668,-0.801106127,3.026400923
0.526653102,2.859340351,-2.314777141,-0.715934059,3.084258588
0.525169572,2.865476275,-2.322447045,-0.722217244,3.026400923
0.370882466,2.828660734,-2.455903381,-0.797964534,2.964092669
0.10681415,2.761165575,-2.620039335,-0.865683309,2.870630287
-0.22104595,2.698272359,-2.824058791,-0.951204442,2.823157332
-0.588961356,2.675262646,-3.003534554,-1.027649864,2.762332607
-0.98654736,2.695204398,-3.167670507,-1.0691887,2.768266727
-1.338143938,2.748893728,3.006602515,-1.090481717,2.763816137
-1.631882851,2.805651021,2.949845223,-1.123293907,2.763816137
-1.86034645,2.831728696,2.937573376,-1.169719665,2.763816137
-2.026501794,2.840932581,2.988194745,-1.262920247,2.814256152
-2.065073571,2.825592772,3.017340381,-1.356120829,2.891399705
-1.941940592,2.788777231,3.074097674,-1.322610507,2.903267944
-1.713476993,2.758097614,-3.087903502,-1.197644933,2.852827929
-1.42270514,2.7350879,-2.916097644,-1.130973355,2.882498526
-1.124515637,2.725884015,-2.796447135,-1.053480737,2.873597347
-0.810007306,2.71668013,-2.653786914,-1.006356847,2.855794989
-0.517751923,2.724350034,-2.4543694,-0.960280154,2.797937324
-0.246265957,2.750427709,-2.205864498,-0.940034335,2.783102025
0.00148353,2.782641308,-1.99877708,-0.93793994,2.794970264
0.212144771,2.797981116,-1.866854725,-0.881391272,2.855794989
0.412421302,2.817922868,-1.730330427,-0.858701992,2.870630287
0.54593899,2.802583059,-1.633689632,-0.868824902,2.901784414
0.614181364,2.755029652,-1.561592531,-0.910014672,2.971510318
0.504400154,2.722816053,-1.681243039,-0.927118899,2.956675019
0.267035376,2.713612168,-1.926679979,-0.920137582,2.912169123
-0.043022366,2.704408283,-2.1736509,-0.845786556,2.833542041
-0.385717765,2.728951977,-2.399146089,-0.832522053,2.771233786
-0.792204947,2.793379174,-2.574019909,-0.824842604,2.750464368
-1.160120354,2.879282103,-2.727417996,-0.823446341,2.750464368
-1.461276916,2.965185032,-2.840932581,-0.860447321,2.754914958
-1.651168739,-3.255107417,-2.917631625,-0.942826862,2.759365547
-1.760949949,-3.219825857,-2.949845223,-1.022413876,2.790519675
-1.775785247,-3.229029742,-2.975922898,-1.041263432,2.809805563
-1.654135799,-3.267379264,-2.925301529,-0.988554488,2.809805563
-1.440507498,2.942175319,-2.847068504,-0.932354886,2.802387913
-1.118581518,2.845534523,-2.702874302,-0.904778684,2.759365547
-0.749182581,2.759631594,-2.50652475,-0.874409955,2.702991413
-0.399069533,2.721282073,-2.300971313,-0.850673477,2.673320815
-0.117198859,2.721282073,-2.139903321,-0.814719695,2.639199628
0.065275314,2.721282073,-1.977301348,-0.707905545,2.642166688
0.198793002,2.730485958,-1.782485777,-0.658338194,2.722277301
0.351596578,2.747359747,-1.613747881,-0.721170047,2.829091451
0.405003653,2.7350879,-1.668971192,-0.774577122,2.830574981
0.270002435,2.698272359,-1.891398419,-0.796917336,2.772717316
0.044505896,2.666058761,-2.182854785,-0.785398163,2.741563189
-0.241815368,2.647650991,-2.495786884,-0.756076632,2.633265509
-0.588961356,2.686000512,-2.764233537,-0.746302788,2.587276083
-0.964294412,2.771903441,-2.989728726,-0.725707903,2.519033709
-1.304022751,2.883884045,-3.08483554,-0.723264442,2.508649
-1.599245194,-3.29499092,-3.163068565,-0.751887842,2.522000769
-1.760949949,-3.22596178,3.026544267,-0.851371609,2.551671366
-1.832159382,-3.216757895,2.968252993,-0.923279174,2.575407844
-1.798038195,-3.244369551,2.985126783,-0.894655775,2.61694668
-1.625948731,2.972854936,2.949845223,-0.850324412,2.61694668
-1.361880415,2.879282103,2.952913185,-0.80250239,2.570957255
-1.069625032,2.770369461,3.075631655,-0.737227076,2.530901948
-0.743248462,2.672194685,-3.015806401,-0.740368669,2.533869008
-0.446542489,2.615437392,-2.851670447,-0.745604656,2.545737247
-0.183957703,2.597029622,-2.68139857,-0.758869159,2.554638426
0.062308254,2.598563603,-2.512660673,-0.760265422,2.582825494
0.284837734,2.620039335,-2.314777141,-0.7983136,2.582825494
0.496982505,2.644583029,-2.13836934,-0.851720675,2.582825494
0.498466034,2.643049048,-2.135301378,-0.861843585,2.582825494
0.353080108,2.623107297,-2.31324316,-0.848579082,2.570957255
0.11126474,2.601631564,-2.567883985,-0.816465024,2.539803128
-0.170605934,2.583223794,-2.885418026,-0.795521073,2.468593694
-0.495498975,2.59396166,3.078699616,-0.795521073,2.386999551
-0.829293194,2.633845163,2.833262676,-0.805643983,2.283152461
-1.166054473,2.710544206,2.687534493,-0.814021563,2.257932453
-1.511716932,2.82252481,2.590893698,-0.818908485,2.247547744
-1.820291143,2.942175319,2.54180631,-0.853116938,2.241613625
-2.030952384,-3.281185092,2.572485928,-0.952600706,2.29650423
-2.091777109,-3.262777321,2.615437392,-1.069537766,2.450791336
-2.023534735,2.982058821,2.630777201,-1.045801288,2.533869008
-1.829192323,2.90996172,2.641515067,-0.961676418,2.441890156
-1.53248635,2.847068504,2.713612168,-0.928864228,2.452274866
-1.222428608,2.774971403,2.785709269,-0.853466004,2.452274866
-0.909403807,2.71668013,2.844000543,-0.768643003,2.409252499
-0.559290759,2.66452478,3.017340381,-0.713839664,2.315790118
-0.207694181,2.632311182,-3.072563693,-0.676140552,1.921171174
0.078627083,2.635379144,-2.928369491,-0.669159235,1.191274481
0.244782428,2.656854876,-2.744291786,-0.669857367,1.384133363
0.278903614,2.670660704,-2.759631594,-0.678234947,1.375232184
0.244782428,2.701340321,-2.92683551,-0.796917336,1.255066265
0.123132979,2.739689843,-3.112447196,-0.986111027,1.131933286
-0.065275314,2.759631594,2.963651051,-1.194154274,0.98209677
-0.315991861,2.788777231,2.808718982,-1.356120829,0.955393233
-0.593411946,2.840932581,2.690602455,-1.456302728,0.907920277
-0.593411946,2.919165605,2.61083545,-1.525417766,0.910887337
-1.20462625,-3.262777321,2.520330578,-1.520181778,0.87083203
-1.520618111,-3.158466622,2.440563572,-1.485973325,0.829293194
-1.75204877,-3.098641368,2.429825706,-1.485624259,0.827809664
-1.789137016,-3.086369521,2.466641247,-1.524719635,0.930173225
-1.680839336,-3.110913215,2.43596163,-1.514247659,0.98803089
-1.473145155,-3.170738469,2.337786854,-1.410575101,0.925722635
-1.20610978,-3.267379264,2.254951886,-1.268156234,0.918304986
-0.884183799,2.929903472,2.293301408,-1.162738348,0.87676615
-0.5414884,2.837864619,2.40068007,-1.135162145,0.934623814
-0.226980069,2.773437422,2.526466501,-1.117708853,0.945008523
0.025220008,2.756563633,2.755029652,-1.11456726,1.029569726
0.201760062,2.748893728,3.023476305,-1.113869129,1.149735645
0.396102474,2.75196169,-3.046486018,-1.121897643,1.183856832
0.449509549,2.765767518,-3.069495731,-1.132718685,1.185340361
0.22104595,2.762699556,2.888485988,-1.131322421,1.344078057
-0.043022366,2.78724325,2.547942234,-1.100953692,1.381166304
-0.313024801,2.842466562,2.254951886,-1.0405653,1.351495706
-0.571158998,2.914563663,2.073942143,-1.027300798,1.271385094
-0.87676615,-3.268913245,2.021786793,-1.043008761,1.274352153
-1.20017566,-3.170738469,2.035592621,-1.100604626,1.287703922
-1.574025186,-3.08483554,2.058602334,-1.159596755,1.339627467
-1.897434696,-3.061825827,2.089281952,-1.21893795,1.479079275
-2.106612407,-3.08483554,2.187456728,-1.28700579,1.63336638
-2.154085363,-3.110913215,2.256485867,-1.316676388,1.673421687
-1.993864137,-3.146194775,2.175184881,-1.322610507,1.688256985
-1.74314759,-3.184544297,2.020252813,-1.230457123,1.646718149
-1.427155729,-3.252039455,1.900602304,-1.148077582,1.53100282
-1.09484504,2.931437452,1.874524629,-1.106887812,1.479079275
-0.712094335,2.814854906,1.981903291,-1.071632161,1.404902781
-0.350113048,2.745825767,2.178252843,-1.028697061,1.387100423
-0.048956486,2.725884015,2.411417936,-0.970053998,1.41973808
0.212144771,2.738155862,2.661456818,-0.950506311,1.473145155
0.410937772,2.761165575,2.801049078,-0.945619389,1.479079275
0.307090682,2.76883548,2.748893728,-0.961327352,1.471661625
-0.00148353,2.758097614,2.633845163,-0.983667566,1.468694566
-0.378300115,2.742757805,2.504990769,-0.985761962,1.468694566
-0.790721418,2.745825767,2.406815993,-1.011592834,1.465727506
-1.174955652,2.765767518,2.36693249,-1.078264412,1.486496924
-1.53100282,2.799515097,2.365398509,-1.128529894,1.487980454
-1.814357024,2.824058791,2.399146089,-1.178795377,1.501332223
-1.999798257,2.819456849,2.47124319,-1.252448271,1.539903999
-2.056172392,2.82252481,2.560214081,-1.328195561,1.551772238
-2.007215906,2.816388887,2.581689813,-1.343554458,1.585893425
-1.836609972,2.799515097,2.540272329,-1.242325362,1.621498142
-1.569574596,2.76883548,2.439029591,-1.099208363,1.393034542
-1.240230966,2.722816053,2.377670356,-1.018923217,1.31292393
-0.812974366,2.689068474,2.518796597,-1.012640032,1.287703922
-0.399069533,2.692136436,2.859340351,-1.009847505,1.280286273
-0.029670597,2.722816053,-3.023476305,-1.018225086,1.280286273
0.237364778,2.758097614,-2.687534493,-1.027300798,1.335176878
0.453960138,2.817922868,-2.34852472,-1.009498439,1.333693348
0.574126057,2.85627239,-2.087747971,-0.978431579,1.3114404
0.593411946,2.85780637,-2.126097493,-0.996932069,1.326275699
0.470278967,2.850136466,-2.356194624,-1.04475409,1.345561587
0.229947129,2.827126753,-2.589359717,-1.023461073,1.317374519
-0.121649449,2.801049078,-2.811786944,-0.959232957,1.250615676
-0.499949564,2.797981116,-2.982058821,-0.944223125,1.222428608
-0.858963791,2.834796657,-3.095573406,-0.949808179,1.20610978
-1.20610978,2.916097644,-3.195282163,-0.965516142,1.182373302
-1.505782812,-3.271981207,2.988194745,-1.000422727,1.174955652
-1.688256985,-3.210621972,2.942175319,-1.062207383,1.185340361
-1.704575814,-3.198350125,2.914563663,-1.07337749,1.277319213
-1.557706357,-3.213689933,2.868544237,-0.972148393,1.271385094
-1.341110997,-3.250505474,2.778039365,-0.805993049,1.189790951
-1.103746219,2.983592802,2.658388857,-0.608421777,1.022152076
-0.87824968,2.923767548,2.586291756,-0.442615498,0.887150859
-0.648302551,2.867010256,2.613903411,-0.322885912,0.864897911
-0.482147206,2.837864619,2.621573316,-0.161268423,1.286220392
-0.339728339,2.82252481,2.758097614,-0.016755161,2.219360677
-0.10978121,2.799515097,2.989728726,-0.008726646,2.381065432
0.176540054,2.801049078,-3.048019999,-0.008726646,2.335076006
0.443575429,2.819456849,-2.880816084,-0.008726646,2.29205364
0.663137849,2.851670447,-2.73355392,-0.008726646,2.286119521
0.777369649,2.882350064,-2.661456818,-0.008726646,2.286119521
0.796655537,2.87468016,-2.627709239,-0.008726646,2.234195975
0.608247244,2.8393986,-2.682932551,-0.008726646,2.260899513
0.345662458,2.802583059,-2.888485988,-0.008726646,2.385516022
0.051923545,2.773437422,3.069495731,-0.008726646,2.499747821
-0.256650667,2.762699556,2.833262676,-0.079237948,2.343977185
-0.540004871,2.788777231,2.732019939,-0.269478837,2.335076006
-0.87231556,2.853204428,2.638447105,-0.393397213,2.382548962
-1.157153294,2.928369491,2.598563603,-0.540703002,2.382548962
-1.433089849,-3.270447226,2.656854876,-0.677536816,2.432988977
-1.694191105,-3.201418086,2.686000512,-0.730943891,2.447824276
-1.842544091,-3.179942354,2.721282073,-0.815417827,2.441890156
-1.85441233,-3.184544297,2.742757805,-0.857305729,2.410736029
-1.755015829,-3.209087991,2.739689843,-0.704763952,2.40628544
-1.551772238,-3.29499092,2.741223824,-0.538259541,2.495297232
-1.228362728,2.880816084,2.854738409,-0.446455223,2.554638426
-0.87083203,2.810252963,3.061825827,-0.327074702,2.628814919
-0.488081325,2.782641308,-2.940641338,-0.255167137,2.794970264
-0.121649449,2.799515097,-2.491184941,-0.221656815,3.010082094
0.229947129,2.840932581,-2.018718832,-0.290073722,3.176237439
0.464344847,2.890019969,-1.615281862,-0.472984227,3.421019867
0.574126057,2.916097644,-1.398990558,-0.617846555,3.373546911
0.609730774,2.903825797,-1.357573075,-0.649960613,3.186622148
0.517751923,2.863942294,-1.483359506,-0.594808209,3.087225647
0.313024801,2.805651021,-1.711922657,-0.480663676,3.214809216
0.020769418,2.758097614,-2.136835359,-0.395491609,3.250413932
-0.320442451,2.736621881,-2.61083545,-0.341037336,2.943323251
-0.680940208,2.76883548,-2.983592802,-0.379434579,2.722277301
-1.020668547,2.85780637,-3.158466622,-0.460766923,2.664419636
-1.344078057,2.965185032,3.003534554,-0.543495529,2.608045501
-1.617047552,-3.209087991,2.94524328,-0.618893753,2.587276083
-1.789137016,-3.144660794,2.900757835,-0.702320491,2.477494873
-1.841060561,-3.140058851,2.890019969,-0.799360797,2.421120738
-1.803972315,-3.163068565,2.932971433,-0.774926188,2.481945463
-1.677872276,-3.232097704,2.991262707,-0.607025514,2.544253717
-1.404902781,2.934505414,-3.158466622,-0.520806249,2.62436433
-1.060723853,2.837864619,-2.952913185,-0.463908515,2.674804345
-0.677973148,2.770369461,-2.678330608,-0.41887902,2.664419636
-0.315991861,2.747359747,-2.325515007,-0.412595835,2.750464368
-0.031154127,2.756563633,-1.949689692,-0.423765942,2.829091451
0.183957703,2.770369461,-1.64749546,-0.48624873,2.912169123
0.320442451,2.771903441,-1.477223583,-0.546288056,2.972993848
0.381267175,2.745825767,-1.409728424,-0.571769863,3.002664445
0.320442451,2.728951977,-1.529378933,-0.588175958,2.981895027
0.178023584,2.707476245,-1.751806159,-0.552920307,2.900300885
-0.020769418,2.66452478,-2.110757684,-0.504400154,2.860245578
-0.293738913,2.615437392,-2.586291756,-0.455530935,2.867663227
-0.629016662,2.624641277,-2.959049108,-0.452738408,2.965576199
-0.989514419,2.670660704,3.034214171,-0.460766923,2.986345617
-1.363363945,2.728951977,2.753495671,-0.468446371,2.986345617
-1.664520508,2.793379174,2.570951947,-0.462512252,2.977444437
-1.830675852,2.8393986,2.442097553,-0.459719725,2.848377339
-1.8529288,2.85780637,2.457437362,-0.467050108,2.901784414
-1.732762881,2.80411704,2.508058731,-0.447851486,2.919586773
-1.464243976,2.687534493,2.761165575,-0.438775774,2.987829146
-1.09187798,2.578621851,-3.126253024,-0.438426708,3.099093886
-0.692808447,2.52339854,-2.736621881,-0.479267413,3.314205717
-0.342695399,2.534136406,-2.371534433,-0.581543707,3.521899898
-0.069725904,2.560214081,-2.054000392,-0.671602696,3.613878749
0.137968277,2.575553889,-1.754874121,-0.756774764,3.639098757
0.298189503,2.561748062,-1.633689632,-0.776671517,3.696956422
0.341211869,2.540272329,-1.599942053,-0.77981311,3.705857601
0.235881248,2.528000482,-1.68277702,-0.777718715,3.698439951
0.019285888,2.511126693,-1.862252782,-0.759916356,3.683604653
-0.270002435,2.486582999,-2.129165455,-0.740368669,3.647999936
-0.615664894,2.477379113,-2.474311152,-0.690452252,3.645032876
-0.976162651,2.52339854,-2.791845193,-0.659036326,3.575306973
-1.296605101,2.606233507,-3.074097674,-0.653102206,3.435855165
-1.557706357,2.698272359,3.020408343,-0.657290996,3.38689868
-1.765400538,2.788777231,2.937573376,-0.674744289,3.302337478
-1.892984107,2.853204428,2.814854906,-0.740717735,3.231128044
-1.927105294,2.877748122,2.742757805,-0.763057949,3.366129262
-1.86034645,2.850136466,2.831728696,-0.729547627,3.376513971
-1.698641695,2.790311212,3.04955398,-0.690801318,3.449206934
-1.470178095,2.69980634,-3.028078248,-0.684518133,3.587175212
-1.173472123,2.615437392,-2.773437422,-0.678234947,3.670252884
-0.830776724,2.557146119,-2.524932521,-0.674744289,3.668769354
-0.480663676,2.540272329,-2.287165485,-0.679980277,3.676187003
-0.172089464,2.560214081,-2.047864468,-0.707207413,3.71030819
0.091978852,2.597029622,-1.771747911,-0.736179878,3.702890541
0.281870674,2.587825736,-1.639825556,-0.769341134,3.676187003
0.393135414,2.540272329,-1.586136225,-0.799360797,3.646516406
0.350113048,2.503456788,-1.621417785,-0.815417827,3.610911689
0.179507114,2.491184941,-1.750272179,-0.80669118,3.616845809
-0.086044732,2.485049018,-1.929747941,-0.79237948,3.594592861
-0.486597795,2.483515037,-2.307107236,-0.750491578,3.566405794
-0.884183799,2.517262616,-2.636913124,-0.720820981,3.518932838
-1.277319213,2.595495641,-2.863942294,-0.721170047,3.425470456
-1.612596962,2.705942264,-3.043418056,-0.721170047,3.415085747
-1.876665278,2.828660734,-3.163068565,-0.734434549,3.305304537
-2.082875929,2.908427739,2.971320955,-0.744557459,3.293436299
-2.168920661,2.920699586,2.868544237,-0.802153324,3.379481031
-2.124414766,2.906893758,2.948311242,-0.789586954,3.367612792
-1.973094719,2.851670447,3.057223884,-0.759916356,3.361678672
-1.74759818,2.764233537,-3.080233597,-0.743510261,3.429921046
-1.449408677,2.652252933,-2.888485988,-0.731642022,3.461075173
-1.133416816,2.547942234,-2.696738379,-0.727104166,3.526350487
-0.808523776,2.477379113,-2.512660673,-0.727453232,3.587175212
-0.482147206,2.439029591,-2.270291695,-0.749793447,3.599043451
-0.099396501,2.422155802,-1.989573195,-0.775275254,3.622779928
0.235881248,2.451301438,-1.751806159,-0.805993049,3.60201051
0.465828377,2.474311152,-1.558524569,-0.823446341,3.561955204
0.54742252,2.452835419,-1.497165334,-0.825889802,3.545636375
0.32637657,2.405282012,-1.658233326,-0.821701012,3.507064599
0.00445059,2.36693249,-1.954291635,-0.80669118,3.483328121
-0.419838952,2.368466471,-2.340854815,-0.790634151,3.447723404
-0.857480262,2.423689783,-2.725884015,-0.758171027,3.394316329
-1.262483914,2.531068444,-3.03268019,-0.729547627,3.340909254
-1.569574596,2.684466532,-3.149262737,-0.729547627,3.28008453
-1.820291143,2.82252481,3.028078248,-0.730594825,3.234095104
-1.993864137,2.899223854,2.929903472,-0.770737398,3.182171559
-2.100678288,2.932971433,2.825592772,-0.868824902,3.210358626
-2.099194758,2.922233567,2.808718982,-0.880693141,3.265249231
-1.955292361,2.890019969,2.940641338,-0.806342114,3.240029223
-1.714960523,2.825592772,-3.170738469,-0.743510261,3.197006857
-1.385616893,2.736621881,-2.937573376,-0.66287605,3.118379775
-1.031053256,2.676796627,-2.68139857,-0.588525024,3.088709177
-0.667588439,2.639981086,-2.477379113,-0.579798378,3.091676237
-0.367915406,2.652252933,-2.314777141,-0.565486678,3.148050372
-0.118682389,2.675262646,-2.10308778,-0.572467995,3.299370418
0.11126474,2.705942264,-1.877592591,-0.624129741,3.422503397
0.240331838,2.73355392,-1.716524599,-0.638092375,3.406184568
0.252200077,2.730485958,-1.782485777,-0.637045177,3.366129262
0.090495322,2.712078187,-2.021786793,-0.599346065,3.245963343
-0.161704755,2.701340321,-2.376136376,-0.543146463,3.069423289
-0.594895476,2.728951977,-2.808718982,-0.438775774,2.784585555
-1.044405024,2.847068504,-3.018874362,-0.415039296,2.585792553
-1.41973808,2.972854936,-3.158466622,-0.490088454,2.572440785
-1.74611465,-3.216757895,3.044952037,-0.561646953,2.493813702
-1.934522943,-3.163068565,3.006602515,-0.666715774,2.329141887
-2.032435914,-3.144660794,2.932971433,-0.785049098,2.266833632
-2.002765317,-3.161534584,2.916097644,-0.836012712,2.306888939
-1.86034645,-3.199884106,2.991262707,-0.745255591,2.29798776
-1.6393005,-3.273515188,3.075631655,-0.614355897,2.318757178
-1.332209818,2.939107357,-3.173806431,-0.555014702,2.332108947
-1.007316778,2.882350064,-3.107845253,-0.472984227,2.395900731
-0.683907267,2.8393986,-2.919165605,-0.394444411,2.487879582
-0.379783645,2.814854906,-2.739689843,-0.349414916,2.613979621
-0.10978121,2.816388887,-2.449767458,-0.350462114,2.756398488
0.161704755,2.816388887,-2.087747971,-0.424115008,2.866179698
0.375333056,2.834796657,-1.799359567,-0.538608607,3.088709177
0.468795437,2.8393986,-1.739534312,-0.570722665,3.158435081
0.410937772,2.820990829,-1.899068323,-0.539655805,3.06052211
0.21807889,2.788777231,-2.228874212,-0.445757091,2.935905601
-0.068242374,2.765767518,-2.684466532,-0.354301838,2.778651436
-0.43764131,2.776505384,-3.126253024,-0.334056019,2.627331389
-0.811490836,2.837864619,2.911495701,-0.403520123,2.544253717
-1.146768585,2.919165605,2.819456849,-0.484852466,2.486396052
-1.471661625,-3.275049168,2.770369461,-0.552222175,2.389966611
-1.714960523,-3.213689933,2.764233537,-0.678234947,2.168920661
-1.895951166,-3.193748182,2.805651021,-0.870919297,1.9671606
-1.990897078,-3.19068022,2.808718982,-1.10200089,2.062106511
-1.947874712,-3.206020029,2.827126753,-1.283166066,2.336559536
-1.818807614,-3.219825857,2.827126753,-1.228711793,2.265350103
-1.64078403,-3.227495761,2.827126753,-1.0119419,2.044304153
-1.41825455,-3.264311302,2.722816053,-0.748397183,2.042820623
-1.118581518,2.96211707,2.698272359,-0.616101226,2.047271213
-0.778853179,2.90996172,2.785709269,-0.518711854,2.18672302
-0.443575429,2.868544237,2.960583089,-0.428303798,2.314306588
-0.133517688,2.845534523,-3.089437483,-0.408407045,2.541286657
0.10978121,2.836330638,-2.82252481,-0.395491609,2.740079659
0.32489304,2.847068504,-2.393010165,-0.390255621,2.909202064
0.473246027,2.873146179,-2.041728545,-0.482059939,3.05607152
0.486597795,2.860874332,-2.080078067,-0.520457183,3.041236222
0.315991861,2.813320925,-2.423689783,-0.461465054,2.927004422
0.00296706,2.790311212,-2.974388917,-0.429700062,2.886949116
-0.320442451,2.808718982,2.742757805,-0.458323462,2.811289093
-0.569675468,2.873146179,2.339320835,-0.532674488,2.812772623
-0.686874327,2.937573376,2.146039244,-0.603534855,2.867663227
-0.756600231,-3.284253054,1.989573195,-0.708603676,2.855794989
-0.835227314,-3.229029742,1.78708772,-0.834965514,2.860245578
-0.887150859,-3.189146239,1.624485747,-0.88243847,2.861729108
-0.936107344,-3.178408373,1.563126512,-0.881740338,2.858762048
-1.102262689,-3.17227245,1.573864378,-0.904429618,2.95222443
-1.332209818,-3.189146239,1.688912944,-0.957836693,3.225193925
-1.579959305,-3.212155953,1.810097433,-0.97494092,3.312722187
-1.826225263,-3.212155953,1.865320744,-1.003215254,3.39134927
-2.047271213,-3.212155953,1.917476094,-1.065698041,3.449206934
-2.250514804,-3.213689933,1.966563482,-1.089783585,3.443272815
-2.432988977,-3.2244278,2.038660583,-1.146681319,3.472943412
-2.541286657,-3.233631685,2.132233416,-1.234296847,3.532284607
-2.566506665,-3.227495761,2.144505263,-1.262571181,3.573823443
-2.435956037,-3.22596178,2.106155742,-1.242674427,3.578274032
-2.18523949,-3.238233627,2.024854755,-1.208465974,3.579757562
-1.869247629,-3.256641398,2.017184851,-1.191361747,3.486295181
-1.551772238,-3.29499092,2.058602334,-1.171464994,3.299370418
-1.271385094,2.952913185,2.057068354,-1.142143463,3.005631505
-1.005833248,2.916097644,2.027922717,-1.080009741,2.611012561
-0.747699052,2.871612198,2.038660583,-1.039867168,2.559089016
-0.519235452,2.827126753,2.063204277,-1.033933049,2.594693732
-0.356047167,2.805651021,2.104621761,-1.045103156,2.634749039
-0.367915406,2.802583059,2.055534373,-1.064301778,2.686672584
-0.577093117,2.80411704,2.001845042,-1.091179848,2.751947898
-0.863414381,2.788777231,2.021786793,-1.102349956,2.763816137
-1.219461548,2.76883548,1.989573195,-1.115265392,2.833542041
-1.620014612,2.788777231,1.94508775,-1.125388302,2.906235004
-1.956775891,2.824058791,1.991107176,-1.150870109,2.962609139
-2.211943028,2.844000543,2.064738258,-1.231853386,3.041236222
-2.428538388,2.85780637,2.112291665,-1.30725161,3.073873879
-2.584309023,2.867010256,2.146039244,-1.408829772,3.05607152
-2.637716099,2.876214141,2.165980996,-1.503775684,3.124313894
-2.566506665,2.865476275,2.218136345,-1.488416786,3.096126827
-2.358812484,2.833262676,2.196660613,-1.448972345,3.140632723
-2.07397475,2.802583059,2.170582938,-1.403593784,3.197006857
-1.725345232,2.78724325,2.216602365,-1.357866158,3.208875096
-1.351495706,2.785709269,2.319379083,-1.2971287,3.159918611
-1.034020315,2.770369461,2.385340261,-1.240929098,3.081291528
-0.738797872,2.762699556,2.385340261,-1.183333233,3.016016214
-0.483630736,2.762699556,2.380738318,-1.111774734,2.970026788
-0.2136283,2.779573346,2.463573285,-1.057320461,2.873597347
0.022252948,2.799515097,2.597029622,-1.054877,2.875080877
0.075660023,2.796447135,2.639981086,-1.022413876,2.832058511
-0.053407075,2.770369461,2.638447105,-1.036725576,2.830574981
-0.344178928,2.715146149,2.583223794,-1.080009741,2.875080877
-0.689841387,2.675262646,2.566350004,-1.114916326,2.897333825
-1.118581518,2.661456818,2.504990769,-1.173559389,2.971510318
-1.505782812,2.707476245,2.451301438,-1.204277184,2.983378557
-1.823258203,2.779573346,2.446699496,-1.293987107,2.989312676
-2.035402974,2.834796657,2.452835419,-1.44687795,3.078324468
-2.225294796,2.871612198,2.451301438,-1.517738318,3.125797424
-2.283152461,2.883884045,2.498854846,-1.541823861,3.082775058
-2.176338311,2.863942294,2.524932521,-1.535540676,3.106511536
-1.986446488,2.842466562,2.561748062,-1.472359757,3.110962125
-1.680839336,2.813320925,2.68139857,-1.416160155,3.076840938
-1.379682774,2.797981116,2.782641308,-1.348790446,2.977444437
-1.056273263,2.779573346,2.877748122,-1.248957613,2.870630287
-0.758083761,2.76883548,2.949845223,-1.138303738,2.772717316
-0.468795437,2.765767518,3.018874362,-1.005658715,2.62139727
-0.170605934,2.781107327,-3.158466622,-0.905476816,2.524967829
0.10978121,2.824058791,-3.012738439,-0.842994029,2.484912523
0.321925981,2.862408313,-2.842466562,-0.801455193,2.539803128
0.424289541,2.863942294,-2.736621881,-0.758171027,2.541286657
0.407970713,2.848602485,-2.728951977,-0.782954702,2.505681941
0.225496539,2.808718982,-2.805651021,-0.844739358,2.467110164
-0.053407075,2.762699556,-2.946777261,-0.879645943,2.392933671
-0.376816586,2.727417996,-3.066427769,-0.938289006,2.384032492
-0.670555499,2.713612168,-3.175340412,-1.000422727,2.311339528
-0.930173225,2.728951977,3.020408343,-1.100953692,2.210459498
-1.219461548,2.788777231,2.946777261,-1.208116908,2.207492438
-1.505782812,2.853204428,2.913029682,-1.275835683,2.206008908
-1.729795822,2.894621911,2.876214141,-1.360309619,2.207492438
-1.85886292,2.908427739,2.893087931,-1.462585913,2.461176045
-1.888533517,2.908427739,2.914563663,-1.533097215,2.786069085
-1.884082928,2.908427739,2.922233567,-1.506219144,2.722277301
-1.812873494,2.943709299,2.965185032,-1.430820921,2.600627852
-1.762433479,2.98052484,3.005068534,-1.249306679,2.254965394
-1.728312292,-3.282719073,3.020408343,-1.044405024,1.612596962
-1.679355806,-3.265845283,3.029612228,-0.972148393,1.483529864
-1.627432261,-3.253573436,2.991262707,-0.986111027,1.756499359
-1.590344014,-3.201418086,-3.193748182,-0.906174948,2.093260638
-1.551772238,-3.170738469,-3.011204458,-0.786445361,2.376614842
-1.401935722,-3.169204488,-3.078699616,-1.071981227,2.250514804
-1.272868623,-3.170738469,-3.083301559,-1.407433509,2.351394835
-1.222428608,-3.167670507,-3.08483554,-1.569400063,2.168920661
-1.180889772,-3.212155953,-3.10170933,-1.68075207,2.345460715
-1.161603884,-3.275049168,-3.130854966,-1.815142422,3.229644514
-1.134900346,2.92683551,-3.193748182,-1.905201411,3.885364714
-1.09187798,2.876214141,3.069495731,-1.856681258,4.231027173
-1.059240323,2.785709269,2.955981146,-1.851794336,4.69240496
-1.059240323,2.667592742,2.722816053,-1.802576051,5.235376891
-1.103746219,2.626175258,2.569417966,-1.653175867,5.2457616
-1.124515637,2.626175258,2.428291725,-1.424537735,5.168618047
-1.103746219,2.644583029,2.268757714,-1.214400094,4.953506217
-0.962810882,2.689068474,2.207398479,-1.029046127,4.409050756
-0.722479044,2.744291786,2.34852472,-0.867079572,4.327456614
-0.523686042,2.816388887,2.529534463,-0.635299848,4.340808383
-0.339728339,2.859340351,2.782641308,-0.460417857,4.233994232
-0.121649449,2.888485988,-3.189146239,-0.433539786,4.196905986
0.081594143,2.936039395,-2.908427739,-0.437030445,4.033717701
0.270002435,-3.287321015,-2.68139857,-0.433539786,3.873496475
0.419838952,-3.201418086,-2.377670356,-0.422718745,3.664318765
0.476213086,-3.141592832,-2.030990679,-0.35081118,3.155468021
0.416871892,-3.184544297,-2.084680009,-0.157777764,2.569473725
0.275936555,-3.255107417,-2.41908784,-0.13124876,2.529418418
0.083077672,2.965185032,-2.764233537,-0.232128791,2.565023135
-0.172089464,2.917631625,-3.04955398,-0.345226126,2.444857216
-0.428740131,2.903825797,3.060291846,-0.482059939,2.40035132
-0.676489618,2.92683551,2.960583089,-0.646120889,2.395900731
-0.900502628,2.959049108,2.902291816,-0.802153324,2.40035132
-1.139350936,-3.271981207,2.879282103,-0.94631752,2.456725455
-1.358913356,-3.2244278,2.876214141,-1.039518102,2.498264291
-1.501332223,-3.209087991,2.87468016,-1.066047107,2.456725455
-1.502815752,-3.219825857,2.877748122,-1.106538746,2.450791336
-1.385616893,-3.235165666,2.903825797,-1.059414856,2.458208985
-1.243198026,-3.252039455,2.971320955,-0.915948791,2.458208985
-1.062207383,-3.287321015,3.071029712,-0.732340154,2.530901948
-0.881216739,2.957515127,-3.08483554,-0.56862827,2.573924314
-0.703193156,2.925301529,-2.916097644,-0.402821991,2.627331389
-0.504400154,2.908427739,-2.692136436,-0.286233997,2.637716099
-0.289288324,2.919165605,-2.439029591,-0.240506371,2.714859651
-0.091978852,2.94524328,-2.187456728,-0.242949832,2.73117848
0.091978852,2.971320955,-1.899068323,-0.267035376,2.73117848
0.231430659,2.977456879,-1.667437211,-0.317300858,2.860245578
0.341211869,2.966719013,-1.503301258,-0.396538806,2.927004422
0.384234235,2.942175319,-1.477223583,-0.441568301,2.94777384
0.367915406,2.908427739,-1.570796416,-0.457276264,3.004147975
0.250716547,2.880816084,-1.725728485,-0.426907535,2.956675019
0.077143553,2.848602485,-1.995709119,-0.36931167,2.808322033
-0.126100038,2.82252481,-2.340854815,-0.357443431,2.750464368
-0.381267175,2.807185002,-2.725884015,-0.379085514,2.605078442
-0.646819021,2.820990829,-2.994330668,-0.435983247,2.51755018
-0.899019098,2.862408313,-3.195282163,-0.530580093,2.492330172
-1.117097988,2.916097644,2.988194745,-0.631460123,2.498264291
-1.298088631,2.975922898,2.951379204,-0.71418873,2.524967829
-1.384133363,-3.276583149,2.940641338,-0.778067781,2.562056075
-1.347045117,-3.287321015,2.957515127,-0.830078592,2.615463151
-1.188307421,2.969786974,3.028078248,-0.806342114,2.602111382
-0.98506383,2.937573376,-3.183010316,-0.735830813,2.505681941
-0.787754358,2.903825797,-3.127787004,-0.637394243,2.461176045
-0.599346065,2.885418026,-3.057223884,-0.525693171,2.428538388
-0.43764131,2.877748122,-2.989728726,-0.363028484,2.360296014
-0.287804794,2.87468016,-2.742757805,-0.140324472,2.360296014
-0.075660023,2.903825797,-2.382272299,-0.074700092,2.246064214
0.142418867,2.934505414,-2.098485837,-0.144164196,2.473044284
0.241815368,2.937573376,-2.061670296,-0.27506389,2.817223212
0.225496539,2.890019969,-2.287165485,-0.446106157,3.407668098
0.086044732,2.82252481,-2.707476245,-0.542099266,3.836408229
-0.118682389,2.796447135,-3.115515157,-0.549778714,3.828990579
-0.305607152,2.820990829,3.005068534,-0.540703002,3.584208152
-0.507367214,2.844000543,2.934505414,-0.53581608,3.418052807
-0.713577865,2.877748122,2.917631625,-0.571420797,3.351293963
-0.881216739,2.919165605,2.943709299,-0.631809189,3.241512753
-1.007316778,2.955981146,2.972854936,-0.701971425,3.27711747
-1.139350936,-3.288854996,2.994330668,-0.770388332,3.262282171
-1.277319213,-3.267379264,2.98052484,-0.85974919,3.271183351
-1.410836901,-3.252039455,2.949845223,-0.939685269,3.211842156
-1.502815752,-3.24283557,2.934505414,-1.064301778,3.146566842
-1.559189887,-3.244369551,2.922233567,-1.250702942,3.038269162
-1.572541656,-3.253573436,2.937573376,-1.436056909,2.9507409
-1.572541656,-3.24283557,2.98052484,-1.472359757,2.817223212
-1.566607537,-3.210621972,2.925301529,-1.481435469,2.72672789
-1.522101641,-3.126253024,2.867010256,-1.500285025,2.778651436
-1.455342797,-3.031146209,2.793379174,-1.517040186,2.760849077
-1.434573379,-2.963651051,2.709010226,-1.498539696,2.705958472
-1.443474558,-2.975922898,2.627709239,-1.477246679,2.662936106
-1.443474558,-3.04955398,2.712078187,-1.467123769,2.707442002
-1.412320431,-3.170738469,2.894621911,-1.464680308,2.821673802
-1.342594527,2.951379204,-3.179942354,-1.426283065,2.910685594
-1.244681556,2.774971403,-2.991262707,-1.36694187,2.94480678
-1.060723853,2.569417966,-2.779573346,-1.346346985,2.967059728
-0.811490836,2.425223764,-2.535670387,-1.361007751,2.971510318
-0.578576647,2.365398509,-2.285631504,-1.385093294,3.038269162
-0.456927198,2.360796567,-2.093883895,-1.390329282,3.064972699
-0.415388362,2.365398509,-2.054000392,-1.384046097,3.05903858
-0.464344847,2.374602395,-2.129165455,-1.392074611,3.011565624
-0.623082543,2.397612108,-2.323981026,-1.450717674,2.961125609
-0.839677903,2.449767458,-2.607767488,-1.504124749,2.955191489
-1.124515637,2.592427679,-3.06796175,-1.46118965,2.94480678
-1.30550628,2.830194715,2.905359778,-1.392772743,2.806838503
-1.376715714,-3.22596178,2.736621881,-1.402197521,2.753431428
-1.393034542,-3.048019999,2.627709239,-1.454208333,2.711892592
-1.413803961,-2.951379204,2.521864559,-1.511804198,2.677771405
-1.434573379,-2.957515127,2.492718922,-1.573937919,2.707442002
-1.42418867,-3.009670477,2.560214081,-1.548805178,2.747497308
-1.367814535,-3.127787004,2.672194685,-1.462236847,2.765299667
-1.263967444,-3.290388977,2.848602485,-1.397310599,2.777167906
-1.133416816,2.814854906,3.06796175,-1.381602636,2.864696168
-0.961327352,2.632311182,-2.955981146,-1.359960553,2.922553832
-0.774402589,2.50652475,-2.704408283,-1.337271273,2.955191489
-0.566708408,2.429825706,-2.412951917,-1.311789466,3.002664445
-0.43170719,2.411417936,-2.12149555,-1.26431651,3.029367983
-0.284837734,2.399146089,-1.834641127,-1.231155254,3.082775058
-0.234397719,2.405282012,-1.886796476,-1.246165086,3.047170341
-0.367915406,2.43596163,-2.058602334,-1.320516112,2.9507409
-0.517751923,2.477379113,-2.31324316,-1.400103126,2.915136183
-0.740281402,2.529534463,-2.820990829,-1.376366648,2.898817355
-0.937590874,2.669126723,3.048019999,-1.308996939,2.812772623
-1.036987375,2.890019969,2.851670447,-1.319468915,2.763816137
-1.053306204,-3.201418086,2.696738379,-1.384395163,2.72969495
-1.054789733,-3.097107387,2.514194654,-1.462236847,2.654034927
-1.09336151,-3.086369521,2.426757744,-1.480039206,2.630298449
-1.09039445,-3.144660794,2.564816023,-1.414763892,2.762332607
-1.002866188,-3.244369551,2.765767518,-1.337620339,2.775684376
-0.863414381,2.913029682,3.037282133,-1.318421717,2.863212638
-0.712094335,2.779573346,-2.965185032,-1.290845515,2.909202064
-0.522202512,2.650718952,-2.64611701,-1.243023493,2.956675019
-0.32489304,2.561748062,-2.320913064,-1.171464994,3.017499744
-0.143902397,2.508058731,-2.003379023,-1.101302758,3.103544476
0.014835299,2.498854846,-1.727262465,-1.068839634,3.127280954
0.142418867,2.514194654,-1.598408072,-1.066745239,3.185138618
0.090495322,2.511126693,-1.684311001,-1.085943861,3.097610356
-0.038571776,2.504990769,-1.931281922,-1.158549557,3.075357408
-0.194342412,2.504990769,-2.29636937,-1.182635101,3.047170341
-0.388684824,2.546408253,-2.704408283,-1.18019164,3.016016214
-0.531103691,2.638447105,-3.037282133,-1.188569221,2.94629031
-0.578576647,2.761165575,3.021942324,-1.252448271,2.888432646
-0.599346065,2.882350064,2.811786944,-1.322261441,2.84392675
-0.627533133,2.974388917,2.598563603,-1.363800278,2.741563189
-0.672039028,-3.261243341,2.48965096,-1.379508241,2.665903166
-0.682423738,-3.284253054,2.575553889,-1.329591824,2.73562907
-0.640884901,2.929903472,2.782641308,-1.253146403,2.803871443
-0.519235452,2.847068504,3.075631655,-1.20462625,2.882498526
-0.391651884,2.781107327,-2.85627239,-1.165530874,2.938872661
-0.246265957,2.719748092,-2.408349974,-1.155407965,3.029367983
-0.045989426,2.650718952,-2.061670296,-1.118756051,3.087225647
0.163188285,2.62924322,-1.803961509,-1.060462054,3.081291528
0.313024801,2.662990799,-1.581534282,-1.031489588,3.064972699
0.43170719,2.679864589,-1.486427468,-0.972148393,3.05755505
0.372365996,2.662990799,-1.609145938,-1.002866188,3.001180915
0.238848308,2.62924322,-1.859184821,-1.089783585,2.95222443
0.060824724,2.589359717,-2.231942173,-1.159596755,2.9507409
-0.200276532,2.578621851,-2.741223824,-1.172512191,2.912169123
-0.406487183,2.64611701,-3.138524871,-1.207767842,2.863212638
-0.54742252,2.762699556,2.828660734,-1.248957613,2.866179698
-0.634950782,2.876214141,2.517262616,-1.253844535,2.793486734
-0.65126961,2.96211707,2.270291695,-1.25175014,2.667386696
-0.637917842,2.983592802,2.251883925,-1.232900584,2.582825494
-0.593411946,2.942175319,2.455903381,-1.172512191,2.659969047
-0.508850743,2.877748122,2.747359747,-1.123293907,2.73414554
-0.356047167,2.805651021,-3.181476335,-1.117708853,2.894366765
-0.191375352,2.742757805,-2.840932581,-1.054178868,2.95222443
-0.016318829,2.707476245,-2.504990769,-0.986460093,2.995246796
0.169122405,2.696738379,-2.1736509,-0.936543677,3.050137401
0.350113048,2.719748092,-1.859184821,-0.855909465,3.096126827
0.488081325,2.755029652,-1.566194474,-0.755029434,3.192556268
0.538521341,2.78724325,-1.463417755,-0.741764932,3.232611574
0.517751923,2.776505384,-1.668971192,-0.754680369,3.072390349
0.410937772,2.73355392,-2.049398449,-0.834267382,2.916619713
0.262584786,2.678330608,-2.48965096,-0.932005821,2.916619713
0.078627083,2.659922838,-2.914563663,-1.000422727,2.922553832
-0.097912971,2.701340321,2.985126783,-0.992394213,2.861729108
-0.2136283,2.793379174,2.667592742,-0.97075213,2.677771405
-0.268518905,2.877748122,2.462039305,-0.983667566,2.61991374
-0.268518905,2.911495701,2.457437362,-0.958534825,2.593210203
-0.234397719,2.876214141,2.618505354,-0.848230016,2.591726673
-0.158737695,2.796447135,2.913029682,-0.753633171,2.659969047
-0.038571776,2.730485958,-2.98052484,-0.743161195,2.793486734
0.096429441,2.68139857,-2.560214081,-0.734434549,2.943323251
0.224013009,2.639981086,-2.185922747,-0.689405055,3.026400923
0.369398936,2.641515067,-1.814699375,-0.651356877,3.036785632
0.491048385,2.704408283,-1.500233296,-0.632158255,3.053104461
0.626049603,2.807185002,-1.256330337,-0.602487658,3.064972699
0.710610805,2.879282103,-1.125941962,-0.577354917,3.069423289
0.716544924,2.868544237,-1.178097312,-0.585383431,3.050137401
0.615664894,2.776505384,-1.464951736,-0.646120889,2.916619713
0.424289541,2.661456818,-1.825437241,-0.740368669,2.915136183
0.10978121,2.555612138,-2.316311121,-0.796568271,2.934422071
-0.238848308,2.538738348,-2.827126753,-0.820304748,2.929971482
-0.507367214,2.615437392,3.023476305,-0.861843585,2.937389131
-0.571158998,2.742757805,2.698272359,-0.898495499,2.937389131
-0.568191938,2.862408313,2.432893668,-0.905825882,2.897333825
-0.476213086,2.948311242,2.253417906,-0.94212873,2.756398488
-0.402036593,2.960583089,2.250349944,-0.952600706,2.722277301
-0.369398936,2.908427739,2.466641247,-0.866381441,2.671837285
-0.304123622,2.834796657,2.828660734,-0.791332283,2.670353756
-0.182474173,2.773437422,-2.998932611,-0.739670537,2.671837285
-0.045989426,2.742757805,-2.603165545,-0.701622359,2.664419636
0.123132979,2.738155862,-2.238078097,-0.643328362,2.615463151
0.281870674,2.756563633,-1.938951826,-0.553967505,2.544253717
0.393135414,2.796447135,-1.54165078,-0.42481314,2.676287875
0.422806011,2.885418026,-1.17502935,-0.385368699,2.883982056
0.422806011,2.932971433,-1.216446834,-0.387463094,2.915136183
0.360497757,2.888485988,-1.622951766,-0.385717765,2.886949116
0.225496539,2.788777231,-2.251883925,-0.428652864,2.875080877
-0.031154127,2.741223824,-2.728951977,-0.457276264,2.806838503
-0.278903614,2.738155862,-3.153864679,-0.457276264,2.881014996
-0.43170719,2.765767518,2.710544206,-0.457276264,2.980411497
-0.499949564,2.828660734,2.345456758,-0.387463094,3.079807998
-0.456927198,2.880816084,2.210466441,-0.257261532,3.110962125
-0.253683607,2.883884045,2.475845132,-0.213977366,3.161402141
-0.037088247,2.847068504,2.834796657,-0.210835774,3.346843374
0.148352986,2.794913155,3.011204458,-0.198269403,3.584208152
0.295222443,2.781107327,-3.090971463,-0.232128791,3.60794463
0.336761279,2.810252963,-2.966719013,-0.32637657,3.489262241
0.21807889,2.844000543,-3.034214171,-0.392350016,3.409151628
0.032637657,2.868544237,3.035748152,-0.482409005,3.17030332
-0.143902397,2.886952007,2.882350064,-0.64018677,3.029367983
-0.296705973,2.916097644,2.814854906,-0.841597765,2.989312676
-0.430223661,2.968252993,2.810252963,-0.987507291,2.857278518
-0.587477826,-3.253573436,2.877748122,-1.046848485,2.708925532
-0.801106127,-3.186078278,3.028078248,-0.898844565,2.637716099
-1.042921495,-3.156932641,-3.04955398,-0.623780675,2.631781979
-1.149735645,-3.183010316,-2.963651051,-0.493928178,2.648100808
-1.194241541,-3.196816144,-2.788777231,-0.393048148,3.075357408
-1.189790951,-3.2244278,-2.715146149,-0.376292987,3.228160984
-1.155669764,-3.268913245,-2.862408313,-0.448898684,3.511515189
-1.148252115,-3.252039455,-2.848602485,-0.521155315,3.532284607
-1.195725071,-3.22596178,-2.902291816,-0.350113048,2.111062997
-1.223912138,-3.252039455,-3.107845253,-0.401076662,2.157052423
-1.189790951,-3.24283557,2.974388917,-0.744208393,1.904852346
-1.219461548,-3.2244278,2.900757835,-1.031140522,2.07397475
-1.295121571,-3.199884106,2.871612198,-1.229060859,2.262383043
-1.434573379,-3.164602545,2.834796657,-1.294685239,2.229745386
-1.600728723,-3.140058851,2.8393986,-1.307600676,2.287603051
-1.691224045,-3.146194775,2.847068504,-1.339365668,2.425571328
-1.611113433,-3.153864679,2.836330638,-1.35856429,2.51606665
-1.352979236,-3.221359838,2.73355392,-1.424537735,2.470077224
-0.962810882,-3.282719073,2.692136436,-1.430122789,2.495297232
-0.621599013,2.971320955,2.678330608,-1.345299787,2.468593694
-0.286321264,2.934505414,2.695204398,-1.335176878,2.527934889
-0.031154127,2.905359778,2.736621881,-1.295383371,2.634749039
0.169122405,2.908427739,2.865476275,-1.15331357,2.62436433
0.382750705,2.925301529,3.06796175,-1.115963524,2.674804345
0.600829595,2.937573376,-3.066427769,-1.135162145,2.780134966
0.752149641,2.939107357,-3.051087961,-1.128529894,2.796453794
0.583027237,2.923767548,-3.158466622,-1.084198531,2.708925532
0.301156562,2.888485988,2.98052484,-1.060811119,2.686672584
-0.023736478,2.870078217,2.837864619,-1.033234917,2.600627852
-0.299673033,2.896155892,2.770369461,-1.066745239,2.544253717
-0.565224878,2.949845223,2.756563633,-1.11037847,2.536836068
-0.847095552,-3.25970936,2.75196169,-1.058367658,2.447824276
-1.125999167,-3.158466622,2.742757805,-0.963770813,2.345460715
-1.393034542,-3.043418056,2.707476245,-0.897099236,2.277218342
-1.606662843,-2.963651051,2.736621881,-0.773529924,2.554638426
-1.731279352,-2.960583089,2.732019939,-0.584685299,2.664419636
-1.53248635,-3.025010286,2.69980634,-0.725358837,2.489363112
-1.158636824,-3.143126813,2.742757805,-1.022413876,2.550187837
-0.747699052,-3.25970936,2.799515097,-1.224523003,2.590243143
-0.430223661,2.939107357,2.834796657,-1.275137552,2.640683158
-0.154287106,2.905359778,2.908427739,-1.259778654,2.62584786
0.1142318,2.879282103,2.988194745,-1.270948761,2.704474942
0.351596578,2.854738409,-3.147728756,-1.262571181,2.784585555
0.600829595,2.85780637,-2.985126783,-1.290496449,2.891399705
0.608247244,2.859340351,-3.048019999,-1.304459083,2.790519675
0.267035376,2.842466562,3.026544267,-1.290845515,2.769750256
-0.169122405,2.840932581,2.80411704,-1.131671487,2.615463151
-0.526653102,2.880816084,2.679864589,-0.985761962,2.591726673
-0.820392015,2.946777261,2.670660704,-0.868824902,2.363263074
-1.051822674,-3.265845283,2.71668013,-0.830776724,2.386999551
-1.293638042,-3.192214201,2.71668013,-0.742463064,2.613979621
-1.566607537,-3.149262737,2.745825767,-0.547684319,2.697057293
-1.741664061,-3.144660794,2.870078217,-0.35499997,2.800904384
-1.603695783,-3.198350125,2.840932581,-0.520457183,2.642166688
-1.234296847,-3.285787035,2.819456849,-0.894655775,2.523484299
-0.842644963,2.932971433,2.871612198,-1.190663616,2.550187837
-0.498466034,2.893087931,2.929903472,-1.335875009,2.61694668
-0.173572994,2.865476275,3.018874362,-1.408829772,2.630298449
0.155770636,2.860874332,-3.124719043,-1.433962513,2.659969047
0.502916624,2.899223854,-2.971320955,-1.429075592,2.738596129
0.76105082,-3.29499092,-2.893087931,-1.425933999,2.652551397
0.556323699,2.966719013,-2.972854936,-1.433264382,2.608045501
0.163188285,2.900757835,-3.1201171,-1.370432529,2.562056075
-0.178023584,2.876214141,-3.189146239,-1.236042176,2.434472507
-0.443575429,2.859340351,-3.178408373,-1.132369619,2.388483081
-0.65868726,2.840932581,-3.110913215,-1.046499419,2.349911305
-0.855996732,2.811786944,-2.985126783,-0.942477796,2.468593694
-1.028086196,2.756563633,-2.911495701,-0.815766892,2.606561971
-1.255066265,2.71668013,-2.709010226,-0.597949802,2.876564407
-1.355946296,2.718214111,-2.403748031,-0.547335253,3.182171559
-1.222428608,2.689068474,-2.650718952,-0.618544687,2.909202064
-0.964294412,2.687534493,-2.847068504,-0.814021563,2.649584337
-0.629016662,2.753495671,-2.814854906,-1.093623309,2.649584337
-0.33082716,2.830194715,-2.807185002,-1.263269313,2.587276083
-0.047472956,2.885418026,-2.833262676,-1.359611487,2.573924314
0.198793002,2.934505414,-2.844000543,-1.415811089,2.572440785
0.44060837,-3.27811713,-2.785709269,-1.46537844,2.565023135
0.667588439,-3.2244278,-2.755029652,-1.551946771,2.597660792
0.636434312,-3.219825857,-2.738155862,-1.626646863,2.667386696
0.353080108,-3.276583149,-2.758097614,-1.570796327,2.705958472
0.022252948,2.903825797,-2.853204428,-1.348092314,2.633265509
-0.277420085,2.824058791,-2.87468016,-1.108633141,2.597660792
-0.43467425,2.758097614,-2.801049078,-0.986809159,2.605078442
-0.569675468,2.695204398,-2.71668013,-0.89675017,2.713376122
-0.729896693,2.632311182,-2.604699526,-0.766548607,2.84244322
-0.971712061,2.600097583,-2.423689783,-0.599346065,3.107995065
-1.09039445,2.609301469,-2.236544116,-0.589223155,3.291952769
-0.930173225,2.587825736,-2.465107266,-0.659385391,3.107995065
-0.694291976,2.604699526,-2.572485928,-0.719773784,2.823157332
-0.465828377,2.621573316,-2.429825706,-0.737227076,2.784585555
-0.247749487,2.618505354,-2.188990709,-0.722915376,2.794970264
-0.045989426,2.615437392,-1.919010075,-0.740717735,2.872113817
0.121649449,2.620039335,-1.661301288,-0.784350966,2.961125609
0.167638875,2.618505354,-1.69965081,-0.808785575,2.934422071
0.069725904,2.601631564,-2.030990679,-0.86812677,2.830574981
-0.10384709,2.589359717,-2.443631534,-0.955044167,2.811289093
-0.399069533,2.632311182,-2.975922898,-1.005658715,2.763816137
-0.611214304,2.730485958,2.897689873,-1.038819971,2.701507883
-0.716544924,2.8393986,2.578621851,-1.094321441,2.686672584
-0.76105082,2.932971433,2.256485867,-1.146332253,2.667386696
-0.76550141,-3.275049168,1.988039214,-1.197644933,2.565023135
-0.738797872,-3.250505474,1.94508775,-1.186823891,2.346944245
-0.709127275,-3.29499092,2.210466441,-1.09606677,2.473044284
-0.645335491,2.913029682,2.586291756,-1.012290966,2.594693732
-0.526653102,2.847068504,2.99739863,-0.973195591,2.685189054
-0.161704755,-3.268913245,3.000466592,-0.445058959,0.943524994
-0.161704755,-3.268913245,3.003534554,-0.445058959,0.943524994
-0.158737695,-3.268913245,3.008136496,-0.445058959,0.947975583
-0.152803576,-3.270447226,3.029612228,-0.424464074,0.971712061
-0.139451807,-3.273515188,3.035748152,-0.405614518,0.973195591
-0.124616509,-3.276583149,3.031146209,-0.418180889,0.977646181
-0.137968277,-3.282719073,3.018874362,-0.426907535,0.98803089
-0.256650667,2.983592802,2.957515127,-0.424464074,0.989514419
-0.4420919,2.96211707,2.845534523,-0.42062435,0.989514419
-0.669071969,2.955981146,2.718214111,-0.421671547,0.976162651
-0.909403807,2.968252993,2.615437392,-0.438426708,0.974679121
-1.169021533,-3.275049168,2.526466501,-0.437379511,1.011767367
-1.41825455,-3.218291876,2.40221405,-0.429700062,1.050339144
-1.602212253,-3.161534584,2.268757714,-0.434586984,1.038470905
-1.731279352,-3.121651081,2.136835359,-0.482409005,0.970228531
-1.769851128,-3.112447196,2.027922717,-0.573515192,0.937590874
-1.729795822,-3.127787004,1.975767367,-0.676489618,0.910887337
-1.578475776,-3.169204488,1.949689692,-0.780511241,0.830776724
-1.336660408,-3.227495761,1.961961539,-0.871966494,0.723962574
-1.053306204,-3.275049168,2.030990679,-0.97075213,0.683907267
-0.756600231,2.968252993,2.15677711,-1.019272283,0.738797872
-0.455443668,2.929903472,2.351592682,-1.044405024,0.826326134
-0.164671815,2.90996172,2.570951947,-1.103048087,0.962810882
0.080110613,2.908427739,2.753495671,-1.162040216,1.047372084
0.21956242,2.905359778,2.845534523,-1.19869213,1.09039445
0.240331838,2.885418026,2.827126753,-1.199390262,1.142317995
0.081594143,2.860874332,2.687534493,-1.129577092,1.128966227
-0.229947129,2.853204428,2.425223764,-1.038470905,1.028086196
-0.596379005,2.897689873,2.101553799,-0.967959603,0.956876762
-0.881216739,2.977456879,1.839243069,-0.96062922,0.851546142
-1.09187798,-3.229029742,1.658233326,-1.002866188,0.799622597
-1.234296847,-3.17227245,1.540116799,-1.075122819,0.749182581
-1.292154512,-3.141592832,1.509437181,-1.163785545,0.710610805
-1.329242758,-3.123185062,1.515573105,-1.240230966,0.642368431
-1.379682774,-3.107845253,1.538582818,-1.253495469,0.689841387
-1.437540438,-3.106311272,1.598408072,-1.170766862,0.796655537
-1.496881633,-3.118583119,1.670505173,-1.034980246,0.815941425
-1.544354589,-3.13699089,1.765611987,-0.879645943,0.836710843
-1.574025186,-3.169204488,1.869922687,-0.75118971,0.87231556
-1.579959305,-3.204486048,1.958893578,-0.685914396,0.945008523
-1.576992246,-3.235165666,2.000311061,-0.699178898,1.017701487
-1.53396988,-3.262777321,1.997243099,-0.790983217,1.025119136
-1.459793386,-3.29499092,1.961961539,-0.96062922,1.025119136
-1.382649833,2.968252993,1.914408132,-1.129577092,1.023635606
-1.318858049,2.966719013,1.849980935,-1.234994979,0.98803089
-1.256549795,2.968252993,1.802427528,-1.295034305,0.912370866
-1.20462625,2.965185032,1.784019758,-1.307600676,0.802589657
-1.155669764,2.949845223,1.78708772,-1.316327322,0.737314343
-1.077042681,2.932971433,1.797825586,-1.340412866,0.726929633
-0.971712061,2.925301529,1.816233356,-1.365196541,0.716544924
-0.903469687,2.928369491,1.813165394,-1.384744229,0.645335491
-0.87528262,2.92683551,1.823903261,-1.41825455,0.600829595
-0.893084978,2.913029682,1.865320744,-1.377413846,0.602313125
-0.955393233,2.89155395,1.934349884,-1.237787506,0.65275314
-1.045888554,2.868544237,1.960427558,-1.069537766,0.667588439
-1.166054473,2.848602485,1.954291635,-0.895702972,0.667588439
-1.268418034,2.828660734,1.940485807,-0.73687801,0.688357857
-1.339627467,2.794913155,1.977301348,-0.599346065,0.808523776
-1.370781595,2.770369461,2.070874181,-0.462512252,0.888634389
-1.363363945,2.748893728,2.185922747,-0.440521103,1.023635606
-1.299572161,2.730485958,2.19052469,-0.531976356,1.0978121
-1.213527429,2.728951977,2.129165455,-0.684169067,0.995448539
-1.120065047,2.739689843,2.069340201,-0.855211333,0.848579082
-1.034020315,2.761165575,2.017184851,-1.014385361,0.787754358
-0.965777942,2.811786944,1.96349552,-1.120152314,0.76698494
-0.939074404,2.873146179,1.879126572,-1.196248669,0.700226096
-0.939074404,2.920699586,1.811631414,-1.258731457,0.617148424
-0.918304986,2.968252993,1.820835299,-1.320865178,0.591928416
-0.904953217,-3.244369551,1.831573165,-1.365196541,0.597862535
-0.904953217,-3.170738469,1.803961509,-1.376715714,0.565224878
-0.930173225,-3.113981177,1.796291605,-1.398008731,0.54593899
-0.970228531,-3.081767578,1.810097433,-1.426283065,0.5414884
-0.990997949,-3.078699616,1.839243069,-1.465029374,0.540004871
-0.992481479,-3.1201171,1.885262496,-1.503775684,0.538521341
-0.936107344,-3.213689933,1.969631444,-1.510757001,0.559290759
-0.855996732,2.977456879,2.087747971,-1.526115898,0.602313125
-0.718028454,2.923767548,2.207398479,-1.567305668,0.669071969
-0.565224878,2.89155395,2.339320835,-1.595230936,0.716544924
-0.428740131,2.877748122,2.446699496,-1.599419727,0.775886119
-0.397586004,2.876214141,2.478913094,-1.562767812,0.836710843
-0.462861318,2.882350064,2.423689783,-1.507615408,0.919788516
-0.588961356,2.906893758,2.262621791,-1.46537844,0.887150859
-0.743248462,2.965185032,2.070874181,-1.40568818,0.743248462
-0.896052038,-3.232097704,1.859184821,-1.351932039,0.591928416
-1.017701487,-3.124719043,1.744136255,-1.284562329,0.574126057
-1.09187798,-3.015806401,1.685844982,-1.230806189,0.574126057
-1.123032107,-2.946777261,1.655165364,-1.182984167,0.571158998
-1.127482697,-2.951379204,1.635223613,-1.170417796,0.551873109
-1.063690913,-3.031146209,1.645961479,-1.18019164,0.525169572
-0.955393233,-3.152330698,1.721126542,-1.185776694,0.55038958
-0.823359075,-3.275049168,1.85765084,-1.192758011,0.602313125
-0.65423667,2.908427739,2.049398449,-1.210560369,0.682423738
-0.464344847,2.845534523,2.297903351,-1.25000481,0.808523776
-0.280387144,2.819456849,2.52339854,-1.300619359,0.882700269
-0.145385927,2.810252963,2.692136436,-1.326450232,0.904953217
-0.126100038,2.782641308,2.774971403,-1.281420737,0.910887337
-0.228463599,2.747359747,2.782641308,-1.117359787,0.927206165
-0.375333056,2.722816053,2.753495671,-0.86812677,0.927206165
-0.495498975,2.71668013,2.736621881,-0.607025514,0.927206165
-0.55038958,2.722816053,2.745825767,-0.416784625,0.939074404
-0.565224878,2.727417996,2.80411704,-0.31625366,1.032536785
-0.578576647,2.725884015,2.847068504,-0.301243829,1.124515637
-0.624566073,2.724350034,2.801049078,-0.366519143,1.109680338
-0.679456678,2.722816053,2.748893728,-0.525693171,1.065174442
-0.756600231,2.724350034,2.670660704,-0.699178898,1.023635606
-0.833743784,2.73355392,2.583223794,-0.871268363,0.936107344
-0.909403807,2.745825767,2.504990769,-1.047895683,0.891601448
-0.977646181,2.765767518,2.432893668,-1.226966464,0.882700269
-1.019185017,2.790311212,2.354660643,-1.381602636,0.866381441
-1.034020315,2.817922868,2.26108781,-1.500634091,0.824842604
-1.035503845,2.845534523,2.169048957,-1.560324351,0.753633171
-1.035503845,2.862408313,2.061670296,-1.532399083,0.747699052
-1.034020315,2.868544237,1.937417845,-1.394518072,0.735830813
-1.010283838,2.867010256,1.764078006,-1.229409925,0.65720373
-0.965777942,2.87468016,1.618349823,-1.103746219,0.559290759
-0.901986157,2.885418026,1.487961449,-0.988554488,0.54742252
-0.812974366,2.894621911,1.429670176,-0.866032375,0.54445546
-0.712094335,2.89155395,1.45421387,-0.744557459,0.568191938
-0.618631953,2.880816084,1.521709028,-0.602836724,0.621599013
-0.526653102,2.863942294,1.632155651,-0.44331363,0.744731992
-0.445058959,2.845534523,1.784019758,-0.304385422,0.844128493
-0.381267175,2.820990829,1.968097463,-0.18675023,0.946492053
-0.341211869,2.791845193,2.199728575,-0.094945911,1.016217957
-0.33082716,2.756563633,2.466641247,-0.002094395,1.069625032
-0.296705973,2.709010226,2.865476275,0.012217305,1.120065047
-0.315991861,2.678330608,3.061825827,0.012217305,1.08891092
-0.402036593,2.658388857,-3.153864679,0.002443461,1.066657972
-0.492531915,2.649184971,-3.083301559,-0.050265482,1.066657972
-0.621599013,2.653786914,-3.109379234,-0.106465084,1.074075622
-0.792204947,2.661456818,-3.127787004,-0.14381513,1.078526211
-0.999899128,2.667592742,-3.19068022,-0.148003921,1.103746219
-1.189790951,2.678330608,3.002000573,-0.17243853,1.105229749
-1.350012176,2.696738379,2.948311242,-0.187448362,1.143801525
-1.476112215,2.727417996,2.903825797,-0.191986218,1.212043899
-1.548805178,2.774971403,2.845534523,-0.222354947,1.255066265
-1.593311074,2.834796657,2.793379174,-0.237015712,1.344078057
-1.622981671,2.908427739,2.727417996,-0.240855437,1.367814535
-1.628915791,-3.29499092,2.647650991,-0.260054059,1.366331005
-1.63336638,-3.201418086,2.540272329,-0.261799388,1.363363945
-1.627432261,-3.10170933,2.462039305,-0.280648944,1.350012176
-1.572541656,-3.011204458,2.414485897,-0.327423768,1.344078057
-1.516167521,-2.923767548,2.334718892,-0.364424748,1.287703922
-1.480562804,-2.860874332,2.153709149,-0.38781216,1.171988593
-1.446441618,-2.847068504,2.066272239,-0.419577152,1.084460331
-1.439023968,-2.859340351,2.081612048,-0.409105177,1.084460331
-1.439023968,-2.893087931,2.139903321,-0.375594855,1.099295629
-1.441991028,-2.949845223,2.187456728,-0.329867229,1.137867406
-1.477595745,-3.021942324,2.274893638,-0.2565634,1.1972086
-1.495398103,-3.113981177,2.41908784,-0.212930169,1.20017566
-1.495398103,-3.233631685,2.5586801,-0.211533905,1.234296847
-1.480562804,2.92683551,2.676796627,-0.181863308,1.304022751
-1.428639259,2.816388887,2.76883548,-0.150796447,1.31292393
-1.30550628,2.719748092,2.911495701,-0.18256144,1.3114404
-1.140834466,2.635379144,3.054155922,-0.222704013,1.3114404
-0.943524994,2.575553889,-3.074097674,-0.277507351,1.263967444
-0.667588439,2.552544176,-2.867010256,-0.396887872,1.234296847
-0.412421302,2.574019909,-2.647650991,-0.511730537,1.284736862
-0.244782428,2.604699526,-2.52339854,-0.549778714,1.289187452
-0.164671815,2.632311182,-2.465107266,-0.559901624,1.284736862
-0.158737695,2.638447105,-2.472777171,-0.540353936,1.268418034
-0.238848308,2.618505354,-2.566350004,-0.4988151,1.268418034
-0.43319072,2.61083545,-2.725884015,-0.455880001,1.286220392
-0.670555499,2.643049048,-2.99739863,-0.425511272,1.280286273
-0.867864971,2.710544206,3.034214171,-0.419577152,1.255066265
-1.020668547,2.799515097,2.788777231,-0.415388362,1.220945078
-1.106713279,2.917631625,2.601631564,-0.404218255,1.183856832
-1.137867406,-3.235165666,2.431359687,-0.393048148,1.143801525
-1.136383876,-3.107845253,2.26108781,-0.39618974,1.038470905
-1.072592092,-3.005068534,2.141437302,-0.42062435,0.893084978
-0.973195591,-2.936039395,2.098485837,-0.461465054,0.845612023
-0.934623814,-2.916097644,2.037126602,-0.476823952,0.808523776
-0.933140285,-2.937573376,2.063204277,-0.469144503,0.76253435
-0.942041464,-2.99739863,2.15677711,-0.436681379,0.775886119
-0.956876762,-3.095573406,2.323981026,-0.393746279,0.818908485
-0.956876762,-3.2244278,2.597029622,-0.366868209,0.933140285
-0.915337926,2.934505414,2.929903472,-0.366170077,1.177922712
-0.847095552,2.820990829,-3.143126813,-0.366519143,1.240230966
-0.731380223,2.730485958,-2.963651051,-0.395840674,1.238747437
-0.574126057,2.678330608,-2.770369461,-0.444360828,1.266934504
-0.384234235,2.661456818,-2.578621851,-0.495324442,1.278802743
-0.180990643,2.682932551,-2.380738318,-0.557458163,1.277319213
0.014835299,2.73355392,-2.195126632,-0.617846555,1.269901564
0.176540054,2.794913155,-2.064738258,-0.669857367,1.252099205
0.268518905,2.836330638,-2.01565087,-0.677885881,1.20462625
0.292255383,2.854738409,-2.004913004,-0.677536816,1.188307421
0.283354204,2.847068504,-2.023320774,-0.673348025,1.188307421
0.188408293,2.814854906,-2.098485837,-0.661828852,1.215010959
0.028187067,2.770369461,-2.258019848,-0.638092375,1.246165086
-0.192858882,2.730485958,-2.517262616,-0.583987168,1.268418034
-0.443575429,2.721282073,-2.868544237,-0.506494549,1.265450974
-0.670555499,2.762699556,3.037282133,-0.425860337,1.241714496
-0.850062612,2.847068504,2.624641277,-0.343131731,1.149735645
-0.943524994,2.96211707,2.308641217,-0.314857397,1.014734427
-0.970228531,-3.199884106,2.066272239,-0.336150414,0.87379909
-0.970228531,-3.095573406,1.845378993,-0.383274304,0.772919059
-0.931656755,-3.008136496,1.650563422,-0.448200552,0.583027237
-0.867864971,-2.966719013,1.57693234,-0.536514212,0.513301333
-0.821875545,-2.971320955,1.566194474,-0.597949802,0.522202512
-0.839677903,-3.000466592,1.520175047,-0.622384411,0.553356639
-0.97912971,-3.041884075,1.45421387,-0.590619419,0.591928416
-1.114130928,-3.097107387,1.448077946,-0.533372619,0.596379005
-1.235780377,-3.156932641,1.514039124,-0.465304779,0.603796655
-1.403419252,-3.202952067,1.512505143,-0.403520123,0.648302551
-1.596278134,-3.238233627,1.438874061,-0.346971455,0.667588439
-1.771334658,-3.258175379,1.365242979,-0.349414916,0.700226096
-1.842544091,-3.27811713,1.43734008,-0.393397213,0.76846847
-1.780235837,2.971320955,1.596874091,-0.45169121,0.75956729
-1.622981671,2.940641338,1.681243039,-0.491833783,0.756600231
-1.42418867,2.911495701,1.730330427,-0.479616478,0.744731992
-1.20314272,2.885418026,1.834641127,-0.410850506,0.753633171
-0.992481479,2.865476275,1.943553769,-0.291120919,0.774402589
-0.771435529,2.82252481,2.113825646,-0.255167137,0.844128493
-0.504400154,2.764233537,2.417553859,-0.255167137,1.014734427
-0.232914189,2.725884015,2.721282073,-0.23806291,1.125999167
0,2.712078187,2.948311242,-0.209788576,1.142317995
0.22104595,2.721282073,-3.126253024,-0.20943951,1.151219175
0.402036593,2.753495671,-2.928369491,-0.220958683,1.134900346
0.467311907,2.76883548,-2.840932581,-0.227590934,1.139350936
0.397586004,2.764233537,-2.851670447,-0.22794,1.137867406
0.232914189,2.747359747,-2.931437452,-0.233175988,1.131933286
-0.016318829,2.730485958,-3.025010286,-0.23387412,1.125999167
-0.305607152,2.719748092,-3.202952067,-0.240855437,1.08742739
-0.606763714,2.730485958,2.896155892,-0.263544717,1.048855614
-0.885667329,2.753495671,2.774971403,-0.292517183,1.042921495
-1.127482697,2.791845193,2.744291786,-0.306828883,1.038470905
-1.335176878,2.834796657,2.776505384,-0.307527014,1.106713279
-1.505782812,2.868544237,2.790311212,-0.299149434,1.176439182
-1.6393005,2.89155395,2.782641308,-0.281696141,1.210560369
-1.707542874,2.905359778,2.732019939,-0.285535866,1.225395668
-1.685289926,2.897689873,2.667592742,-0.317300858,1.225395668
-1.522101641,2.851670447,2.615437392,-0.356745299,1.223912138
-1.258033325,2.797981116,2.644583029,-0.404916386,1.151219175
-0.962810882,2.764233537,2.750427709,-0.416784625,1.074075622
-0.700226096,2.745825767,2.837864619,-0.415039296,1.063690913
-0.458410728,2.741223824,2.914563663,-0.413992099,1.051822674
-0.183957703,2.750427709,3.061825827,-0.423067811,1.025119136
0.090495322,2.770369461,-3.043418056,-0.429700062,1.025119136
0.313024801,2.797981116,-2.882350064,-0.425511272,1.026602666
0.498466034,2.833262676,-2.721282073,-0.438077642,1.048855614
0.562257819,2.85780637,-2.633845163,-0.452040276,1.080009741
0.491048385,2.837864619,-2.678330608,-0.442964564,1.09336151
0.246265957,2.802583059,-2.862408313,-0.410152374,1.123032107
-0.096429441,2.794913155,3.066427769,-0.371406065,1.123032107
-0.415388362,2.844000543,2.719748092,-0.361981287,1.080009741
-0.691324917,2.94524328,2.360796567,-0.408407045,1.008800308
-0.909403807,-3.204486048,1.994175138,-0.491135652,0.87528262
-1.074075622,-3.064893789,1.714990618,-0.603534855,0.686874327
-1.166054473,-2.946777261,1.572330397,-0.73268922,0.591928416
-1.216494489,-2.859340351,1.501767277,-0.861843585,0.505883684
-1.235780377,-2.817922868,1.475689602,-0.947364718,0.464344847
-1.235780377,-2.828660734,1.474155621,-0.950855376,0.488081325
-1.171988593,-2.896155892,1.474155621,-0.86812677,0.517751923
-1.041437965,-2.986660764,1.517107086,-0.694291976,0.565224878
-0.87379909,-3.086369521,1.653631383,-0.538957673,0.752149641
-0.718028454,-3.189146239,1.810097433,-0.440172037,0.857480262
-0.54742252,2.983592802,2.073942143,-0.371755131,1.059240323
-0.396102474,2.883884045,2.317845102,-0.295658775,1.225395668
-0.357530697,2.791845193,2.376136376,-0.176278254,1.210560369
-0.400553063,2.686000512,2.38380628,-0.109257611,1.229846257
-0.556323699,2.578621851,2.412951917,-0.069464104,1.283253333
-0.76253435,2.477379113,2.468175228,-0.048171087,1.366331005
-0.98654736,2.420621821,2.563282042,-0.043633231,1.538420469
-1.127482697,2.409883955,2.710544206,-0.055850536,1.603695783
-1.169021533,2.414485897,2.836330638,-0.10681415,1.542871059
-1.131933286,2.431359687,2.883884045,-0.12705997,1.591827544
-1.016217957,2.465107266,2.906893758,-0.12705997,1.554739298
-0.851546142,2.512660673,2.948311242,-0.12705997,1.499848693
-0.694291976,2.569417966,2.971320955,-0.12705997,1.482046334
-0.540004871,2.620039335,3.040350095,-0.12705997,1.459793386
-0.405003653,2.647650991,-3.104777291,-0.122173048,1.458309857
-0.277420085,2.670660704,-2.986660764,-0.121474916,1.453859267
-0.189891823,2.715146149,-2.972854936,-0.121474916,1.453859267
-0.176540054,2.762699556,-3.034214171,-0.121474916,1.41528749
-0.268518905,2.790311212,-3.109379234,-0.121474916,1.394518072
-0.450993079,2.802583059,3.077165636,-0.133692221,1.357429826
-0.683907267,2.807185002,2.995864649,-0.157428699,1.345561587
-0.945008523,2.82252481,2.920699586,-0.178721715,1.344078057
-1.20017566,2.860874332,2.911495701,-0.206996049,1.335176878
-1.449408677,2.90996172,2.890019969,-0.224449342,1.335176878
-1.625948731,2.952913185,2.885418026,-0.241553568,1.333693348
-1.695674635,2.963651051,2.85780637,-0.279950812,1.330726288
-1.674905217,2.948311242,2.801049078,-0.306130751,1.332209818
-1.553255768,2.90996172,2.721282073,-0.303338224,1.326275699
-1.363363945,2.853204428,2.647650991,-0.303338224,1.262483914
-1.142317995,2.801049078,2.590893698,-0.2994985,1.145285055
-0.904953217,2.765767518,2.566350004,-0.299149434,1.041437965
-0.643851961,2.753495671,2.638447105,-0.309272343,1.026602666
-0.357530697,2.759631594,2.844000543,-0.363726616,1.283253333
-0.100880031,2.771903441,3.017340381,-0.412595835,1.689740515
0.118682389,2.784175288,-3.095573406,-0.475427688,1.74611465
0.258134196,2.799515097,-2.972854936,-0.512079603,1.74908171
0.277420085,2.796447135,-2.951379204,-0.495324442,1.74908171
0.143902397,2.76883548,-3.080233597,-0.455530935,1.74908171
-0.11274827,2.761165575,2.966719013,-0.427256601,1.74463112
-0.410937772,2.802583059,2.643049048,-0.386764962,1.6393005
-0.675006088,2.886952007,2.357728605,-0.383972435,1.499848693
-0.893084978,-3.276583149,2.106155742,-0.39618974,1.378199244
-1.068141502,-3.140058851,1.914408132,-0.436681379,1.256549795
-1.1972086,-3.000466592,1.768679949,-0.492182849,1.151219175
-1.269901564,-2.893087931,1.685844982,-0.561646953,1.078526211
-1.299572161,-2.830194715,1.635223613,-0.604582053,1.075559152
-1.302539221,-2.820990829,1.609145938,-0.604232987,1.075559152
-1.284736862,-2.879282103,1.63062167,-0.593411946,1.075559152
-1.20462625,-3.011204458,1.69965081,-0.551174978,1.075559152
-1.08891092,-3.167670507,1.823903261,-0.442266432,1.077042681
-0.945008523,2.954447166,2.023320774,-0.341386402,1.118581518
-0.738797872,2.807185002,2.33165093,-0.333706953,1.407869841
-0.477696616,2.713612168,2.713612168,-0.372453262,1.691224045
-0.189891823,2.686000512,3.046486018,-0.441568301,1.772818188
0.035604717,2.715146149,-3.038816114,-0.4845034,1.799521725
0.115715329,2.747359747,-3.01427242,-0.476474886,1.798038195
0.008901179,2.765767518,-3.095573406,-0.415737428,1.737213471
-0.231430659,2.767301499,3.075631655,-0.343131731,1.661553448
-0.55038958,2.756563633,2.971320955,-0.317649924,1.511716932
-0.887150859,2.761165575,2.922233567,-0.324282175,1.237263907
-1.195725071,2.782641308,2.995864649,-0.335103216,1.115614458
-1.449408677,2.797981116,-3.143126813,-0.337197611,1.30550628
-1.612596962,2.799515097,-3.037282133,-0.342433599,1.379682774
-1.666004037,2.794913155,-3.015806401,-0.35918876,1.375232184
-1.645234619,2.796447135,-3.025010286,-0.356047167,1.376715714
-1.520618111,2.78724325,-3.098641368,-0.319744319,1.376715714
-1.31440746,2.765767518,-3.193748182,-0.286932129,1.323308639
-1.071108562,2.755029652,3.009670477,-0.255516202,1.30550628
-0.827809664,2.753495671,2.902291816,-0.210835774,1.252099205
-0.585994296,2.755029652,2.810252963,-0.186401164,1.207593309
-0.320442451,2.750427709,2.844000543,-0.165457213,1.151219175
-0.063791784,2.741223824,2.985126783,-0.128456233,1.139350936
0.151320046,2.728951977,3.06796175,-0.109606677,1.444958088
0.299673033,2.709010226,-3.169204488,-0.109955743,1.993864137
0.32340951,2.704408283,-3.156932641,-0.125663706,1.952325301
0.267035376,2.702874302,3.072563693,-0.120427718,1.9671606
0.160221225,2.719748092,3.046486018,-0.097738438,1.96122648
0.011868239,2.739689843,3.01427242,-0.09250245,1.927105294
-0.172089464,2.753495671,2.916097644,-0.097389372,1.830675852
-0.361981287,2.770369461,2.908427739,-0.128805299,1.64226756
-0.54297193,2.790311212,2.920699586,-0.179419847,1.326275699
-0.720995514,2.811786944,2.913029682,-0.212581103,1.032536785
-0.910887337,2.831728696,2.914563663,-0.228289066,0.977646181
-1.111163868,2.851670447,2.859340351,-0.243298898,0.98803089
-1.250615676,2.865476275,2.808718982,-0.278205483,1.045888554
-1.301055691,2.868544237,2.759631594,-0.284139602,1.09187798
-1.249132146,2.85627239,2.739689843,-0.277856417,1.09187798
-1.085943861,2.825592772,2.712078187,-0.241902634,1.09187798
-0.884183799,2.790311212,2.686000512,-0.169646003,1.131933286
-0.664621379,2.765767518,2.698272359,-0.12531464,1.235780377
-0.443575429,2.75196169,2.774971403,-0.115889862,1.336660408
-0.234397719,2.738155862,2.85780637,-0.115889862,1.358913356
-0.026703538,2.722816053,2.916097644,-0.106116019,1.364847475
0.163188285,2.705942264,2.989728726,-0.058992129,1.440507498
0.341211869,2.696738379,-3.138524871,-0.041538836,1.772818188
0.456927198,2.692136436,-2.988194745,-0.041538836,2.07842534
0.479180146,2.701340321,-2.903825797,-0.035953783,2.090293579
0.406487183,2.715146149,-2.899223854,-0.035953783,2.088810049
0.234397719,2.7350879,-2.948311242,-0.037350046,2.069524161
0.008901179,2.738155862,-3.000466592,-0.053058009,1.9671606
-0.244782428,2.730485958,-3.035748152,-0.094945911,1.740180531
-0.523686042,2.719748092,-3.135456909,-0.127758101,1.409353371
-0.830776724,2.719748092,3.035748152,-0.136484748,1.290670982
-1.161603884,2.748893728,2.954447166,-0.136833813,1.324792169
-1.477595745,2.799515097,2.85780637,-0.139975406,1.332209818
-1.757982889,2.863942294,2.756563633,-0.141371669,1.347045117
-1.952325301,2.919165605,2.658388857,-0.16824974,1.348528647
-2.025018265,2.96211707,2.575553889,-0.215024564,1.370781595
-2.013150026,2.982058821,2.475845132,-0.225845605,1.376715714
-1.879632338,2.96211707,2.382272299,-0.210835774,1.376715714
-1.646718149,2.911495701,2.337786854,-0.183608637,1.375232184
-1.363363945,2.850136466,2.340854815,-0.162664686,1.370781595
-1.059240323,2.794913155,2.40221405,-0.143116999,1.351495706
-0.75956729,2.762699556,2.498854846,-0.115191731,1.336660408
-0.458410728,2.750427709,2.626175258,-0.083426738,1.335176878
-0.186924763,2.744291786,2.767301499,-0.049567351,1.339627467
0.071209433,2.7350879,2.883884045,-0.018849556,1.394518072
0.315991861,2.722816053,3.035748152,-0.004886922,1.817324084
0.43764131,2.712078187,-3.040350095,0.009773844,2.257932453
0.43319072,2.707476245,-2.932971433,0.01012291,2.256448923
0.292255383,2.721282073,-2.965185032,0.008726646,2.254965394
0.089011792,2.745825767,-3.064893789,-0.038048178,2.18820655
-0.173572994,2.762699556,3.005068534,-0.097738438,2.013150026
-0.519235452,2.785709269,2.845534523,-0.115889862,1.792104076
-0.894568508,2.828660734,2.75196169,-0.12705997,1.53396988
-1.263967444,2.897689873,2.633845163,-0.132994089,1.290670982
-1.584409895,2.983592802,2.686000512,-0.132295957,1.323308639
-1.833642912,-3.232097704,2.774971403,-0.12705997,1.364847475
-1.986446488,-3.186078278,2.673728665,-0.169296937,1.364847475
-2.005732376,-3.163068565,2.595495641,-0.240157305,1.378199244
-1.946391182,-3.173806431,2.538738348,-0.24644049,1.378199244
-1.755015829,-3.235165666,2.50652475,-0.239459173,1.378199244
-1.42418867,2.943709299,2.578621851,-0.248534885,1.378199244
-1.048855614,2.842466562,2.721282073,-0.227241869,1.369298065
-0.701709626,2.785709269,2.811786944,-0.16824974,1.335176878
-0.370882466,2.764233537,2.940641338,-0.14381513,1.327759228
-0.077143553,2.759631594,-3.169204488,-0.126361838,1.327759228
0.169122405,2.750427709,-3.025010286,-0.123569311,1.376715714
0.400553063,2.745825767,-2.897689873,-0.123569311,1.725345232
0.516268393,2.758097614,-2.774971403,-0.123569311,2.177821841
0.483630736,2.765767518,-2.80411704,-0.121823982,2.162986542
0.283354204,2.773437422,-2.971320955,-0.121474916,2.154085363
-0.019285888,2.82252481,2.998932611,-0.131946891,2.013150026
-0.287804794,2.908427739,2.587825736,-0.216769893,1.74908171
-0.537037811,-3.247437513,2.262621791,-0.323584043,1.545838118
-0.750666111,-3.1201171,2.014116889,-0.441219235,1.440507498
-0.918304986,-2.989728726,1.837709088,-0.56443948,1.41825455
-1.013250897,-2.883884045,1.696582848,-0.692895713,1.41825455
-1.023635606,-2.836330638,1.581534282,-0.793077612,1.41825455
-0.964294412,-2.837864619,1.515573105,-0.761661686,1.41825455
-0.832260254,-2.897689873,1.547786703,-0.618893753,1.388583953
-0.65423667,-3.006602515,1.690446924,-0.432492589,1.398968662
-0.470278967,-3.135456909,1.874524629,-0.302640092,1.479079275
-0.265551846,-3.264311302,2.15677711,-0.278554549,1.734246411
-0.050440015,2.922233567,2.445165515,-0.278205483,1.953808831
0.145385927,2.862408313,2.656854876,-0.244346095,1.956775891
0.296705973,2.828660734,2.828660734,-0.171042267,1.956775891
0.372365996,2.785709269,3.031146209,-0.112399204,1.953808831
0.385717765,2.707476245,-3.113981177,-0.108559479,1.984962958
0.321925981,2.601631564,-3.021942324,-0.108559479,2.136283004
0.152803576,2.480447075,-2.974388917,-0.119380521,2.369197193
-0.043022366,2.379204337,-2.960583089,-0.154287106,2.654034927
-0.317475391,2.288699466,-2.988194745,-0.160570291,2.762332607
-0.646819021,2.24421402,-3.074097674,-0.138579143,2.84244322
-0.990997949,2.267223733,-3.184544297,-0.101229097,2.935905601
-1.283253333,2.345456758,2.951379204,-0.08831366,2.925520892
-1.486496924,2.460505324,2.761165575,-0.091106187,2.895850295
-1.651168739,2.592427679,2.659922838,-0.091106187,2.8365091
-1.75204877,2.7350879,2.578621851,-0.101927228,2.780134966
-1.769851128,2.908427739,2.512660673,-0.13543755,2.751947898
-1.75204877,-3.173806431,2.483515037,-0.130899694,2.556121956
-1.726828762,-3.061825827,2.293301408,-0.160570291,2.40628544
-1.713476993,-3.012738439,2.161379053,-0.207345115,2.367713663
-1.701608754,-3.021942324,2.162913034,-0.215024564,2.352878365
-1.689740515,-3.092505444,2.228874212,-0.171042267,2.363263074
-1.655619328,-3.221359838,2.393010165,-0.096691241,2.40480191
-1.590344014,2.888485988,2.670660704,-0.024783675,2.464143104
-1.495398103,2.73355392,2.952913185,0.005235988,2.476011343
-1.370781595,2.600097583,-3.121651081,-0.017802358,2.602111382
-1.182373302,2.486582999,-2.916097644,-0.09843657,2.808322033
-0.98061324,2.422155802,-2.7350879,-0.171042267,2.860245578
-0.795172007,2.379204337,-2.615437392,-0.190589954,2.879531466
-0.587477826,2.359262586,-2.475845132,-0.227241869,2.875080877
-0.359014227,2.371534433,-2.34852472,-0.271573232,2.872113817
-0.136484748,2.411417936,-2.248815963,-0.278903614,2.8365091
0.089011792,2.462039305,-2.187456728,-0.27925268,2.799420854
0.299673033,2.520330578,-2.098485837,-0.276460154,2.786069085
0.482147206,2.578621851,-1.997243099,-0.275412956,2.783102025
0.634950782,2.62924322,-1.90980619,-0.275412956,2.781618495
0.679456678,2.655320895,-1.854582878,-0.275412956,2.781618495
0.600829595,2.643049048,-1.957359597,-0.275412956,2.781618495
0.418355422,2.595495641,-2.213534403,-0.275412956,2.777167906
0.140935337,2.54180631,-2.509592712,-0.276111088,2.759365547
-0.204727121,2.521864559,-2.863942294,-0.276809219,2.744530249
-0.557807229,2.561748062,3.066427769,-0.276460154,2.717826711
-0.867864971,2.636913124,2.794913155,-0.264242849,2.674804345
-1.164570943,2.732019939,2.555612138,-0.259355927,2.628814919
-1.42418867,2.844000543,2.399146089,-0.258657795,2.61991374
-1.668971097,2.977456879,2.307107236,-0.222354947,2.590243143
-1.85886292,-3.176874392,2.222738288,-0.150447382,2.581341964
-1.947874712,-3.092505444,2.15524313,-0.150447382,2.591726673
-1.955292361,-3.060291846,2.152175168,-0.163362818,2.594693732
-1.916720585,-3.092505444,2.15677711,-0.132645023,2.596177262
-1.796554666,-3.19068022,2.198194594,-0.12705997,2.594693732
-1.579959305,2.951379204,2.346990739,-0.13543755,2.600627852
-1.3114404,2.811786944,2.547942234,-0.141022604,2.606561971
-0.995448539,2.701340321,2.791845193,-0.161268423,2.628814919
-0.688357857,2.638447105,3.078699616,-0.195476876,2.679254935
-0.406487183,2.609301469,-3.051087961,-0.197920337,2.692606704
-0.148352986,2.620039335,-2.925301529,-0.197920337,2.685189054
0.068242374,2.650718952,-2.825592772,-0.197920337,2.685189054
0.231430659,2.687534493,-2.719748092,-0.197920337,2.676287875
0.366431876,2.725884015,-2.626175258,-0.197920337,2.673320815
0.427256601,2.745825767,-2.566350004,-0.190589954,2.673320815
0.422806011,2.742757805,-2.59396166,-0.181863308,2.674804345
0.252200077,2.73355392,-2.662990799,-0.182910506,2.674804345
-0.094945911,2.721282073,-2.920699586,-0.192684349,2.674804345
-0.43467425,2.739689843,-3.176874392,-0.199665666,2.587276083
-0.798139067,2.78724325,2.897689873,-0.206297918,2.570957255
-1.143801525,2.873146179,2.753495671,-0.206646983,2.573924314
-1.444958088,2.982058821,2.682932551,-0.206646983,2.6228808
-1.679355806,-3.189146239,2.600097583,-0.209788576,2.62139727
-1.814357024,-3.097107387,2.570951947,-0.215024564,2.597660792
-1.846994681,-3.060291846,2.5586801,-0.247487688,2.578374904
-1.827708793,-3.074097674,2.551010195,-0.249582083,2.578374904
-1.704575814,-3.133922928,2.570951947,-0.233525054,2.572440785
-1.471661625,-3.236699647,2.616971373,-0.23387412,2.559089016
-1.20017566,2.936039395,2.704408283,-0.235968515,2.538319598
-0.901986157,2.8393986,2.827126753,-0.231779725,2.530901948
-0.591928416,2.758097614,2.983592802,-0.230034395,2.51309959
-0.268518905,2.693670417,-3.077165636,-0.212930169,2.502714881
0.00445059,2.653786914,-2.847068504,-0.199665666,2.508649
0.244782428,2.635379144,-2.650718952,-0.200014732,2.573924314
0.43912484,2.636913124,-2.500388826,-0.213279235,2.6228808
0.553356639,2.649184971,-2.385340261,-0.233175988,2.694090233
0.566708408,2.658388857,-2.382272299,-0.233525054,2.719310241
0.485114266,2.670660704,-2.488116979,-0.208741379,2.719310241
0.295222443,2.696738379,-2.650718952,-0.170693201,2.717826711
0.023736478,2.730485958,-2.862408313,-0.138230077,2.634749039
-0.249233017,2.76883548,-3.158466622,-0.149051118,2.605078442
-0.556323699,2.8393986,2.867010256,-0.173834793,2.529418418
-0.863414381,2.936039395,2.672194685,-0.217468025,2.523484299
-1.171988593,-3.222893819,2.50652475,-0.222704013,2.486396052
-1.425672199,-3.094039425,2.385340261,-0.225496539,2.476011343
-1.609629903,-2.969786974,2.333184911,-0.225496539,2.424087798
-1.697158165,-2.897689873,2.290233447,-0.251676478,2.395900731
-1.704575814,-2.886952007,2.274893638,-0.290771853,2.392933671
-1.63781697,-2.928369491,2.287165485,-0.260403124,2.392933671
-1.471661625,-3.028078248,2.323981026,-0.222354947,2.391450141
-1.231329787,-3.15539866,2.417553859,-0.222354947,2.395900731
-0.955393233,-3.287321015,2.584757775,-0.218864288,2.409252499
-0.704676685,2.888485988,2.765767518,-0.205948852,2.422604268
-0.482147206,2.793379174,2.911495701,-0.189193691,2.425571328
-0.271485965,2.718214111,-3.202952067,-0.188495559,2.468593694
-0.062308254,2.669126723,-3.006602515,-0.197222205,2.496780761
0.137968277,2.655320895,-2.790311212,-0.239110108,2.556121956
0.305607152,2.68139857,-2.61236943,-0.278903614,2.579858434
0.357530697,2.719748092,-2.514194654,-0.283790536,2.579858434
0.299673033,2.742757805,-2.552544176,-0.277158285,2.579858434
0.102363561,2.738155862,-2.679864589,-0.254818071,2.538319598
-0.189891823,2.722816053,-2.833262676,-0.255167137,2.499747821
-0.577093117,2.696738379,-3.003534554,-0.256214334,2.492330172
