Damindarov/ARM_ex/ARM_ROS/data_point_ROS_part.csv
time,q1,q2,q3,q4,q5,q6,q7,q8,q9,q10
1647624100.4396417,0.6243302226066589,0.13351768255233765,-1.5879005193710327,-0.04153883457183838,-7.188234329223633,-1.0246992111206055,0.0,-0.0,0.0,-0.21935926377773285
1647624100.6124656,0.8805050253868103,0.028187068179249763,-0.014311700128018856,0.1676388680934906,-7.289477348327637,-1.026233196258545,0.0,-0.0,0.0,-0.21935926377773285
1647624100.642065,0.8805050253868103,0.028187068179249763,-0.014311700128018856,0.1676388680934906,-7.287943363189697,-1.026233196258545,0.0,-0.0,0.0,-0.21935926377773285
1647624100.6580968,0.8805050253868103,0.028187068179249763,-0.014311700128018856,0.1676388680934906,-7.289477348327637,-1.026233196258545,0.0,-0.0,0.0,-0.2208932489156723
1647624100.674448,0.8805050253868103,0.028187068179249763,-0.014311700128018856,0.1676388680934906,-7.287943363189697,-1.026233196258545,0.0,-0.0,0.0,-0.21935926377773285
1647624100.6921296,0.8805050253868103,0.028187068179249763,-0.014311700128018856,0.1676388680934906,-7.289477348327637,-1.026233196258545,0.0,-0.0,0.0,-0.21935926377773285
1647624100.7070928,0.8805050253868103,0.028187068179249763,-0.014311700128018856,0.1676388680934906,-7.287943363189697,-1.026233196258545,0.0,-0.0,0.0,-0.21935926377773285
1647624100.7246926,0.8805050253868103,0.028187068179249763,-0.014311700128018856,0.1676388680934906,-7.287943363189697,-1.026233196258545,0.0,-0.0,0.0,-0.21935926377773285
1647624100.7440836,0.8805050253868103,0.028187068179249763,-0.014311700128018856,0.1676388680934906,-7.287943363189697,-1.0246992111206055,0.0,-0.0,0.0,-0.2208932489156723
1647624100.7614555,0.8805050253868103,0.028187068179249763,-0.014311700128018856,0.1676388680934906,-7.287943363189697,-1.026233196258545,0.0,-0.0,0.0,-0.21935926377773285
1647624100.7772388,0.8805050253868103,0.028187068179249763,-0.014311700128018856,0.1676388680934906,-7.287943363189697,-1.026233196258545,0.0,-0.0,0.0,-0.21935926377773285
1647624100.7929583,0.8789710402488708,0.028187068179249763,-0.014311700128018856,0.1676388680934906,-7.286409378051758,-1.026233196258545,0.0,-0.0,0.0,-0.21935926377773285
1647624100.9660501,0.872835099697113,0.028187068179249763,-0.014311700128018856,0.16912239789962769,-7.2787394523620605,-1.026233196258545,0.0,-0.0,0.0,-0.2208932489156723
1647624100.9739802,0.8651652336120605,0.028187068179249763,-0.01326450239866972,0.17357298731803894,-7.2649335861206055,-1.026233196258545,0.0,-0.0,0.0,-0.21935926377773285
1647624100.99211,0.849825382232666,0.028187068179249763,-0.009773843921720982,0.17950710654258728,-7.249593734741211,-1.026233196258545,0.0,-0.0,0.0,-0.21935926377773285
1647624101.0081453,0.6887574195861816,-0.01335176918655634,-0.0411897711455822,0.2462659627199173,-7.315554618835449,-1.026233196258545,0.0,-0.0,0.0,-0.21935926377773285
1647624101.0237813,0.676485538482666,-0.01335176918655634,-0.045727625489234924,0.26258477568626404,-7.333962440490723,-1.026233196258545,0.0,-0.0,0.0,-0.2208932489156723
1647624101.05436,0.6718836426734924,-0.01335176918655634,-0.048171088099479675,0.28187066316604614,-7.346234321594238,-1.026233196258545,0.0,-0.0,0.0,-0.2208932489156723
1647624101.070144,0.6734176278114319,-0.01335176918655634,-0.04956734925508499,0.30857419967651367,-7.3539042472839355,-1.026233196258545,0.0,-0.0,0.0,-0.21935926377773285
1647624101.0864782,0.6902914047241211,-0.01335176918655634,-0.0460766926407814,0.3768165707588196,-7.352370262145996,-1.026233196258545,0.0,-0.0,0.0,-0.21935926377773285
1647624101.1018097,0.7040972113609314,-0.01335176918655634,-0.04188790172338486,0.4153883755207062,-7.347768306732178,-1.026233196258545,0.0,-0.0,0.0,-0.21935926377773285
1647624101.1180482,0.7194370031356812,-0.01335176918655634,-0.03769911080598831,0.44950956106185913,-7.338564395904541,-1.026233196258545,0.0,-0.0,0.0,-0.21935926377773285
1647624101.1414864,0.7347768545150757,-0.01186823844909668,-0.03420845419168472,0.4836307466030121,-7.326292514801025,-1.026233196258545,0.0,-0.0,0.0,-0.2208932489156723
1647624101.1573133,0.7531846165657043,-0.00890117883682251,-0.03176499158143997,0.5162683725357056,-7.31402063369751,-1.026233196258545,0.0,-0.0,0.0,-0.2208932489156723
1647624101.3454814,0.771592378616333,-0.007417649496346712,-0.030717795714735985,0.5429719090461731,-7.300214767456055,-1.026233196258545,0.0,-0.0,0.0,-0.2208932489156723
1647624101.3686938,0.7915341258049011,-0.00593411922454834,-0.030717795714735985,0.5622578263282776,-7.289477348327637,-1.026233196258545,0.0,-0.0,0.0,-0.21935926377773285
1647624101.3844044,0.8743690848350525,-0.00296705961227417,-0.1368338167667389,0.27148595452308655,-7.329360485076904,-1.026233196258545,0.0,-0.0,0.0,-0.21935926377773285
1647624101.3988156,0.889708936214447,-0.00296705961227417,-0.16371189057826996,0.2165953665971756,-7.346234321594238,-1.026233196258545,0.0,-0.0,0.0,-0.21935926377773285
1647624101.415332,0.8958448171615601,-0.00296705961227417,-0.18325957655906677,0.17505651712417603,-7.355438232421875,-1.026233196258545,0.0,-0.0,0.0,-0.21935926377773285
1647624101.4328523,0.8973788022994995,-0.00296705961227417,-0.2059488445520401,0.13055062294006348,-7.363108158111572,-1.026233196258545,0.0,-0.0,0.0,-0.21935926377773285
1647624101.464509,0.8973788022994995,-0.00296705961227417,-0.2307325303554535,0.08307766914367676,-7.36924409866333,-1.026233196258545,0.0,-0.0,0.0,-0.21935926377773285
1647624101.4798539,0.898912787437439,-0.00296705961227417,-0.25795966386795044,0.03857177495956421,-7.3707780838012695,-1.026233196258545,0.0,-0.0,0.0,-0.21935926377773285
1647624101.4955473,0.8973788022994995,-0.00296705961227417,-0.31031954288482666,-0.03560471534729004,-7.36924409866333,-1.026233196258545,0.0,-0.0,0.0,-0.21935926377773285
1647624101.5123246,0.8973788022994995,-0.00296705961227417,-0.3378957509994507,-0.07120943069458008,-7.366176128387451,-1.026233196258545,0.0,-0.0,0.0,-0.21935926377773285
1647624101.5316477,0.8958448171615601,-0.004450589418411255,-0.36791539192199707,-0.10384709388017654,-7.361574172973633,-1.026233196258545,0.0,-0.0,0.0,-0.21935926377773285
1647624101.5445673,0.8958448171615601,-0.007417649496346712,-0.3982841372489929,-0.13203415274620056,-7.3569722175598145,-1.026233196258545,0.0,-0.0,0.0,-0.21935926377773285
1647624101.660751,0.8927768468856812,-0.01186823844909668,-0.4286528527736664,-0.16318827867507935,-7.350836277008057,-1.026233196258545,0.0,-0.0,0.0,-0.21935926377773285
1647624101.6676257,0.8881749510765076,-0.01780235767364502,-0.4562290608882904,-0.1884082853794098,-7.344700336456299,-1.026233196258545,0.0,-0.0,0.0,-0.2208932489156723
1647624101.6871965,0.7102331519126892,-0.0593411959707737,-0.5560619235038757,-0.3738495111465454,-7.2787394523620605,-1.026233196258545,0.0,-0.0,0.0,-0.21935926377773285
1647624101.7021272,0.6918253898620605,-0.06527531147003174,-0.5745623707771301,-0.37978363037109375,-7.289477348327637,-1.026233196258545,0.0,-0.0,0.0,-0.21935926377773285
1647624101.7172594,0.676485538482666,-0.07269296050071716,-0.5976007580757141,-0.37830010056495667,-7.298680782318115,-1.026233196258545,0.0,-0.0,0.0,-0.2208932489156723
1647624101.7326322,0.6642137169837952,-0.07714354991912842,-0.6181955933570862,-0.37830010056495667,-7.307884693145752,-1.026233196258545,0.0,-0.0,0.0,-0.2208932489156723
1647624101.7489417,0.647339940071106,-0.08307766914367676,-0.6401867866516113,-0.37830010056495667,-7.315554618835449,-1.026233196258545,0.0,-0.0,0.0,-0.2208932489156723
1647624101.7677417,0.6320001482963562,-0.0890117883682251,-0.6649704575538635,-0.3753330409526825,-7.320156574249268,-1.026233196258545,0.0,-0.0,0.0,-0.21935926377773285
1647624101.7843904,0.6135923266410828,-0.0979129746556282,-0.6873106360435486,-0.37088245153427124,-7.324758529663086,-1.026233196258545,0.0,-0.0,0.0,-0.21935926377773285
1647624101.7998798,0.5859807133674622,-0.11126474291086197,-0.7183775305747986,-0.36049774289131165,-7.3232245445251465,-1.026233196258545,0.0,-0.0,0.0,-0.2208932489156723
1647624101.8167002,0.5614370107650757,-0.12164945155382156,-0.7421140074729919,-0.35011303424835205,-7.318622589111328,-1.0246992111206055,0.0,-0.0,0.0,-0.2208932489156723
1647624101.8338907,0.5368933081626892,-0.13203415274620056,-0.7665486335754395,-0.33231067657470703,-7.31248664855957,-1.026233196258545,0.0,-0.0,0.0,-0.21935926377773285
1647624101.8491802,0.5077476501464844,-0.14538592100143433,-0.7962192296981812,-0.3056071400642395,-7.304816722869873,-1.026233196258545,0.0,-0.0,0.0,-0.21935926377773285
1647624101.8756387,0.48473796248435974,-0.1587376892566681,-0.8199557065963745,-0.27296948432922363,-7.298680782318115,-1.026233196258545,0.0,-0.0,0.0,-0.21935926377773285
1647624101.8915694,0.4586602747440338,-0.17208945751190186,-0.8468337655067444,-0.2373647838830948,-7.294078826904297,-1.026233196258545,0.0,-0.0,0.0,-0.21935926377773285
1647624101.907678,0.4279806613922119,-0.19137535989284515,-0.8908160328865051,-0.19137535989284515,-7.286409378051758,-1.0246992111206055,0.0,-0.0,0.0,-0.21935926377773285
1647624101.9234803,0.4080389142036438,-0.20324359834194183,-0.9183922410011292,-0.1676388680934906,-7.284875392913818,-1.0246992111206055,0.0,-0.0,0.0,-0.2178252786397934
1647624101.9414299,0.3880971670150757,-0.2151118367910385,-0.9456194043159485,-0.1483529806137085,-7.286409378051758,-1.026233196258545,0.0,-0.0,0.0,-0.21935926377773285
1647624101.9684227,0.3712233603000641,-0.2269800752401352,-0.9749408960342407,-0.13203415274620056,-7.287943363189697,-1.026233196258545,0.0,-0.0,0.0,-0.21935926377773285
1647624101.977937,0.3528155982494354,-0.2373647838830948,-1.0018190145492554,-0.12164945155382156,-7.291011333465576,-1.026233196258545,0.0,-0.0,0.0,-0.21935926377773285
1647624101.99401,0.33440783619880676,-0.24923302233219147,-1.0276498794555664,-0.11571533232927322,-7.291011333465576,-1.026233196258545,0.0,-0.0,0.0,-0.21935926377773285
1647624102.0102766,0.3098641335964203,-0.26258477568626404,-1.0611602067947388,-0.11274827271699905,-7.292545318603516,-1.026233196258545,0.0,-0.0,0.0,-0.2208932489156723
1647624102.0271678,0.2914563715457916,-0.27148595452308655,-1.0838494300842285,-0.11274827271699905,-7.291011333465576,-1.026233196258545,0.0,-0.0,0.0,-0.2208932489156723
1647624102.0428603,0.26998063921928406,-0.28038713335990906,-1.1068878173828125,-0.10978121310472488,-7.289477348327637,-1.026233196258545,0.0,-0.0,0.0,-0.2208932489156723
1647624102.0577939,0.2485049068927765,-0.2863212525844574,-1.1257373094558716,-0.10236356407403946,-7.284875392913818,-1.026233196258545,0.0,-0.0,0.0,-0.2208932489156723
1647624102.07786,0.22549518942832947,-0.29225537180900574,-1.143190622329712,-0.0979129746556282,-7.2802734375,-1.026233196258545,0.0,-0.0,0.0,-0.2208932489156723
1647624102.093014,0.20248547196388245,-0.29967302083969116,-1.1599458456039429,-0.0890117883682251,-7.274137496948242,-1.026233196258545,0.0,-0.0,0.0,-0.2208932489156723
1647624102.109385,0.1702718734741211,-0.3056071400642395,-1.1763519048690796,-0.08307766914367676,-7.268001556396484,-1.026233196258545,0.0,-0.0,0.0,-0.2208932489156723
1647624102.1257217,0.14419420063495636,-0.30857419967651367,-1.1892673969268799,-0.08011060953140259,-7.2649335861206055,-1.026233196258545,0.0,-0.0,0.0,-0.21935926377773285
1647624102.1425967,0.11658255010843277,-0.3130247890949249,-1.2021827697753906,-0.07566002011299133,-7.261865615844727,-1.026233196258545,0.0,-0.0,0.0,-0.21935926377773285
1647624102.159331,0.08743690699338913,-0.314508318901062,-1.2130038738250732,-0.07417649030685425,-7.261865615844727,-1.0246992111206055,0.0,-0.0,0.0,-0.2208932489156723
1647624102.1803887,0.058291275054216385,-0.314508318901062,-1.223126769065857,-0.07417649030685425,-7.2649335861206055,-1.026233196258545,0.0,-0.0,0.0,-0.21935926377773285
1647624102.196994,0.029145637527108192,-0.314508318901062,-1.2325515747070312,-0.07417649030685425,-7.268001556396484,-1.0246992111206055,0.0,-0.0,0.0,-0.21935926377773285
1647624102.2128975,-0.010737866163253784,-0.314508318901062,-1.241976261138916,-0.07417649030685425,-7.277205467224121,-1.0246992111206055,0.0,-0.0,0.0,-0.21935926377773285
1647624102.22836,-0.046019427478313446,-0.314508318901062,-1.2475613355636597,-0.07566002011299133,-7.283341407775879,-1.026233196258545,0.0,-0.0,0.0,-0.21935926377773285
1647624102.2473376,-0.07976700365543365,-0.314508318901062,-1.250702977180481,-0.08456119894981384,-7.287943363189697,-1.026233196258545,0.0,-0.0,0.0,-0.21935926377773285
1647624102.2606623,-0.11351458728313446,-0.31005772948265076,-1.252448320388794,-0.0979129746556282,-7.292545318603516,-1.026233196258545,0.0,-0.0,0.0,-0.2178252786397934
1647624102.2811387,-0.14726217091083527,-0.30115655064582825,-1.2531464099884033,-0.11719886213541031,-7.295612812042236,-1.026233196258545,0.0,-0.0,0.0,-0.21935926377773285
1647624102.2975864,-0.1871456652879715,-0.29077184200286865,-1.2538444995880127,-0.139451801776886,-7.298680782318115,-1.026233196258545,0.0,-0.0,0.0,-0.21935926377773285
1647624102.313919,-0.23930101096630096,-0.2759365439414978,-1.2573351860046387,-0.17357298731803894,-7.298680782318115,-1.026233196258545,0.0,-0.0,0.0,-0.21935926377773285
1647624102.3301806,-0.27765053510665894,-0.26258477568626404,-1.259778618812561,-0.20324359834194183,-7.298680782318115,-1.026233196258545,0.0,-0.0,0.0,-0.21935926377773285
1647624102.3456886,-0.3221359848976135,-0.2462659627199173,-1.261523962020874,-0.2358812540769577,-7.297146797180176,-1.026233196258545,0.0,-0.0,0.0,-0.21935926377773285
1647624102.3619523,-0.3604854941368103,-0.22846360504627228,-1.2629202604293823,-0.27000242471694946,-7.295612812042236,-1.026233196258545,0.0,-0.0,0.0,-0.21935926377773285
1647624102.3838947,-0.40343695878982544,-0.21214477717876434,-1.2643165588378906,-0.3056071400642395,-7.294078826904297,-1.026233196258545,0.0,-0.0,0.0,-0.21935926377773285
1647624102.400457,-0.4463884234428406,-0.19285888969898224,-1.266759991645813,-0.34121185541152954,-7.292545318603516,-1.026233196258545,0.0,-0.0,0.0,-0.21935926377773285
1647624102.4160936,-0.5031457543373108,-0.16615533828735352,-1.2709487676620483,-0.38720130920410156,-7.291011333465576,-1.026233196258545,0.0,-0.0,0.0,-0.2208932489156723
1647624102.4326193,-0.5460972189903259,-0.14538592100143433,-1.2744394540786743,-0.41835543513298035,-7.289477348327637,-1.026233196258545,0.0,-0.0,0.0,-0.21935926377773285
1647624102.4478064,-0.5844467282295227,-0.12461651116609573,-1.2779300212860107,-0.44654250144958496,-7.286409378051758,-1.026233196258545,0.0,-0.0,0.0,-0.21935926377773285
1647624102.4644065,-0.6289321780204773,-0.10384709388017654,-1.2814207077026367,-0.47621309757232666,-7.283341407775879,-1.026233196258545,0.0,-0.0,0.0,-0.21935926377773285
1647624102.489304,-0.6672816872596741,-0.08307766914367676,-1.2852604389190674,-0.49846604466438293,-7.283341407775879,-1.0246992111206055,0.0,-0.0,0.0,-0.21935926377773285
1647624102.5048363,-0.7040972113609314,-0.06379178166389465,-1.2887511253356934,-0.5162683725357056,-7.2818074226379395,-1.026233196258545,0.0,-0.0,0.0,-0.21935926377773285
1647624102.5210414,-0.7608545422554016,-0.03263765573501587,-1.295383334159851,-0.5355542898178101,-7.283341407775879,-1.026233196258545,0.0,-0.0,0.0,-0.21935926377773285
1647624102.537337,-0.7930681109428406,-0.01335176918655634,-1.2999212741851807,-0.5444554686546326,-7.283341407775879,-1.026233196258545,0.0,-0.0,0.0,-0.21935926377773285
1647624102.553682,-0.8237477540969849,0.00593411922454834,-1.3030627965927124,-0.5518730878829956,-7.286409378051758,-1.026233196258545,0.0,-0.0,0.0,-0.21935926377773285
1647624102.5691736,-0.8528933525085449,0.022252947092056274,-1.3062044382095337,-0.5622578263282776,-7.289477348327637,-1.026233196258545,0.0,-0.0,0.0,-0.21935926377773285
1647624102.5883043,-0.8774370551109314,0.037088245153427124,-1.3096951246261597,-0.5741260647773743,-7.292545318603516,-1.026233196258545,0.0,-0.0,0.0,-0.21935926377773285
1647624102.60544,-0.9004467725753784,0.05340707674622536,-1.3128366470336914,-0.5815436840057373,-7.294078826904297,-1.026233196258545,0.0,-0.0,0.0,-0.21935926377773285
1647624102.6218593,-0.9249904751777649,0.069725900888443,-1.3163273334503174,-0.5889613628387451,-7.297146797180176,-1.0246992111206055,0.0,-0.0,0.0,-0.21935926377773285
1647624102.6375844,-0.9403302669525146,0.08307766914367676,-1.3194688558578491,-0.5963789820671082,-7.298680782318115,-1.026233196258545,0.0,-0.0,0.0,-0.21935926377773285
1647624102.6540973,-0.9556700587272644,0.09197884798049927,-1.3215633630752563,-0.6023131012916565,-7.300214767456055,-1.026233196258545,0.0,-0.0,0.0,-0.21935926377773285
1647624102.6945007,-0.9756118655204773,0.1082976832985878,-1.3261011838912964,-0.6141813397407532,-7.300214767456055,-1.026233196258545,0.0,-0.0,0.0,-0.21935926377773285
1647624102.7084448,-0.9848157167434692,0.11423180252313614,-1.328195571899414,-0.6171483993530273,-7.298680782318115,-1.026233196258545,0.0,-0.0,0.0,-0.21935926377773285
1647624102.9373066,-0.96794193983078,0.10236356407403946,-1.323657751083374,-0.6097307801246643,-7.300214767456055,-1.026233196258545,0.0,-0.0,0.0,-0.21935926377773285
1647624102.9380577,-0.990951657295227,0.1186823919415474,-1.3306390047073364,-0.6186319589614868,-7.300214767456055,-1.026233196258545,0.0,-0.0,0.0,-0.21935926377773285
1647624102.9402618,-0.9924856424331665,0.12016592174768448,-1.3320353031158447,-0.6186319589614868,-7.300214767456055,-1.0246992111206055,0.0,-0.0,0.0,-0.21935926377773285
1647624103.783928,-0.994019627571106,0.12016592174768448,-1.3330824375152588,-0.6186319589614868,-7.301748752593994,-1.026233196258545,0.0,-0.0,0.0,-0.21935926377773285
1647624103.805958,-0.990951657295227,0.12016592174768448,-1.334478735923767,-0.6186319589614868,-7.301748752593994,-1.026233196258545,0.0,-0.0,0.0,-0.21935926377773285
1647624103.8157368,0.08590292930603027,-0.4139048457145691,-1.3313370943069458,-0.4242895543575287,-7.39685583114624,-1.026233196258545,0.0,-0.0,0.0,-0.21935926377773285
1647624103.8346772,0.0951068177819252,-0.4228060245513916,-1.3313370943069458,-0.4228060245513916,-7.378448009490967,-1.026233196258545,0.0,-0.0,0.0,-0.21935926377773285
1647624103.8499827,0.10584468394517899,-0.42725661396980286,-1.3313370943069458,-0.43764132261276245,-7.360040187835693,-1.026233196258545,0.0,-0.0,0.0,-0.2208932489156723
1647624103.8665118,0.11965050548315048,-0.4317072033882141,-1.3309880495071411,-0.45841073989868164,-7.350836277008057,-1.026233196258545,0.0,-0.0,0.0,-0.21935926377773285
1647624103.882643,0.13652430474758148,-0.4346742630004883,-1.3309880495071411,-0.4806636869907379,-7.347768306732178,-1.026233196258545,0.0,-0.0,0.0,-0.21935926377773285
1647624103.8998196,0.1564660519361496,-0.43764132261276245,-1.3309880495071411,-0.5058836936950684,-7.349302291870117,-1.026233196258545,0.0,-0.0,0.0,-0.21935926377773285
1647624103.9192185,0.1764077991247177,-0.43912485241889954,-1.329940915107727,-0.5281366109848022,-7.355438232421875,-1.026233196258545,0.0,-0.0,0.0,-0.2208932489156723
1647624103.9345193,0.19941751658916473,-0.4406083822250366,-1.3278465270996094,-0.5503895878791809,-7.364642143249512,-1.026233196258545,0.0,-0.0,0.0,-0.21935926377773285
1647624103.951015,0.22549518942832947,-0.4420919120311737,-1.324704885482788,-0.5711590051651001,-7.372312068939209,-1.0246992111206055,0.0,-0.0,0.0,-0.21935926377773285
1647624103.9669685,0.24390296638011932,-0.4435754418373108,-1.3222614526748657,-0.5830272436141968,-7.375380039215088,-1.026233196258545,0.0,-0.0,0.0,-0.21935926377773285
1647624103.9823346,0.2623107433319092,-0.4435754418373108,-1.320167064666748,-0.5919284224510193,-7.373846054077148,-1.026233196258545,0.0,-0.0,0.0,-0.21935926377773285
1647624103.998931,0.2791845202445984,-0.4450589716434479,-1.318421721458435,-0.5963789820671082,-7.36924409866333,-1.026233196258545,0.0,-0.0,0.0,-0.21935926377773285
1647624104.0249252,0.2991262674331665,-0.44654250144958496,-1.316676378250122,-0.5904448628425598,-7.364642143249512,-1.026233196258545,0.0,-0.0,0.0,-0.21935926377773285
1647624104.0405352,0.31753402948379517,-0.44654250144958496,-1.3145819902420044,-0.5815436840057373,-7.363108158111572,-1.0246992111206055,0.0,-0.0,0.0,-0.21935926377773285
1647624104.0584188,0.3466796875,-0.44802603125572205,-1.3117895126342773,-0.5667083859443665,-7.364642143249512,-1.026233196258545,0.0,-0.0,0.0,-0.21935926377773285
1647624104.0731668,0.36508744955062866,-0.44802603125572205,-1.3110913038253784,-0.557807207107544,-7.366176128387451,-1.026233196258545,0.0,-0.0,0.0,-0.21935926377773285
1647624104.0900638,0.3834952116012573,-0.44802603125572205,-1.310393214225769,-0.5474225282669067,-7.364642143249512,-1.026233196258545,0.0,-0.0,0.0,-0.21935926377773285
1647624104.1221344,0.4003690183162689,-0.44802603125572205,-1.3093459606170654,-0.5355542898178101,-7.363108158111572,-1.0246992111206055,0.0,-0.0,0.0,-0.21935926377773285
1647624104.1282356,0.4157088100910187,-0.44802603125572205,-1.3079497814178467,-0.5251695513725281,-7.363108158111572,-1.0246992111206055,0.0,-0.0,0.0,-0.21935926377773285
1647624104.1461852,0.4325826168060303,-0.44802603125572205,-1.3062044382095337,-0.517751932144165,-7.363108158111572,-1.026233196258545,0.0,-0.0,0.0,-0.21935926377773285
1647624104.1611032,0.45405834913253784,-0.44802603125572205,-1.3030627965927124,-0.5073671936988831,-7.366176128387451,-1.026233196258545,0.0,-0.0,0.0,-0.21935926377773285
1647624104.1773612,0.4693981409072876,-0.44802603125572205,-1.3002703189849854,-0.5014330744743347,-7.366176128387451,-1.026233196258545,0.0,-0.0,0.0,-0.21935926377773285
1647624104.1935272,0.48473796248435974,-0.44802603125572205,-1.2974777221679688,-0.49698251485824585,-7.366176128387451,-1.026233196258545,0.0,-0.0,0.0,-0.21935926377773285
1647624104.226496,0.49854379892349243,-0.44802603125572205,-1.294336199760437,-0.4940154552459717,-7.366176128387451,-1.026233196258545,0.0,-0.0,0.0,-0.21935926377773285
1647624104.2427819,0.5138835906982422,-0.44654250144958496,-1.2911945581436157,-0.4925319254398346,-7.367710113525391,-1.026233196258545,0.0,-0.0,0.0,-0.21935926377773285
1647624104.259157,0.5399612784385681,-0.4420919120311737,-1.2852604389190674,-0.4925319254398346,-7.36924409866333,-1.026233196258545,0.0,-0.0,0.0,-0.21935926377773285
1647624104.2769792,0.5537670850753784,-0.43764132261276245,-1.2821189165115356,-0.4925319254398346,-7.36924409866333,-1.026233196258545,0.0,-0.0,0.0,-0.21935926377773285
1647624104.2918067,0.566038966178894,-0.4331907331943512,-1.2786282300949097,-0.4925319254398346,-7.36924409866333,-1.026233196258545,0.0,-0.0,0.0,-0.21935926377773285
1647624104.3076036,0.5783107876777649,-0.42874014377593994,-1.275835633277893,-0.4940154552459717,-7.3707780838012695,-1.026233196258545,0.0,-0.0,0.0,-0.2208932489156723
1647624104.3334022,0.5921165943145752,-0.4242895543575287,-1.2737412452697754,-0.49846604466438293,-7.36924409866333,-1.0246992111206055,0.0,-0.0,0.0,-0.21935926377773285
1647624104.3513346,0.6013205051422119,-0.41835543513298035,-1.2705997228622437,-0.49994957447052,-7.36924409866333,-1.026233196258545,0.0,-0.0,0.0,-0.21935926377773285
1647624104.367438,0.62126225233078,-0.40945425629615784,-1.2657127380371094,-0.5014330744743347,-7.36924409866333,-1.026233196258545,0.0,-0.0,0.0,-0.21935926377773285
1647624104.381403,0.6320001482963562,-0.4035201370716095,-1.263269305229187,-0.5014330744743347,-7.36924409866333,-1.026233196258545,0.0,-0.0,0.0,-0.21935926377773285
1647624104.3965936,0.6427379846572876,-0.39758601784706116,-1.2608258724212646,-0.5014330744743347,-7.36924409866333,-1.026233196258545,0.0,-0.0,0.0,-0.21935926377773285
1647624104.4205055,0.6565437912940979,-0.3916518986225128,-1.258033275604248,-0.5014330744743347,-7.36924409866333,-1.026233196258545,0.0,-0.0,0.0,-0.21935926377773285
1647624104.430132,0.6672816872596741,-0.38720130920410156,-1.255240797996521,-0.5014330744743347,-7.36924409866333,-1.026233196258545,0.0,-0.0,0.0,-0.21935926377773285
1647624104.4507883,0.6780195236206055,-0.3812671899795532,-1.252448320388794,-0.5014330744743347,-7.36924409866333,-1.026233196258545,0.0,-0.0,0.0,-0.21935926377773285
1647624104.4671807,0.6918253898620605,-0.3738495111465454,-1.248957633972168,-0.5014330744743347,-7.3707780838012695,-1.0246992111206055,0.0,-0.0,0.0,-0.21935926377773285
1647624104.4848025,0.7071651816368103,-0.36643186211586,-1.2458159923553467,-0.5014330744743347,-7.36924409866333,-1.026233196258545,0.0,-0.0,0.0,-0.21935926377773285
1647624104.4997666,0.7194370031356812,-0.36049774289131165,-1.2430235147476196,-0.5014330744743347,-7.36924409866333,-1.026233196258545,0.0,-0.0,0.0,-0.21935926377773285
1647624104.5345876,0.7301748991012573,-0.3545636236667633,-1.240230917930603,-0.5014330744743347,-7.36924409866333,-1.026233196258545,0.0,-0.0,0.0,-0.21935926377773285
1647624104.5508296,0.7424467206001282,-0.34862950444221497,-1.237438440322876,-0.5014330744743347,-7.36924409866333,-1.026233196258545,0.0,-0.0,0.0,-0.21935926377773285
1647624104.5667782,0.7639224529266357,-0.33824479579925537,-1.2332496643066406,-0.5014330744743347,-7.3707780838012695,-1.026233196258545,0.0,-0.0,0.0,-0.21935926377773285
1647624104.5840092,0.7731263637542725,-0.3337942063808441,-1.2315043210983276,-0.5014330744743347,-7.372312068939209,-1.026233196258545,0.0,-0.0,0.0,-0.21935926377773285
1647624104.5998948,0.7807962894439697,-0.33082714676856995,-1.2301080226898193,-0.5014330744743347,-7.373846054077148,-1.026233196258545,0.0,-0.0,0.0,-0.21935926377773285
1647624104.6192813,0.7884661555290222,-0.3278600871562958,-1.22940993309021,-0.5014330744743347,-7.373846054077148,-1.026233196258545,0.0,-0.0,0.0,-0.21935926377773285
1647624104.637996,0.7930681109428406,-0.3248930275440216,-1.22940993309021,-0.5014330744743347,-7.373846054077148,-1.026233196258545,0.0,-0.0,0.0,-0.21935926377773285
1647624104.6611145,0.7992040514945984,-0.3234094977378845,-1.22940993309021,-0.5014330744743347,-7.373846054077148,-1.026233196258545,0.0,-0.0,0.0,-0.21935926377773285
1647624104.6784086,0.8022720217704773,-0.3234094977378845,-1.22940993309021,-0.5014330744743347,-7.372312068939209,-1.026233196258545,0.0,-0.0,0.0,-0.21935926377773285
1647624104.6936595,0.8038060069084167,-0.3234094977378845,-1.22940993309021,-0.5014330744743347,-7.373846054077148,-1.026233196258545,0.0,-0.0,0.0,-0.21935926377773285
1647624104.7099261,0.8053399324417114,-0.3234094977378845,-1.22940993309021,-0.5014330744743347,-7.372312068939209,-1.0246992111206055,0.0,-0.0,0.0,-0.21935926377773285
1647624104.7416575,0.8038060069084167,-0.3234094977378845,-1.22940993309021,-0.49994957447052,-7.372312068939209,-1.0246992111206055,0.0,-0.0,0.0,-0.21935926377773285
1647624104.7640388,0.8007380366325378,-0.3234094977378845,-1.22940993309021,-0.49549898505210876,-7.3707780838012695,-1.026233196258545,0.0,-0.0,0.0,-0.21935926377773285
1647624104.7800705,0.7930681109428406,-0.3234094977378845,-1.22940993309021,-0.48659780621528625,-7.36924409866333,-1.026233196258545,0.0,-0.0,0.0,-0.21935926377773285
1647624104.7962534,0.7823302745819092,-0.3248930275440216,-1.22940993309021,-0.47918015718460083,-7.367710113525391,-1.026233196258545,0.0,-0.0,0.0,-0.21935926377773285
1647624104.8126676,0.7731263637542725,-0.32934361696243286,-1.22940993309021,-0.4717625081539154,-7.366176128387451,-1.0246992111206055,0.0,-0.0,0.0,-0.21935926377773285
1647624104.8431094,0.7639224529266357,-0.3352777361869812,-1.2297589778900146,-0.46582838892936707,-7.364642143249512,-1.026233196258545,0.0,-0.0,0.0,-0.21935926377773285
1647624104.857042,0.7531846165657043,-0.34121185541152954,-1.2297589778900146,-0.4598942697048187,-7.364642143249512,-1.026233196258545,0.0,-0.0,0.0,-0.21935926377773285
1647624104.8722277,0.7301748991012573,-0.3530800938606262,-1.2308062314987183,-0.4524766206741333,-7.367710113525391,-1.026233196258545,0.0,-0.0,0.0,-0.21935926377773285
1647624104.8888888,0.7179030776023865,-0.35901421308517456,-1.2308062314987183,-0.44802603125572205,-7.367710113525391,-1.026233196258545,0.0,-0.0,0.0,-0.21935926377773285
1647624104.904886,0.7010292410850525,-0.36643186211586,-1.2308062314987183,-0.44654250144958496,-7.367710113525391,-1.0246992111206055,0.0,-0.0,0.0,-0.21935926377773285
1647624104.9211915,0.6841554641723633,-0.3738495111465454,-1.2308062314987183,-0.4450589716434479,-7.366176128387451,-1.026233196258545,0.0,-0.0,0.0,-0.21935926377773285
1647624104.9468527,0.6642137169837952,-0.3812671899795532,-1.231155276298523,-0.4435754418373108,-7.364642143249512,-1.0246992111206055,0.0,-0.0,0.0,-0.21935926377773285
1647624104.963154,0.644271969795227,-0.39016836881637573,-1.2315043210983276,-0.4435754418373108,-7.363108158111572,-1.026233196258545,0.0,-0.0,0.0,-0.21935926377773285
1647624104.9783301,0.6120583415031433,-0.4020366072654724,-1.23394775390625,-0.4435754418373108,-7.366176128387451,-1.026233196258545,0.0,-0.0,0.0,-0.21935926377773285
1647624104.995288,0.5905826091766357,-0.4109377861022949,-1.235693097114563,-0.4435754418373108,-7.3707780838012695,-1.026233196258545,0.0,-0.0,0.0,-0.21935926377773285
1647624105.012768,0.5691068768501282,-0.41687190532684326,-1.237438440322876,-0.4435754418373108,-7.373846054077148,-1.026233196258545,0.0,-0.0,0.0,-0.21935926377773285
1647624105.0438654,0.5476311445236206,-0.4242895543575287,-1.239183783531189,-0.4435754418373108,-7.375380039215088,-1.0246992111206055,0.0,-0.0,0.0,-0.21935926377773285
1647624105.0508285,0.5246214866638184,-0.4317072033882141,-1.2416272163391113,-0.4435754418373108,-7.376914024353027,-1.026233196258545,0.0,-0.0,0.0,-0.21935926377773285
1647624105.0664525,0.5016117691993713,-0.43912485241889954,-1.2447688579559326,-0.4450589716434479,-7.375380039215088,-1.026233196258545,0.0,-0.0,0.0,-0.21935926377773285
1647624105.0819993,0.46786415576934814,-0.44802603125572205,-1.2503539323806763,-0.44802603125572205,-7.373846054077148,-1.026233196258545,0.0,-0.0,0.0,-0.21935926377773285
1647624105.0980732,0.44332048296928406,-0.4539601504802704,-1.2541935443878174,-0.44802603125572205,-7.373846054077148,-1.026233196258545,0.0,-0.0,0.0,-0.21935926377773285
1647624105.1130943,0.42337873578071594,-0.4598942697048187,-1.2583824396133423,-0.4509930908679962,-7.375380039215088,-1.0246992111206055,0.0,-0.0,0.0,-0.21935926377773285
1647624105.1505656,0.4003690183162689,-0.46582838892936707,-1.263269305229187,-0.4524766206741333,-7.376914024353027,-1.026233196258545,0.0,-0.0,0.0,-0.21935926377773285
1647624105.1703475,0.3804272711277008,-0.4702789783477783,-1.2688543796539307,-0.45544368028640747,-7.378448009490967,-1.0246992111206055,0.0,-0.0,0.0,-0.21935926377773285
1647624105.1829226,0.3298058807849884,-0.4806636869907379,-1.282817006111145,-0.4613777995109558,-7.376914024353027,-1.0246992111206055,0.0,-0.0,0.0,-0.21935926377773285
1647624105.1990216,0.30833014845848083,-0.48511427640914917,-1.2904964685440063,-0.4628613293170929,-7.375380039215088,-1.026233196258545,0.0,-0.0,0.0,-0.21935926377773285
1647624105.2148247,0.28685441613197327,-0.4895648658275604,-1.297826886177063,-0.46434485912323,-7.373846054077148,-1.026233196258545,0.0,-0.0,0.0,-0.21935926377773285
1647624105.2299657,0.26691266894340515,-0.4940154552459717,-1.305855393409729,-0.46582838892936707,-7.373846054077148,-1.026233196258545,0.0,-0.0,0.0,-0.21935926377773285
1647624105.2546048,0.24543693661689758,-0.49698251485824585,-1.3128366470336914,-0.46582838892936707,-7.373846054077148,-1.026233196258545,0.0,-0.0,0.0,-0.21935926377773285
1647624105.2704325,0.22702917456626892,-0.49994957447052,-1.3198180198669434,-0.46582838892936707,-7.373846054077148,-1.026233196258545,0.0,-0.0,0.0,-0.21935926377773285
1647624105.2870054,0.19634954631328583,-0.5029166340827942,-1.3302899599075317,-0.46582838892936707,-7.372312068939209,-1.026233196258545,0.0,-0.0,0.0,-0.21935926377773285
1647624105.3020556,0.17487381398677826,-0.5058836936950684,-1.337969422340393,-0.46582838892936707,-7.3707780838012695,-1.0246992111206055,0.0,-0.0,0.0,-0.21935926377773285
1647624105.3170352,0.15493206679821014,-0.5073671936988831,-1.3456488847732544,-0.46582838892936707,-7.3707780838012695,-1.026233196258545,0.0,-0.0,0.0,-0.21935926377773285
1647624105.3332434,0.13499031960964203,-0.5088507533073425,-1.3519320487976074,-0.46582838892936707,-7.3707780838012695,-1.026233196258545,0.0,-0.0,0.0,-0.21935926377773285
1647624105.3532987,0.11658255010843277,-0.5088507533073425,-1.3582152128219604,-0.46582838892936707,-7.372312068939209,-1.026233196258545,0.0,-0.0,0.0,-0.21935926377773285
1647624105.3693354,0.0951068177819252,-0.5088507533073425,-1.3644983768463135,-0.46582838892936707,-7.372312068939209,-1.026233196258545,0.0,-0.0,0.0,-0.21935926377773285
1647624105.385664,0.07056312263011932,-0.5088507533073425,-1.3725268840789795,-0.46582838892936707,-7.373846054077148,-1.026233196258545,0.0,-0.0,0.0,-0.21935926377773285
1647624105.4020038,0.052155349403619766,-0.5088507533073425,-1.3781119585037231,-0.46582838892936707,-7.373846054077148,-1.026233196258545,0.0,-0.0,0.0,-0.21935926377773285
1647624105.418241,0.030679617077112198,-0.5088507533073425,-1.383347988128662,-0.4717625081539154,-7.372312068939209,-1.026233196258545,0.0,-0.0,0.0,-0.21935926377773285
1647624105.434546,0.012271846644580364,-0.5088507533073425,-1.3885838985443115,-0.4747295677661896,-7.372312068939209,-1.0246992111206055,0.0,-0.0,0.0,-0.21935926377773285
1647624105.4508955,-0.009203885681927204,-0.5088507533073425,-1.3938199281692505,-0.47769662737846375,-7.372312068939209,-1.026233196258545,0.0,-0.0,0.0,-0.21935926377773285
1647624105.4677403,-0.027611656114459038,-0.5088507533073425,-1.3994050025939941,-0.4806636869907379,-7.372312068939209,-1.026233196258545,0.0,-0.0,0.0,-0.21935926377773285
1647624105.4844046,-0.0475534088909626,-0.5088507533073425,-1.404641032218933,-0.4836307466030121,-7.3707780838012695,-1.026233196258545,0.0,-0.0,0.0,-0.21935926377773285
1647624105.4998775,-0.06749515980482101,-0.5058836936950684,-1.4088298082351685,-0.48659780621528625,-7.3707780838012695,-1.026233196258545,0.0,-0.0,0.0,-0.21935926377773285
1647624105.516374,-0.08897089213132858,-0.5014330744743347,-1.4126695394515991,-0.4895648658275604,-7.372312068939209,-1.026233196258545,0.0,-0.0,0.0,-0.21935926377773285
1647624105.532768,-0.1089126393198967,-0.49549898505210876,-1.4165092706680298,-0.4925319254398346,-7.372312068939209,-1.026233196258545,0.0,-0.0,0.0,-0.21935926377773285
1647624105.5583537,-0.12732040882110596,-0.4895648658275604,-1.4199998378753662,-0.4940154552459717,-7.3707780838012695,-1.026233196258545,0.0,-0.0,0.0,-0.21935926377773285
1647624105.5746987,-0.14726217091083527,-0.4836307466030121,-1.4227924346923828,-0.49549898505210876,-7.36924409866333,-1.026233196258545,0.0,-0.0,0.0,-0.21935926377773285
1647624105.590404,-0.17947576940059662,-0.4717625081539154,-1.4266321659088135,-0.49698251485824585,-7.366176128387451,-1.026233196258545,0.0,-0.0,0.0,-0.21935926377773285
1647624105.606762,-0.2009515017271042,-0.46434485912323,-1.4283775091171265,-0.49846604466438293,-7.364642143249512,-1.026233196258545,0.0,-0.0,0.0,-0.21935926377773285
1647624105.6238236,-0.21935926377773285,-0.45692721009254456,-1.43012273311615,-0.49846604466438293,-7.364642143249512,-1.0246992111206055,0.0,-0.0,0.0,-0.21935926377773285
1647624105.6389675,-0.2346990704536438,-0.44802603125572205,-1.431868076324463,-0.49846604466438293,-7.3707780838012695,-1.0246992111206055,0.0,-0.0,0.0,-0.21935926377773285
1647624105.664361,-0.25003889203071594,-0.43912485241889954,-1.4322172403335571,-0.49846604466438293,-7.373846054077148,-1.026233196258545,0.0,-0.0,0.0,-0.21935926377773285
1647624105.6803641,-0.2653786838054657,-0.4317072033882141,-1.4322172403335571,-0.49846604466438293,-7.372312068939209,-1.026233196258545,0.0,-0.0,0.0,-0.21935926377773285
1647624105.6996455,-0.29452434182167053,-0.41687190532684326,-1.4322172403335571,-0.49846604466438293,-7.364642143249512,-1.026233196258545,0.0,-0.0,0.0,-0.21935926377773285
1647624105.7130084,-0.31139811873435974,-0.40797072649002075,-1.4322172403335571,-0.49846604466438293,-7.3569722175598145,-1.026233196258545,0.0,-0.0,0.0,-0.21935926377773285
1647624105.7293544,-0.32827189564704895,-0.39906954765319824,-1.4322172403335571,-0.49846604466438293,-7.3539042472839355,-1.026233196258545,0.0,-0.0,0.0,-0.21935926377773285
1647624105.7574587,-0.34514570236206055,-0.38868483901023865,-1.4322172403335571,-0.49994957447052,-7.3539042472839355,-1.026233196258545,0.0,-0.0,0.0,-0.21935926377773285
1647624105.7680871,-0.3604854941368103,-0.3812671899795532,-1.4322172403335571,-0.49994957447052,-7.355438232421875,-1.026233196258545,0.0,-0.0,0.0,-0.2208932489156723
1647624105.7835052,-0.3773593008518219,-0.3723659813404083,-1.4322172403335571,-0.49994957447052,-7.358506202697754,-1.026233196258545,0.0,-0.0,0.0,-0.21935926377773285
1647624105.801754,-0.39883503317832947,-0.36049774289131165,-1.4322172403335571,-0.5014330744743347,-7.361574172973633,-1.026233196258545,0.0,-0.0,0.0,-0.21935926377773285
1647624105.8164897,-0.4141748249530792,-0.3530800938606262,-1.4322172403335571,-0.5029166340827942,-7.361574172973633,-1.026233196258545,0.0,-0.0,0.0,-0.21935926377773285
1647624105.837028,-0.4310486316680908,-0.3441789150238037,-1.4322172403335571,-0.5058836936950684,-7.361574172973633,-1.026233196258545,0.0,-0.0,0.0,-0.21935926377773285
1647624105.8694026,-0.4463884234428406,-0.3352777361869812,-1.4322172403335571,-0.5073671936988831,-7.360040187835693,-1.026233196258545,0.0,-0.0,0.0,-0.21935926377773285
1647624105.8845706,-0.4632622301578522,-0.3263765573501587,-1.4322172403335571,-0.5103342533111572,-7.360040187835693,-1.026233196258545,0.0,-0.0,0.0,-0.21935926377773285
1647624105.901566,-0.49087387323379517,-0.31154125928878784,-1.4322172403335571,-0.517751932144165,-7.358506202697754,-1.026233196258545,0.0,-0.0,0.0,-0.21935926377773285
1647624105.9170992,-0.5031457543373108,-0.3056071400642395,-1.4322172403335571,-0.5207189917564392,-7.358506202697754,-1.026233196258545,0.0,-0.0,0.0,-0.21935926377773285
1647624105.933176,-0.5154175758361816,-0.2981894910335541,-1.4322172403335571,-0.5236860513687134,-7.358506202697754,-1.026233196258545,0.0,-0.0,0.0,-0.21935926377773285
1647624105.9488616,-0.5292233824729919,-0.29225537180900574,-1.4322172403335571,-0.5251695513725281,-7.358506202697754,-1.026233196258545,0.0,-0.0,0.0,-0.21935926377773285
1647624105.9677181,-0.5399612784385681,-0.2863212525844574,-1.4322172403335571,-0.5266531109809875,-7.358506202697754,-1.0246992111206055,0.0,-0.0,0.0,-0.2208932489156723
1647624105.987942,-0.552233099937439,-0.28038713335990906,-1.4322172403335571,-0.5266531109809875,-7.358506202697754,-1.026233196258545,0.0,-0.0,0.0,-0.21935926377773285
1647624106.000062,-0.5675729513168335,-0.27296948432922363,-1.4322172403335571,-0.5281366109848022,-7.360040187835693,-1.026233196258545,0.0,-0.0,0.0,-0.21935926377773285
1647624106.016445,-0.5783107876777649,-0.2670353651046753,-1.4322172403335571,-0.5281366109848022,-7.360040187835693,-1.026233196258545,0.0,-0.0,0.0,-0.21935926377773285
1647624106.0333188,-0.5890486836433411,-0.25961771607398987,-1.4322172403335571,-0.5281366109848022,-7.361574172973633,-1.026233196258545,0.0,-0.0,0.0,-0.21935926377773285
1647624106.0490277,-0.6013205051422119,-0.25368359684944153,-1.4322172403335571,-0.5296201705932617,-7.363108158111572,-1.026233196258545,0.0,-0.0,0.0,-0.21935926377773285
1647624106.0737011,-0.6135923266410828,-0.24774949252605438,-1.4322172403335571,-0.5296201705932617,-7.361574172973633,-1.026233196258545,0.0,-0.0,0.0,-0.21935926377773285
1647624106.0887527,-0.6243302226066589,-0.24181537330150604,-1.4322172403335571,-0.5311036705970764,-7.360040187835693,-1.026233196258545,0.0,-0.0,0.0,-0.21935926377773285
1647624106.114225,-0.6412039995193481,-0.23291419446468353,-1.4322172403335571,-0.5311036705970764,-7.360040187835693,-1.026233196258545,0.0,-0.0,0.0,-0.21935926377773285
1647624106.1298401,-0.6504079103469849,-0.2269800752401352,-1.4322172403335571,-0.5311036705970764,-7.358506202697754,-1.026233196258545,0.0,-0.0,0.0,-0.21935926377773285
1647624106.1480107,-0.6672816872596741,-0.21956242620944977,-1.4322172403335571,-0.5311036705970764,-7.360040187835693,-1.026233196258545,0.0,-0.0,0.0,-0.21935926377773285
1647624106.1731133,-0.676485538482666,-0.21362830698490143,-1.4322172403335571,-0.5311036705970764,-7.358506202697754,-1.026233196258545,0.0,-0.0,0.0,-0.21935926377773285
1647624106.190588,-0.6856894493103027,-0.20917771756649017,-1.4322172403335571,-0.5311036705970764,-7.358506202697754,-1.026233196258545,0.0,-0.0,0.0,-0.21935926377773285
1647624106.2060103,-0.7010292410850525,-0.20176006853580475,-1.4322172403335571,-0.5311036705970764,-7.3569722175598145,-1.026233196258545,0.0,-0.0,0.0,-0.21935926377773285
1647624106.222226,-0.7102331519126892,-0.1973094791173935,-1.4322172403335571,-0.5311036705970764,-7.3569722175598145,-1.0246992111206055,0.0,-0.0,0.0,-0.2208932489156723
1647624106.238276,-0.7194370031356812,-0.19137535989284515,-1.431868076324463,-0.5311036705970764,-7.3569722175598145,-1.026233196258545,0.0,-0.0,0.0,-0.21935926377773285
1647624106.2537208,-0.7271069288253784,-0.1884082853794098,-1.4311699867248535,-0.5311036705970764,-7.355438232421875,-1.026233196258545,0.0,-0.0,0.0,-0.21935926377773285
1647624106.278049,-0.7347768545150757,-0.18395769596099854,-1.4308209419250488,-0.5311036705970764,-7.355438232421875,-1.026233196258545,0.0,-0.0,0.0,-0.21935926377773285
1647624106.2956734,-0.7424467206001282,-0.17950710654258728,-1.4297736883163452,-0.5311036705970764,-7.355438232421875,-1.0246992111206055,0.0,-0.0,0.0,-0.2208932489156723
1647624106.3107402,-0.7577865719795227,-0.17208945751190186,-1.4283775091171265,-0.5311036705970764,-7.355438232421875,-1.026233196258545,0.0,-0.0,0.0,-0.21935926377773285
1647624106.3259664,-0.7639224529266357,-0.1676388680934906,-1.4269812107086182,-0.5311036705970764,-7.355438232421875,-1.026233196258545,0.0,-0.0,0.0,-0.21935926377773285
1647624106.342294,-0.771592378616333,-0.16318827867507935,-1.4255849123001099,-0.5311036705970764,-7.355438232421875,-1.026233196258545,0.0,-0.0,0.0,-0.21935926377773285
1647624106.3714812,-0.7792623043060303,-0.1587376892566681,-1.4245377779006958,-0.5325872302055359,-7.3569722175598145,-1.0246992111206055,0.0,-0.0,0.0,-0.21935926377773285
1647624106.381711,-0.7869321703910828,-0.15428709983825684,-1.4231414794921875,-0.5325872302055359,-7.3569722175598145,-1.026233196258545,0.0,-0.0,0.0,-0.21935926377773285
1647624106.397548,-0.7930681109428406,-0.14983651041984558,-1.4217451810836792,-0.5325872302055359,-7.355438232421875,-1.026233196258545,0.0,-0.0,0.0,-0.21935926377773285
1647624106.4138503,-0.8053399324417114,-0.14241886138916016,-1.4199998378753662,-0.5325872302055359,-7.3539042472839355,-1.026233196258545,0.0,-0.0,0.0,-0.21935926377773285
1647624106.430395,-0.8145438432693481,-0.1379682719707489,-1.4186036586761475,-0.5325872302055359,-7.3539042472839355,-1.0246992111206055,0.0,-0.0,0.0,-0.21935926377773285
1647624106.445806,-0.8222137689590454,-0.13203415274620056,-1.4175564050674438,-0.5325872302055359,-7.352370262145996,-1.026233196258545,0.0,-0.0,0.0,-0.21935926377773285
1647624106.4608085,-0.8298836350440979,-0.1275835633277893,-1.4158110618591309,-0.5325872302055359,-7.352370262145996,-1.026233196258545,0.0,-0.0,0.0,-0.21935926377773285
1647624106.4792483,-0.8375535607337952,-0.12164945155382156,-1.414414882659912,-0.5325872302055359,-7.352370262145996,-1.026233196258545,0.0,-0.0,0.0,-0.21935926377773285
1647624106.495578,-0.8452234864234924,-0.11719886213541031,-1.4126695394515991,-0.5325872302055359,-7.352370262145996,-1.026233196258545,0.0,-0.0,0.0,-0.21935926377773285
1647624106.5118644,-0.8544273376464844,-0.10978121310472488,-1.4109241962432861,-0.5325872302055359,-7.350836277008057,-1.0246992111206055,0.0,-0.0,0.0,-0.21935926377773285
1647624106.5270205,-0.8636312484741211,-0.10384709388017654,-1.4091788530349731,-0.5325872302055359,-7.350836277008057,-1.0246992111206055,0.0,-0.0,0.0,-0.21935926377773285
1647624106.5426695,-0.8713011145591736,-0.0979129746556282,-1.4070844650268555,-0.5325872302055359,-7.350836277008057,-1.026233196258545,0.0,-0.0,0.0,-0.21935926377773285
1647624106.5584698,-0.8789710402488708,-0.09049531817436218,-1.4056881666183472,-0.5325872302055359,-7.350836277008057,-1.026233196258545,0.0,-0.0,0.0,-0.21935926377773285
1647624106.5838642,-0.8866409659385681,-0.08456119894981384,-1.4039428234100342,-0.5325872302055359,-7.350836277008057,-1.0246992111206055,0.0,-0.0,0.0,-0.21935926377773285
1647624106.5995655,-0.8943108320236206,-0.0786270797252655,-1.4021974802017212,-0.5325872302055359,-7.350836277008057,-1.026233196258545,0.0,-0.0,0.0,-0.21935926377773285
1647624106.6159503,-0.9065827131271362,-0.069725900888443,-1.3994050025939941,-0.5340707302093506,-7.349302291870117,-1.026233196258545,0.0,-0.0,0.0,-0.21935926377773285
1647624106.6322718,-0.9142525792121887,-0.06379178166389465,-1.3976596593856812,-0.5340707302093506,-7.349302291870117,-1.0246992111206055,0.0,-0.0,0.0,-0.21935926377773285
1647624106.6484864,-0.921922504901886,-0.0593411959707737,-1.3955652713775635,-0.5355542898178101,-7.350836277008057,-1.026233196258545,0.0,-0.0,0.0,-0.21935926377773285
1647624106.6643655,-0.9280584454536438,-0.05340707674622536,-1.3938199281692505,-0.5400048494338989,-7.3539042472839355,-1.026233196258545,0.0,-0.0,0.0,-0.21935926377773285
1647624106.6891093,-0.9341943264007568,-0.0489564873278141,-1.3920745849609375,-0.5444554686546326,-7.3569722175598145,-1.026233196258545,0.0,-0.0,0.0,-0.21935926377773285
1647624106.7044458,-0.9387962818145752,-0.043022364377975464,-1.3903292417526245,-0.5503895878791809,-7.358506202697754,-1.026233196258545,0.0,-0.0,0.0,-0.21935926377773285
1647624106.7212853,-0.944932222366333,-0.037088245153427124,-1.3875367641448975,-0.5592907667160034,-7.3569722175598145,-1.026233196258545,0.0,-0.0,0.0,-0.21935926377773285
1647624106.737037,-0.9480001926422119,-0.03263765573501587,-1.3861404657363892,-0.5652248859405518,-7.355438232421875,-1.026233196258545,0.0,-0.0,0.0,-0.21935926377773285
1647624106.7530782,-0.9526021480560303,-0.028187068179249763,-1.385093331336975,-0.5696754455566406,-7.3539042472839355,-1.0246992111206055,0.0,-0.0,0.0,-0.21935926377773285
1647624106.770004,-0.9556700587272644,-0.025220008566975594,-1.3836970329284668,-0.5741260647773743,-7.352370262145996,-1.026233196258545,0.0,-0.0,0.0,-0.21935926377773285
1647624106.787107,-0.9572040438652039,-0.022252947092056274,-1.3826497793197632,-0.575609564781189,-7.352370262145996,-1.0246992111206055,0.0,-0.0,0.0,-0.2208932489156723
1647624106.8055637,-0.9587380290031433,-0.019285887479782104,-1.3812536001205444,-0.5785766243934631,-7.3539042472839355,-1.0246992111206055,0.0,-0.0,0.0,-0.21935926377773285
1647624106.819516,-0.9587380290031433,-0.016318827867507935,-1.3795082569122314,-0.5800601840019226,-7.355438232421875,-1.026233196258545,0.0,-0.0,0.0,-0.21935926377773285
1647624106.8362167,-0.9587380290031433,-0.016318827867507935,-1.3784610033035278,-0.5815436840057373,-7.3569722175598145,-1.0246992111206055,0.0,-0.0,0.0,-0.21935926377773285
1647624106.852339,-0.9556700587272644,-0.014835298992693424,-1.377064824104309,-0.5830272436141968,-7.358506202697754,-1.026233196258545,0.0,-0.0,0.0,-0.21935926377773285
1647624106.8686047,-0.9541361331939697,-0.014835298992693424,-1.3760175704956055,-0.5830272436141968,-7.358506202697754,-1.026233196258545,0.0,-0.0,0.0,-0.21935926377773285
1647624106.8909364,-0.9495341777801514,-0.014835298992693424,-1.3749704360961914,-0.5845107436180115,-7.358506202697754,-1.026233196258545,0.0,-0.0,0.0,-0.21935926377773285
1647624106.9066007,-0.9464662075042725,-0.014835298992693424,-1.3746212720870972,-0.5845107436180115,-7.360040187835693,-1.026233196258545,0.0,-0.0,0.0,-0.21935926377773285
1647624106.9231348,-0.9387962818145752,-0.014835298992693424,-1.373574137687683,-0.5874778032302856,-7.360040187835693,-1.026233196258545,0.0,-0.0,0.0,-0.21935926377773285
1647624106.9390523,-0.9311264157295227,-0.014835298992693424,-1.3732250928878784,-0.5889613628387451,-7.361574172973633,-1.026233196258545,0.0,-0.0,0.0,-0.21935926377773285
1647624106.9546933,-0.9234564900398254,-0.014835298992693424,-1.3732250928878784,-0.5904448628425598,-7.361574172973633,-1.026233196258545,0.0,-0.0,0.0,-0.21935926377773285
1647624106.971022,-0.9142525792121887,-0.014835298992693424,-1.3732250928878784,-0.5919284224510193,-7.363108158111572,-1.026233196258545,0.0,-0.0,0.0,-0.21935926377773285
1647624106.9926043,-0.9035147428512573,-0.01780235767364502,-1.3732250928878784,-0.593411922454834,-7.364642143249512,-1.026233196258545,0.0,-0.0,0.0,-0.21935926377773285
1647624107.0092366,-0.8912428617477417,-0.022252947092056274,-1.3732250928878784,-0.5963789820671082,-7.364642143249512,-1.0246992111206055,0.0,-0.0,0.0,-0.21935926377773285
1647624107.0264485,-0.872835099697113,-0.031154127791523933,-1.3732250928878784,-0.5993460416793823,-7.364642143249512,-1.026233196258545,0.0,-0.0,0.0,-0.21935926377773285
1647624107.0416179,-0.8574953079223633,-0.037088245153427124,-1.3732250928878784,-0.6008296012878418,-7.364642143249512,-1.026233196258545,0.0,-0.0,0.0,-0.21935926377773285
1647624107.0585668,-0.8421555161476135,-0.045989423990249634,-1.3732250928878784,-0.6008296012878418,-7.364642143249512,-1.026233196258545,0.0,-0.0,0.0,-0.21935926377773285
1647624107.0741327,-0.8237477540969849,-0.05340707674622536,-1.3732250928878784,-0.6008296012878418,-7.363108158111572,-1.026233196258545,0.0,-0.0,0.0,-0.21935926377773285
1647624107.093191,-0.8084079027175903,-0.06230825558304787,-1.3732250928878784,-0.6008296012878418,-7.363108158111572,-1.026233196258545,0.0,-0.0,0.0,-0.21935926377773285
1647624107.1101704,-0.7884661555290222,-0.07120943069458008,-1.3732250928878784,-0.6008296012878418,-7.363108158111572,-1.026233196258545,0.0,-0.0,0.0,-0.21935926377773285
1647624107.1263404,-0.7654564380645752,-0.08307766914367676,-1.3732250928878784,-0.6008296012878418,-7.363108158111572,-1.026233196258545,0.0,-0.0,0.0,-0.21935926377773285
1647624107.141603,-0.7455146908760071,-0.09197884798049927,-1.3732250928878784,-0.6008296012878418,-7.363108158111572,-1.026233196258545,0.0,-0.0,0.0,-0.21935926377773285
1647624107.159115,-0.7271069288253784,-0.10236356407403946,-1.3732250928878784,-0.5963789820671082,-7.363108158111572,-1.026233196258545,0.0,-0.0,0.0,-0.21935926377773285
1647624107.173273,-0.7071651816368103,-0.11126474291086197,-1.3732250928878784,-0.5904448628425598,-7.361574172973633,-1.026233196258545,0.0,-0.0,0.0,-0.21935926377773285
1647624107.2002172,-0.6872234344482422,-0.12016592174768448,-1.3732250928878784,-0.5830272436141968,-7.360040187835693,-1.0246992111206055,0.0,-0.0,0.0,-0.21935926377773285
1647624107.216837,-0.6657477021217346,-0.13055062294006348,-1.3732250928878784,-0.575609564781189,-7.360040187835693,-1.026233196258545,0.0,-0.0,0.0,-0.21935926377773285
1647624107.2327876,-0.6320001482963562,-0.1468694508075714,-1.3732250928878784,-0.5637413263320923,-7.361574172973633,-1.0246992111206055,0.0,-0.0,0.0,-0.21935926377773285
1647624107.2485125,-0.6105244159698486,-0.15577062964439392,-1.3732250928878784,-0.5592907667160034,-7.361574172973633,-1.026233196258545,0.0,-0.0,0.0,-0.21935926377773285
1647624107.2649627,-0.5905826091766357,-0.16467180848121643,-1.3732250928878784,-0.5533566474914551,-7.364642143249512,-1.026233196258545,0.0,-0.0,0.0,-0.21935926377773285
1647624107.292894,-0.5691068768501282,-0.17357298731803894,-1.3732250928878784,-0.5489060282707214,-7.363108158111572,-1.026233196258545,0.0,-0.0,0.0,-0.21935926377773285
1647624107.304003,-0.5491651296615601,-0.18247416615486145,-1.3732250928878784,-0.5429719090461731,-7.361574172973633,-1.026233196258545,0.0,-0.0,0.0,-0.21935926377773285
1647624107.319016,-0.5338253378868103,-0.19137535989284515,-1.3728760480880737,-0.5385213494300842,-7.360040187835693,-1.026233196258545,0.0,-0.0,0.0,-0.21935926377773285
1647624107.3354957,-0.5062136650085449,-0.20176006853580475,-1.3718287944793701,-0.5311036705970764,-7.355438232421875,-1.026233196258545,0.0,-0.0,0.0,-0.21935926377773285
1647624107.3513682,-0.4893398880958557,-0.20917771756649017,-1.3704324960708618,-0.5266531109809875,-7.355438232421875,-1.0246992111206055,0.0,-0.0,0.0,-0.21935926377773285
1647624107.3681262,-0.47093212604522705,-0.2165953665971756,-1.369036316871643,-0.5236860513687134,-7.3569722175598145,-1.026233196258545,0.0,-0.0,0.0,-0.21935926377773285
1647624107.384509,-0.45405834913253784,-0.22401301562786102,-1.3679890632629395,-0.5222024917602539,-7.358506202697754,-1.026233196258545,0.0,-0.0,0.0,-0.21935926377773285
1647624107.4006784,-0.43718454241752625,-0.23143066465854645,-1.3669419288635254,-0.5207189917564392,-7.360040187835693,-1.0246992111206055,0.0,-0.0,0.0,-0.21935926377773285
1647624107.4169736,-0.4218447506427765,-0.2358812540769577,-1.3662437200546265,-0.5207189917564392,-7.358506202697754,-1.026233196258545,0.0,-0.0,0.0,-0.21935926377773285
1647624107.4354055,-0.4080389142036438,-0.24181537330150604,-1.3651965856552124,-0.5192354321479797,-7.3569722175598145,-1.026233196258545,0.0,-0.0,0.0,-0.2208932489156723
1647624107.4497156,-0.39883503317832947,-0.2462659627199173,-1.3648474216461182,-0.517751932144165,-7.355438232421875,-1.026233196258545,0.0,-0.0,0.0,-0.21935926377773285
1647624107.4652286,-0.38963115215301514,-0.25071653723716736,-1.3648474216461182,-0.5133013129234314,-7.347768306732178,-1.026233196258545,0.0,-0.0,0.0,-0.21935926377773285
1647624107.4833803,-0.3834952116012573,-0.25368359684944153,-1.3648474216461182,-0.5058836936950684,-7.343166351318359,-1.026233196258545,0.0,-0.0,0.0,-0.21935926377773285
1647624107.508935,-0.37889328598976135,-0.2566506564617157,-1.3648474216461182,-0.49994957447052,-7.335496425628662,-1.026233196258545,0.0,-0.0,0.0,-0.21935926377773285
1647624107.5232623,-0.37582531571388245,-0.25961771607398987,-1.3648474216461182,-0.4895648658275604,-7.329360485076904,-1.026233196258545,0.0,-0.0,0.0,-0.21935926377773285
1647624107.539692,-0.37582531571388245,-0.26110124588012695,-1.3641493320465088,-0.47621309757232666,-7.321690559387207,-1.0246992111206055,0.0,-0.0,0.0,-0.21935926377773285
1647624107.5558743,-0.3773593008518219,-0.26258477568626404,-1.363800287246704,-0.46879544854164124,-7.320156574249268,-1.0246992111206055,0.0,-0.0,0.0,-0.21935926377773285
1647624107.5723035,-0.37889328598976135,-0.26258477568626404,-1.3634512424468994,-0.46434485912323,-7.321690559387207,-1.026233196258545,0.0,-0.0,0.0,-0.2208932489156723
1647624107.6042151,-0.37889328598976135,-0.26258477568626404,-1.3634512424468994,-0.46434485912323,-7.327826499938965,-1.026233196258545,0.0,-0.0,0.0,-0.21935926377773285
1647624107.6107464,-0.3804272711277008,-0.2640683054924011,-1.3634512424468994,-0.46434485912323,-7.337030410766602,-1.026233196258545,0.0,-0.0,0.0,-0.21935926377773285
1647624107.6290925,-0.38196122646331787,-0.2640683054924011,-1.3634512424468994,-0.46434485912323,-7.347768306732178,-1.026233196258545,0.0,-0.0,0.0,-0.21935926377773285
1647624107.645076,-0.3850291967391968,-0.2640683054924011,-1.3634512424468994,-0.46582838892936707,-7.364642143249512,-1.026233196258545,0.0,-0.0,0.0,-0.21935926377773285
1647624107.6598053,-0.38656318187713623,-0.2640683054924011,-1.3634512424468994,-0.4702789783477783,-7.373846054077148,-1.0246992111206055,0.0,-0.0,0.0,-0.21935926377773285
1647624107.6764858,-0.38963115215301514,-0.2640683054924011,-1.3634512424468994,-0.47918015718460083,-7.379981994628906,-1.026233196258545,0.0,-0.0,0.0,-0.21935926377773285
1647624107.7061012,-0.39269909262657166,-0.2640683054924011,-1.3634512424468994,-0.48659780621528625,-7.384583950042725,-1.026233196258545,0.0,-0.0,0.0,-0.21935926377773285
1647624107.724431,-0.39576706290245056,-0.2640683054924011,-1.3634512424468994,-0.49846604466438293,-7.383049964904785,-1.0246992111206055,0.0,-0.0,0.0,-0.21935926377773285
1647624107.7400248,-0.4019030034542084,-0.2640683054924011,-1.3634512424468994,-0.5236860513687134,-7.378448009490967,-1.0246992111206055,0.0,-0.0,0.0,-0.21935926377773285
1647624107.7568061,-0.40343695878982544,-0.2640683054924011,-1.3634512424468994,-0.5370377898216248,-7.376914024353027,-1.0246992111206055,0.0,-0.0,0.0,-0.21935926377773285
1647624107.7726526,-0.40343695878982544,-0.2640683054924011,-1.3634512424468994,-0.5489060282707214,-7.375380039215088,-1.026233196258545,0.0,-0.0,0.0,-0.21935926377773285
1647624107.790312,-0.4019030034542084,-0.2640683054924011,-1.3634512424468994,-0.557807207107544,-7.375380039215088,-1.026233196258545,0.0,-0.0,0.0,-0.21935926377773285
1647624107.8137536,-0.4019030034542084,-0.2655518352985382,-1.3631021976470947,-0.5652248859405518,-7.375380039215088,-1.026233196258545,0.0,-0.0,0.0,-0.21935926377773285
1647624107.8297815,-0.4003690183162689,-0.2670353651046753,-1.3631021976470947,-0.5696754455566406,-7.376914024353027,-1.026233196258545,0.0,-0.0,0.0,-0.21935926377773285
1647624107.846165,-0.39730104804039,-0.2685188949108124,-1.3631021976470947,-0.5696754455566406,-7.376914024353027,-1.026233196258545,0.0,-0.0,0.0,-0.21935926377773285
1647624107.8620481,-0.39730104804039,-0.2685188949108124,-1.3631021976470947,-0.5681919455528259,-7.375380039215088,-1.026233196258545,0.0,-0.0,0.0,-0.21935926377773285
1647624107.8773417,-0.39730104804039,-0.27000242471694946,-1.3631021976470947,-0.5681919455528259,-7.376914024353027,-1.026233196258545,0.0,-0.0,0.0,-0.21935926377773285
1647624107.9077618,-0.39730104804039,-0.27148595452308655,-1.3631021976470947,-0.5681919455528259,-7.375380039215088,-1.0246992111206055,0.0,-0.0,0.0,-0.21935926377773285
1647624107.917206,-0.39730104804039,-0.27148595452308655,-1.3631021976470947,-0.5652248859405518,-7.373846054077148,-1.026233196258545,0.0,-0.0,0.0,-0.21935926377773285
1647624107.9323404,-0.4003690183162689,-0.27148595452308655,-1.3631021976470947,-0.5592907667160034,-7.372312068939209,-1.026233196258545,0.0,-0.0,0.0,-0.21935926377773285
1647624107.9489272,-0.4049709439277649,-0.27148595452308655,-1.3631021976470947,-0.5489060282707214,-7.367710113525391,-1.026233196258545,0.0,-0.0,0.0,-0.21935926377773285
1647624107.9653037,-0.4080389142036438,-0.27148595452308655,-1.3631021976470947,-0.5414884090423584,-7.366176128387451,-1.026233196258545,0.0,-0.0,0.0,-0.21935926377773285
1647624107.9801621,-0.4157088100910187,-0.27148595452308655,-1.3631021976470947,-0.5325872302055359,-7.363108158111572,-1.026233196258545,0.0,-0.0,0.0,-0.21935926377773285
1647624108.0102632,-0.42337873578071594,-0.27148595452308655,-1.3631021976470947,-0.5236860513687134,-7.358506202697754,-1.026233196258545,0.0,-0.0,0.0,-0.21935926377773285
1647624108.0174015,-0.4325826168060303,-0.27148595452308655,-1.3631021976470947,-0.5133013129234314,-7.355438232421875,-1.026233196258545,0.0,-0.0,0.0,-0.21935926377773285
1647624108.034417,-0.44332048296928406,-0.27148595452308655,-1.3631021976470947,-0.5029166340827942,-7.350836277008057,-1.026233196258545,0.0,-0.0,0.0,-0.21935926377773285
1647624108.050488,-0.46019425988197327,-0.27000242471694946,-1.3627530336380005,-0.48808133602142334,-7.346234321594238,-1.026233196258545,0.0,-0.0,0.0,-0.21935926377773285
1647624108.0658882,-0.4755340814590454,-0.2655518352985382,-1.3627530336380005,-0.47769662737846375,-7.343166351318359,-1.026233196258545,0.0,-0.0,0.0,-0.21935926377773285
1647624108.0832398,-0.49087387323379517,-0.26110124588012695,-1.3627530336380005,-0.46879544854164124,-7.343166351318359,-1.026233196258545,0.0,-0.0,0.0,-0.21935926377773285
1647624108.098493,-0.5077476501464844,-0.2551671266555786,-1.3627530336380005,-0.4628613293170929,-7.344700336456299,-1.026233196258545,0.0,-0.0,0.0,-0.21935926377773285
1647624108.1223924,-0.5230875015258789,-0.24774949252605438,-1.3627530336380005,-0.4598942697048187,-7.347768306732178,-1.0246992111206055,0.0,-0.0,0.0,-0.21935926377773285
1647624108.1389735,-0.5414952635765076,-0.24033184349536896,-1.3627530336380005,-0.4598942697048187,-7.3539042472839355,-1.026233196258545,0.0,-0.0,0.0,-0.21935926377773285
1647624108.155971,-0.5691068768501282,-0.22994713485240936,-1.3627530336380005,-0.4598942697048187,-7.361574172973633,-1.026233196258545,0.0,-0.0,0.0,-0.21935926377773285
1647624108.1708658,-0.5875146985054016,-0.22104595601558685,-1.3627530336380005,-0.4598942697048187,-7.364642143249512,-1.026233196258545,0.0,-0.0,0.0,-0.21935926377773285
1647624108.1865451,-0.6105244159698486,-0.21362830698490143,-1.3627530336380005,-0.46434485912323,-7.367710113525391,-1.026233196258545,0.0,-0.0,0.0,-0.21935926377773285
1647624108.2183897,-0.6304661631584167,-0.20324359834194183,-1.3627530336380005,-0.4732460379600525,-7.367710113525391,-1.026233196258545,0.0,-0.0,0.0,-0.21935926377773285
1647624108.2258828,-0.6534758806228638,-0.19434241950511932,-1.3627530336380005,-0.4836307466030121,-7.367710113525391,-1.026233196258545,0.0,-0.0,0.0,-0.21935926377773285
1647624108.2412374,-0.6749516129493713,-0.18395769596099854,-1.3631021976470947,-0.4940154552459717,-7.366176128387451,-1.0246992111206055,0.0,-0.0,0.0,-0.21935926377773285
1647624108.2591946,-0.7056311964988708,-0.16912239789962769,-1.363800287246704,-0.5118178129196167,-7.361574172973633,-1.026233196258545,0.0,-0.0,0.0,-0.21935926377773285
1647624108.2740133,-0.7286409139633179,-0.1587376892566681,-1.363800287246704,-0.5236860513687134,-7.361574172973633,-1.026233196258545,0.0,-0.0,0.0,-0.21935926377773285
1647624108.289862,-0.7501166462898254,-0.1483529806137085,-1.363800287246704,-0.5355542898178101,-7.361574172973633,-1.0246992111206055,0.0,-0.0,0.0,-0.21935926377773285
1647624108.3257275,-0.7685244083404541,-0.1379682719707489,-1.363800287246704,-0.5474225282669067,-7.363108158111572,-1.026233196258545,0.0,-0.0,0.0,-0.21935926377773285
1647624108.3430963,-0.7884661555290222,-0.1275835633277893,-1.363800287246704,-0.5563237071037292,-7.366176128387451,-1.0246992111206055,0.0,-0.0,0.0,-0.21935926377773285
1647624108.3590674,-0.8298836350440979,-0.10533062368631363,-1.363800287246704,-0.5696754455566406,-7.366176128387451,-1.026233196258545,0.0,-0.0,0.0,-0.21935926377773285
1647624108.374496,-0.8482913970947266,-0.09346237778663635,-1.363800287246704,-0.5770931243896484,-7.367710113525391,-1.026233196258545,0.0,-0.0,0.0,-0.21935926377773285
1647624108.3909335,-0.8651652336120605,-0.08307766914367676,-1.363800287246704,-0.5845107436180115,-7.36924409866333,-1.026233196258545,0.0,-0.0,0.0,-0.2208932489156723
1647624108.422872,-0.8789710402488708,-0.07566002011299133,-1.363800287246704,-0.5919284224510193,-7.36924409866333,-1.026233196258545,0.0,-0.0,0.0,-0.21935926377773285
1647624108.4294453,-0.8927768468856812,-0.06675884127616882,-1.363800287246704,-0.5978625416755676,-7.3707780838012695,-1.026233196258545,0.0,-0.0,0.0,-0.21935926377773285
1647624108.4489362,-0.9050487279891968,-0.0593411959707737,-1.363800287246704,-0.603796660900116,-7.36924409866333,-1.026233196258545,0.0,-0.0,0.0,-0.21935926377773285
1647624108.4652452,-0.9203885197639465,-0.0489564873278141,-1.363800287246704,-0.611214280128479,-7.36924409866333,-1.026233196258545,0.0,-0.0,0.0,-0.21935926377773285
1647624108.480675,-0.9295924305915833,-0.043022364377975464,-1.363800287246704,-0.6156648993492126,-7.36924409866333,-1.026233196258545,0.0,-0.0,0.0,-0.21935926377773285
1647624108.4990468,-0.9372622966766357,-0.037088245153427124,-1.363800287246704,-0.6186319589614868,-7.36924409866333,-1.026233196258545,0.0,-0.0,0.0,-0.21935926377773285
1647624108.5340433,-0.9433982372283936,-0.03263765573501587,-1.363800287246704,-0.6186319589614868,-7.36924409866333,-1.026233196258545,0.0,-0.0,0.0,-0.21935926377773285
1647624108.5450563,-0.9480001926422119,-0.02967059798538685,-1.363800287246704,-0.6186319589614868,-7.367710113525391,-1.026233196258545,0.0,-0.0,0.0,-0.21935926377773285
1647624108.5608494,-0.9572040438652039,-0.022252947092056274,-1.363800287246704,-0.6186319589614868,-7.366176128387451,-1.026233196258545,0.0,-0.0,0.0,-0.21935926377773285
1647624108.5779424,-0.9587380290031433,-0.019285887479782104,-1.363800287246704,-0.6171483993530273,-7.366176128387451,-1.026233196258545,0.0,-0.0,0.0,-0.21935926377773285
1647624108.5934722,-0.9618059992790222,-0.016318827867507935,-1.363800287246704,-0.611214280128479,-7.366176128387451,-1.026233196258545,0.0,-0.0,0.0,-0.21935926377773285
1647624108.6094904,-0.9633399844169617,-0.014835298992693424,-1.363800287246704,-0.6052801609039307,-7.366176128387451,-1.026233196258545,0.0,-0.0,0.0,-0.21935926377773285
1647624108.6440556,-0.9648739695549011,-0.01186823844909668,-1.363800287246704,-0.5963789820671082,-7.366176128387451,-1.026233196258545,0.0,-0.0,0.0,-0.21935926377773285
1647624108.6595957,-0.96794193983078,-0.00890117883682251,-1.363800287246704,-0.5874778032302856,-7.364642143249512,-1.026233196258545,0.0,-0.0,0.0,-0.21935926377773285
1647624108.6775978,-0.9710099101066589,-0.00296705961227417,-1.3634512424468994,-0.5696754455566406,-7.364642143249512,-1.026233196258545,0.0,-0.0,0.0,-0.21935926377773285
1647624108.6925406,-0.9725438952445984,-0.001483529806137085,-1.3631021976470947,-0.5622578263282776,-7.366176128387451,-1.026233196258545,0.0,-0.0,0.0,-0.21935926377773285
1647624108.7081723,-0.9740778803825378,0.001483529806137085,-1.3620549440383911,-0.557807207107544,-7.367710113525391,-1.026233196258545,0.0,-0.0,0.0,-0.2208932489156723
1647624108.7345498,-0.9756118655204773,0.004450589418411255,-1.3606586456298828,-0.5533566474914551,-7.367710113525391,-1.026233196258545,0.0,-0.0,0.0,-0.21935926377773285
1647624108.7497177,-0.977145791053772,0.00593411922454834,-1.3596115112304688,-0.5518730878829956,-7.36924409866333,-1.026233196258545,0.0,-0.0,0.0,-0.21935926377773285
1647624108.765095,-0.9802137613296509,0.010384708642959595,-1.3578661680221558,-0.5518730878829956,-7.3707780838012695,-1.0246992111206055,0.0,-0.0,0.0,-0.21935926377773285
1647624108.78203,-0.9817477464675903,0.01186823844909668,-1.3568189144134521,-0.5518730878829956,-7.3707780838012695,-1.026233196258545,0.0,-0.0,0.0,-0.2208932489156723
1647624108.7984104,-0.9817477464675903,0.014835298992693424,-1.355771780014038,-0.5518730878829956,-7.36924409866333,-1.026233196258545,0.0,-0.0,0.0,-0.21935926377773285
1647624108.814038,-0.9832817316055298,0.016318827867507935,-1.3543754816055298,-0.5518730878829956,-7.36924409866333,-1.026233196258545,0.0,-0.0,0.0,-0.21935926377773285
1647624108.8393047,-0.9848157167434692,0.01780235767364502,-1.3533283472061157,-0.5533566474914551,-7.36924409866333,-1.026233196258545,0.0,-0.0,0.0,-0.21935926377773285
1647624108.855232,-0.9863497018814087,0.02076941728591919,-1.3526301383972168,-0.5533566474914551,-7.36924409866333,-1.026233196258545,0.0,-0.0,0.0,-0.21935926377773285
1647624108.8712673,-0.9878836870193481,0.022252947092056274,-1.3515830039978027,-0.5533566474914551,-7.36924409866333,-1.026233196258545,0.0,-0.0,0.0,-0.21935926377773285
1647624108.886734,-0.9878836870193481,0.025220008566975594,-1.3505357503890991,-0.5533566474914551,-7.36924409866333,-1.026233196258545,0.0,-0.0,0.0,-0.21935926377773285
1647624108.9027636,-0.9878836870193481,0.02670353837311268,-1.3498376607894897,-0.5533566474914551,-7.3707780838012695,-1.026233196258545,0.0,-0.0,0.0,-0.21935926377773285
1647624108.9347422,-0.9878836870193481,0.028187068179249763,-1.3487904071807861,-0.5533566474914551,-7.3707780838012695,-1.026233196258545,0.0,-0.0,0.0,-0.21935926377773285
1647624108.9414594,-0.9878836870193481,0.028187068179249763,-1.3480923175811768,-0.5533566474914551,-7.3707780838012695,-1.0246992111206055,0.0,-0.0,0.0,-0.21935926377773285
1647624108.957149,-0.9878836870193481,0.02967059798538685,-1.3473942279815674,-0.5533566474914551,-7.3707780838012695,-1.026233196258545,0.0,-0.0,0.0,-0.21935926377773285
1647624108.9732113,-0.9894176721572876,0.031154127791523933,-1.3466960191726685,-0.5533566474914551,-7.3707780838012695,-1.026233196258545,0.0,-0.0,0.0,-0.21935926377773285
1647624108.9912713,-0.9878836870193481,0.03263765573501587,-1.3463469743728638,-0.5533566474914551,-7.36924409866333,-1.026233196258545,0.0,-0.0,0.0,-0.21935926377773285
1647624109.0060678,-0.9894176721572876,0.034121185541152954,-1.345997929573059,-0.5533566474914551,-7.36924409866333,-1.0246992111206055,0.0,-0.0,0.0,-0.21935926377773285
1647624109.0381303,-0.9878836870193481,0.034121185541152954,-1.3452998399734497,-0.5533566474914551,-7.36924409866333,-1.0246992111206055,0.0,-0.0,0.0,-0.21935926377773285
1647624109.0447695,-0.9894176721572876,0.03560471534729004,-1.3449506759643555,-0.5533566474914551,-7.36924409866333,-1.0246992111206055,0.0,-0.0,0.0,-0.21935926377773285
1647624109.0610745,-0.9878836870193481,0.03560471534729004,-1.3446016311645508,-0.5533566474914551,-7.36924409866333,-1.026233196258545,0.0,-0.0,0.0,-0.21935926377773285
1647624109.076599,-0.9894176721572876,0.037088245153427124,-1.3439035415649414,-0.5533566474914551,-7.3707780838012695,-1.026233196258545,0.0,-0.0,0.0,-0.21935926377773285
1647624109.092898,-0.9894176721572876,0.037088245153427124,-1.3432053327560425,-0.5533566474914551,-7.3707780838012695,-1.026233196258545,0.0,-0.0,0.0,-0.21935926377773285
1647624109.108942,-0.9894176721572876,0.03857177495956421,-1.3428562879562378,-0.5533566474914551,-7.3707780838012695,-1.026233196258545,0.0,-0.0,0.0,-0.21935926377773285
1647624109.1386392,-0.990951657295227,0.03857177495956421,-1.3421581983566284,-0.5533566474914551,-7.3707780838012695,-1.026233196258545,0.0,-0.0,0.0,-0.21935926377773285
1647624109.1568806,-0.990951657295227,0.040055304765701294,-1.341460108757019,-0.5533566474914551,-7.3707780838012695,-1.026233196258545,0.0,-0.0,0.0,-0.21935926377773285
1647624109.1731768,-0.9924856424331665,0.04153883457183838,-1.3400638103485107,-0.5533566474914551,-7.3707780838012695,-1.026233196258545,0.0,-0.0,0.0,-0.21935926377773285
1647624109.1890488,-0.994019627571106,0.043022364377975464,-1.339714765548706,-0.5533566474914551,-7.3707780838012695,-1.026233196258545,0.0,-0.0,0.0,-0.21935926377773285
1647624109.2043674,-0.9955536127090454,0.04450589418411255,-1.3390165567398071,-0.5533566474914551,-7.3707780838012695,-1.0246992111206055,0.0,-0.0,0.0,-0.21935926377773285
1647624109.2199006,-0.9970875978469849,0.045989423990249634,-1.3386675119400024,-0.5533566474914551,-7.3707780838012695,-1.026233196258545,0.0,-0.0,0.0,-0.21935926377773285
1647624109.2451422,-0.9986215233802795,0.04747295379638672,-1.3383184671401978,-0.5533566474914551,-7.3707780838012695,-1.026233196258545,0.0,-0.0,0.0,-0.21935926377773285
1647624109.2623081,-1.0001555681228638,0.0489564873278141,-1.3376203775405884,-0.5533566474914551,-7.3707780838012695,-1.026233196258545,0.0,-0.0,0.0,-0.21935926377773285
1647624109.277839,-1.0016895532608032,0.0489564873278141,-1.33622407913208,-0.5533566474914551,-7.372312068939209,-1.026233196258545,0.0,-0.0,0.0,-0.21935926377773285
1647624109.2941988,-1.0016895532608032,0.05044001713395119,-1.3351768255233765,-0.5533566474914551,-7.373846054077148,-1.026233196258545,0.0,-0.0,0.0,-0.21935926377773285
1647624109.3105428,-1.0032235383987427,0.05044001713395119,-1.3341296911239624,-0.5548401474952698,-7.375380039215088,-1.0246992111206055,0.0,-0.0,0.0,-0.21935926377773285
1647624109.325736,-1.0016895532608032,0.05044001713395119,-1.333431601524353,-0.5563237071037292,-7.375380039215088,-1.026233196258545,0.0,-0.0,0.0,-0.21935926377773285
1647624109.3511472,-1.0032235383987427,0.05192354694008827,-1.3320353031158447,-0.557807207107544,-7.373846054077148,-1.026233196258545,0.0,-0.0,0.0,-0.21935926377773285
1647624109.3673666,-1.0032235383987427,0.05192354694008827,-1.3309880495071411,-0.557807207107544,-7.372312068939209,-1.026233196258545,0.0,-0.0,0.0,-0.21935926377773285
1647624109.3843787,-1.0016895532608032,0.05192354694008827,-1.3292427062988281,-0.557807207107544,-7.372312068939209,-1.026233196258545,0.0,-0.0,0.0,-0.21935926377773285
1647624109.3998795,-0.9986215233802795,0.05192354694008827,-1.3278465270996094,-0.557807207107544,-7.373846054077148,-1.026233196258545,0.0,-0.0,0.0,-0.2208932489156723
1647624109.4150307,-0.9955536127090454,0.05192354694008827,-1.326450228691101,-0.5592907667160034,-7.376914024353027,-1.026233196258545,0.0,-0.0,0.0,-0.21935926377773285
1647624109.4491003,-0.990951657295227,0.05192354694008827,-1.324704885482788,-0.5637413263320923,-7.379981994628906,-1.026233196258545,0.0,-0.0,0.0,-0.21935926377773285
1647624109.4671662,-0.9832817316055298,0.05192354694008827,-1.3226104974746704,-0.5696754455566406,-7.381515979766846,-1.026233196258545,0.0,-0.0,0.0,-0.21935926377773285
1647624109.4819107,-0.9694759249687195,0.05044001713395119,-1.3191198110580444,-0.5845107436180115,-7.383049964904785,-1.026233196258545,0.0,-0.0,0.0,-0.21935926377773285
1647624109.4970806,-0.9602720141410828,0.04747295379638672,-1.3173744678497314,-0.5919284224510193,-7.381515979766846,-1.026233196258545,0.0,-0.0,0.0,-0.21935926377773285
1647624109.5124776,-0.9495341777801514,0.043022364377975464,-1.315629243850708,-0.5978625416755676,-7.379981994628906,-1.026233196258545,0.0,-0.0,0.0,-0.21935926377773285
1647624109.5565164,-0.9280584454536438,0.034121185541152954,-1.311440348625183,-0.6052801609039307,-7.379981994628906,-1.026233196258545,0.0,-0.0,0.0,-0.21935926377773285
1647624109.5733192,-0.9111846685409546,0.028187068179249763,-1.308647871017456,-0.6052801609039307,-7.379981994628906,-1.026233196258545,0.0,-0.0,0.0,-0.21935926377773285
1647624109.7970169,-0.9387962818145752,0.03857177495956421,-1.3135347366333008,-0.6023131012916565,-7.379981994628906,-1.026233196258545,0.0,-0.0,0.0,-0.21935926377773285
1647624109.7974746,-0.8881749510765076,0.02076941728591919,-1.304110050201416,-0.603796660900116,-7.379981994628906,-1.026233196258545,0.0,-0.0,0.0,-0.21935926377773285
1647624109.797965,-0.872835099697113,0.014835298992693424,-1.30061936378479,-0.603796660900116,-7.379981994628906,-1.026233196258545,0.0,-0.0,0.0,-0.21935926377773285
1647624110.6808183,-0.8559613227844238,0.00890117883682251,-1.297128677368164,-0.603796660900116,-7.378448009490967,-1.026233196258545,0.0,-0.0,0.0,-0.21935926377773285
1647624110.6949327,-0.8390875458717346,0.00296705961227417,-1.294336199760437,-0.603796660900116,-7.376914024353027,-1.026233196258545,0.0,-0.0,0.0,-0.21935926377773285
1647624110.7113657,-0.6151263117790222,-0.025220008566975594,-1.30061936378479,-0.41835543513298035,-7.298680782318115,-1.026233196258545,0.0,-0.0,0.0,-0.21935926377773285
1647624110.7278283,-0.6412039995193481,-0.01335176918655634,-1.30061936378479,-0.40945425629615784,-7.284875392913818,-1.0246992111206055,0.0,-0.0,0.0,-0.21935926377773285
1647624110.743428,-0.6688156723976135,0.0,-1.30061936378479,-0.4035201370716095,-7.274137496948242,-1.026233196258545,0.0,-0.0,0.0,-0.21935926377773285
1647624110.7597587,-0.6948933601379395,0.01186823844909668,-1.30061936378479,-0.4020366072654724,-7.271069526672363,-1.026233196258545,0.0,-0.0,0.0,-0.21935926377773285
1647624110.7849324,-0.7209709882736206,0.022252947092056274,-1.30061936378479,-0.4020366072654724,-7.272603511810303,-1.026233196258545,0.0,-0.0,0.0,-0.21935926377773285
1647624110.8005173,-0.7470486760139465,0.03263765573501587,-1.3013174533843994,-0.4050036668777466,-7.2802734375,-1.026233196258545,0.0,-0.0,0.0,-0.21935926377773285
1647624110.8176303,-0.7838642001152039,0.0489564873278141,-1.3072515726089478,-0.42577308416366577,-7.309418678283691,-1.026233196258545,0.0,-0.0,0.0,-0.21935926377773285
1647624110.8344202,-0.8053399324417114,0.0593411959707737,-1.3117895126342773,-0.43912485241889954,-7.332428455352783,-1.026233196258545,0.0,-0.0,0.0,-0.21935926377773285
1647624110.8495383,-0.8283496499061584,0.06824237108230591,-1.3159782886505127,-0.45692721009254456,-7.355438232421875,-1.026233196258545,0.0,-0.0,0.0,-0.21935926377773285
1647624110.8793292,-0.849825382232666,0.07566002011299133,-1.3198180198669434,-0.4747295677661896,-7.372312068939209,-1.026233196258545,0.0,-0.0,0.0,-0.21935926377773285
1647624110.8880084,-0.8713011145591736,0.08456119894981384,-1.3240067958831787,-0.4925319254398346,-7.378448009490967,-1.026233196258545,0.0,-0.0,0.0,-0.21935926377773285
1647624110.9041123,-0.8927768468856812,0.09197884798049927,-1.328195571899414,-0.5133013129234314,-7.376914024353027,-1.0246992111206055,0.0,-0.0,0.0,-0.21935926377773285
1647624110.9206188,-0.9188545346260071,0.10236356407403946,-1.3348277807235718,-0.5414884090423584,-7.367710113525391,-1.0246992111206055,0.0,-0.0,0.0,-0.21935926377773285
1647624110.9382846,-0.9357283115386963,0.1082976832985878,-1.3386675119400024,-0.5622578263282776,-7.361574172973633,-1.026233196258545,0.0,-0.0,0.0,-0.21935926377773285
1647624110.956837,-0.9480001926422119,0.11274827271699905,-1.342507243156433,-0.5815436840057373,-7.360040187835693,-1.026233196258545,0.0,-0.0,0.0,-0.21935926377773285
1647624110.9862106,-0.9602720141410828,0.11719886213541031,-1.3466960191726685,-0.5963789820671082,-7.361574172973633,-1.026233196258545,0.0,-0.0,0.0,-0.21935926377773285
1647624111.0060337,-0.9725438952445984,0.1186823919415474,-1.3508847951889038,-0.6097307801246643,-7.364642143249512,-1.0246992111206055,0.0,-0.0,0.0,-0.21935926377773285
1647624111.0257306,-0.9848157167434692,0.12164945155382156,-1.3571680784225464,-0.621599018573761,-7.367710113525391,-1.026233196258545,0.0,-0.0,0.0,-0.21935926377773285
1647624111.0419085,-0.994019627571106,0.12164945155382156,-1.3606586456298828,-0.6186319589614868,-7.367710113525391,-1.026233196258545,0.0,-0.0,0.0,-0.21935926377773285
1647624111.0618854,-1.0001555681228638,0.12313298135995865,-1.363800287246704,-0.6126978397369385,-7.366176128387451,-1.026233196258545,0.0,-0.0,0.0,-0.21935926377773285
1647624111.0879204,-1.0047575235366821,0.12313298135995865,-1.3658946752548218,-0.6052801609039307,-7.364642143249512,-1.026233196258545,0.0,-0.0,0.0,-0.21935926377773285
1647624111.1082146,-1.0108933448791504,0.12313298135995865,-1.3679890632629395,-0.5978625416755676,-7.361574172973633,-1.0246992111206055,0.0,-0.0,0.0,-0.21935926377773285
1647624111.1237764,-1.0170292854309082,0.12313298135995865,-1.3697344064712524,-0.585994303226471,-7.361574172973633,-1.026233196258545,0.0,-0.0,0.0,-0.21935926377773285
1647624111.1400235,-1.023165225982666,0.12313298135995865,-1.3704324960708618,-0.5800601840019226,-7.361574172973633,-1.026233196258545,0.0,-0.0,0.0,-0.21935926377773285
1647624111.1564438,-1.0277671813964844,0.12313298135995865,-1.3704324960708618,-0.5770931243896484,-7.360040187835693,-1.0246992111206055,0.0,-0.0,0.0,-0.21935926377773285
1647624111.1846483,-1.0339031219482422,0.12461651116609573,-1.3704324960708618,-0.575609564781189,-7.358506202697754,-1.026233196258545,0.0,-0.0,0.0,-0.21935926377773285
1647624111.1944728,-1.0400390625,0.12610003352165222,-1.3704324960708618,-0.575609564781189,-7.358506202697754,-1.026233196258545,0.0,-0.0,0.0,-0.21935926377773285
1647624111.2108939,-1.0461750030517578,0.1275835633277893,-1.3704324960708618,-0.575609564781189,-7.360040187835693,-1.0246992111206055,0.0,-0.0,0.0,-0.21935926377773285
1647624111.226806,-1.055378794670105,0.13055062294006348,-1.3704324960708618,-0.575609564781189,-7.360040187835693,-1.026233196258545,0.0,-0.0,0.0,-0.21935926377773285
1647624111.2432194,-1.0615147352218628,0.13351768255233765,-1.3704324960708618,-0.575609564781189,-7.361574172973633,-1.026233196258545,0.0,-0.0,0.0,-0.21935926377773285
1647624111.2587395,-1.06918466091156,0.13500121235847473,-1.3700834512710571,-0.5785766243934631,-7.363108158111572,-1.026233196258545,0.0,-0.0,0.0,-0.21935926377773285
1647624111.2738452,-1.0768545866012573,0.139451801776886,-1.3697344064712524,-0.5845107436180115,-7.364642143249512,-1.0246992111206055,0.0,-0.0,0.0,-0.21935926377773285
1647624111.2928166,-1.0845245122909546,0.14241886138916016,-1.3693853616714478,-0.5904448628425598,-7.364642143249512,-1.026233196258545,0.0,-0.0,0.0,-0.21935926377773285
1647624111.30863,-1.0921944379806519,0.14538592100143433,-1.3693853616714478,-0.5948954820632935,-7.364642143249512,-1.026233196258545,0.0,-0.0,0.0,-0.21935926377773285
1647624112.8332307,-1.0998642444610596,0.1483529806137085,-1.3693853616714478,-0.6023131012916565,-7.366176128387451,-1.026233196258545,0.0,-0.0,0.0,-0.21935926377773285
1647624112.8503063,-1.1060001850128174,0.15132004022598267,-1.3693853616714478,-0.6082472205162048,-7.366176128387451,-1.0246992111206055,0.0,-0.0,0.0,-0.21935926377773285
1647624112.8661916,0.10584468394517899,-0.3530800938606262,-1.268505334854126,-0.5489060282707214,-7.347768306732178,-1.026233196258545,0.0,-0.0,0.0,-0.21935926377773285
1647624112.8821895,0.12118449062108994,-0.3530800938606262,-1.268505334854126,-0.5489060282707214,-7.349302291870117,-1.0246992111206055,0.0,-0.0,0.0,-0.21935926377773285
1647624112.8972344,0.13652430474758148,-0.3530800938606262,-1.268505334854126,-0.5489060282707214,-7.3539042472839355,-1.026233196258545,0.0,-0.0,0.0,-0.21935926377773285
1647624112.924897,0.14879614114761353,-0.3530800938606262,-1.267807126045227,-0.5489060282707214,-7.355438232421875,-1.026233196258545,0.0,-0.0,0.0,-0.21935926377773285
1647624112.93572,0.16260197758674622,-0.3530800938606262,-1.2664109468460083,-0.5489060282707214,-7.355438232421875,-1.026233196258545,0.0,-0.0,0.0,-0.21935926377773285
1647624112.9508696,0.1764077991247177,-0.3530800938606262,-1.2639673948287964,-0.5489060282707214,-7.3539042472839355,-1.026233196258545,0.0,-0.0,0.0,-0.21935926377773285
1647624112.967682,0.19481557607650757,-0.3530800938606262,-1.2611749172210693,-0.5489060282707214,-7.347768306732178,-1.026233196258545,0.0,-0.0,0.0,-0.21935926377773285
1647624112.9839246,0.2070874124765396,-0.3530800938606262,-1.2594295740127563,-0.5489060282707214,-7.346234321594238,-1.026233196258545,0.0,-0.0,0.0,-0.21935926377773285
1647624113.0027773,0.2208932489156723,-0.3530800938606262,-1.2583824396133423,-0.5489060282707214,-7.343166351318359,-1.026233196258545,0.0,-0.0,0.0,-0.21935926377773285
1647624113.0285127,0.23316510021686554,-0.3530800938606262,-1.2573351860046387,-0.5489060282707214,-7.338564395904541,-1.0246992111206055,0.0,-0.0,0.0,-0.21935926377773285
1647624113.0380678,0.24543693661689758,-0.3530800938606262,-1.2562880516052246,-0.5489060282707214,-7.337030410766602,-1.0246992111206055,0.0,-0.0,0.0,-0.21935926377773285
1647624113.0537195,0.25617480278015137,-0.3530800938606262,-1.2559388875961304,-0.5503895878791809,-7.332428455352783,-1.026233196258545,0.0,-0.0,0.0,-0.2208932489156723
1647624113.0692174,0.2684466540813446,-0.3530800938606262,-1.2559388875961304,-0.5503895878791809,-7.330894470214844,-1.026233196258545,0.0,-0.0,0.0,-0.21935926377773285
1647624113.0844715,0.2791845202445984,-0.3530800938606262,-1.2559388875961304,-0.5503895878791809,-7.330894470214844,-1.026233196258545,0.0,-0.0,0.0,-0.21935926377773285
1647624113.1005723,0.2883884012699127,-0.3530800938606262,-1.2559388875961304,-0.5503895878791809,-7.332428455352783,-1.0246992111206055,0.0,-0.0,0.0,-0.2208932489156723
1647624113.1169338,0.2960582971572876,-0.3530800938606262,-1.2559388875961304,-0.5503895878791809,-7.333962440490723,-1.026233196258545,0.0,-0.0,0.0,-0.2208932489156723
1647624113.136026,0.3067961633205414,-0.3530800938606262,-1.2559388875961304,-0.5503895878791809,-7.337030410766602,-1.026233196258545,0.0,-0.0,0.0,-0.21935926377773285
1647624113.1518002,0.31446608901023865,-0.3530800938606262,-1.2559388875961304,-0.5503895878791809,-7.338564395904541,-1.0246992111206055,0.0,-0.0,0.0,-0.21935926377773285
1647624113.1677954,0.323669970035553,-0.3530800938606262,-1.2559388875961304,-0.5503895878791809,-7.343166351318359,-1.0246992111206055,0.0,-0.0,0.0,-0.21935926377773285
1647624113.183455,0.33133986592292786,-0.3530800938606262,-1.2566370964050293,-0.5489060282707214,-7.346234321594238,-1.0246992111206055,0.0,-0.0,0.0,-0.21935926377773285
1647624113.1981826,0.33900976181030273,-0.3530800938606262,-1.2576842308044434,-0.5489060282707214,-7.347768306732178,-1.026233196258545,0.0,-0.0,0.0,-0.21935926377773285
1647624113.2144809,0.34514570236206055,-0.3530800938606262,-1.259778618812561,-0.5489060282707214,-7.349302291870117,-1.026233196258545,0.0,-0.0,0.0,-0.21935926377773285
1647624113.2441673,0.3543495833873749,-0.3530800938606262,-1.261523962020874,-0.5489060282707214,-7.350836277008057,-1.0246992111206055,0.0,-0.0,0.0,-0.21935926377773285
1647624113.2576218,0.3604854941368103,-0.3530800938606262,-1.2629202604293823,-0.5489060282707214,-7.352370262145996,-1.026233196258545,0.0,-0.0,0.0,-0.21935926377773285
1647624113.2735243,0.37275734543800354,-0.3530800938606262,-1.2650146484375,-0.5489060282707214,-7.3539042472839355,-1.0246992111206055,0.0,-0.0,0.0,-0.21935926377773285
1647624113.2896893,0.3804272711277008,-0.3530800938606262,-1.266759991645813,-0.5489060282707214,-7.355438232421875,-1.0246992111206055,0.0,-0.0,0.0,-0.21935926377773285
1647624113.3067276,0.38656318187713623,-0.3530800938606262,-1.2688543796539307,-0.5489060282707214,-7.355438232421875,-1.026233196258545,0.0,-0.0,0.0,-0.21935926377773285
1647624113.3364801,0.3942330777645111,-0.3530800938606262,-1.2705997228622437,-0.5489060282707214,-7.3569722175598145,-1.026233196258545,0.0,-0.0,0.0,-0.21935926377773285
1647624113.3449132,0.4003690183162689,-0.3530800938606262,-1.2726941108703613,-0.5489060282707214,-7.3569722175598145,-1.026233196258545,0.0,-0.0,0.0,-0.21935926377773285
1647624113.3610716,0.4049709439277649,-0.3530800938606262,-1.2744394540786743,-0.5489060282707214,-7.3569722175598145,-1.026233196258545,0.0,-0.0,0.0,-0.21935926377773285
1647624113.3775342,0.41264086961746216,-0.3530800938606262,-1.2768828868865967,-0.5489060282707214,-7.358506202697754,-1.026233196258545,0.0,-0.0,0.0,-0.21935926377773285
1647624113.3937607,0.41724279522895813,-0.3530800938606262,-1.279326319694519,-0.5474225282669067,-7.358506202697754,-1.0246992111206055,0.0,-0.0,0.0,-0.21935926377773285
1647624113.410569,0.42031076550483704,-0.3530800938606262,-1.2817697525024414,-0.5474225282669067,-7.358506202697754,-1.026233196258545,0.0,-0.0,0.0,-0.21935926377773285
1647624113.4436703,0.42337873578071594,-0.3530800938606262,-1.2835150957107544,-0.5474225282669067,-7.358506202697754,-1.026233196258545,0.0,-0.0,0.0,-0.21935926377773285
1647624113.4607034,0.424912691116333,-0.3530800938606262,-1.2852604389190674,-0.5474225282669067,-7.358506202697754,-1.026233196258545,0.0,-0.0,0.0,-0.21935926377773285
1647624113.4756286,0.4279806613922119,-0.3530800938606262,-1.2887511253356934,-0.5474225282669067,-7.360040187835693,-1.0246992111206055,0.0,-0.0,0.0,-0.21935926377773285
1647624113.4919243,0.42951464653015137,-0.3530800938606262,-1.2901474237442017,-0.5474225282669067,-7.360040187835693,-1.026233196258545,0.0,-0.0,0.0,-0.21935926377773285
1647624113.5086303,0.4310486316680908,-0.3530800938606262,-1.290845513343811,-0.5474225282669067,-7.363108158111572,-1.0246992111206055,0.0,-0.0,0.0,-0.21935926377773285
1647624113.5233912,0.4310486316680908,-0.35159656405448914,-1.2915436029434204,-0.5474225282669067,-7.366176128387451,-1.0246992111206055,0.0,-0.0,0.0,-0.21935926377773285
1647624113.5483947,0.4310486316680908,-0.35159656405448914,-1.2918927669525146,-0.5474225282669067,-7.36924409866333,-1.026233196258545,0.0,-0.0,0.0,-0.21935926377773285
1647624113.5648413,0.4310486316680908,-0.35011303424835205,-1.2918927669525146,-0.5474225282669067,-7.3707780838012695,-1.026233196258545,0.0,-0.0,0.0,-0.21935926377773285
1647624113.5809472,0.4325826168060303,-0.34862950444221497,-1.2918927669525146,-0.5474225282669067,-7.376914024353027,-1.0246992111206055,0.0,-0.0,0.0,-0.21935926377773285
1647624113.5976317,0.4325826168060303,-0.34862950444221497,-1.2918927669525146,-0.5474225282669067,-7.379981994628906,-1.0246992111206055,0.0,-0.0,0.0,-0.21935926377773285
1647624113.615231,0.4310486316680908,-0.3471459746360779,-1.2918927669525146,-0.5474225282669067,-7.381515979766846,-1.026233196258545,0.0,-0.0,0.0,-0.21935926377773285
1647624113.646802,0.4310486316680908,-0.3471459746360779,-1.2918927669525146,-0.5474225282669067,-7.384583950042725,-1.026233196258545,0.0,-0.0,0.0,-0.21935926377773285
1647624113.653387,0.42951464653015137,-0.3471459746360779,-1.2918927669525146,-0.5474225282669067,-7.384583950042725,-1.026233196258545,0.0,-0.0,0.0,-0.21935926377773285
1647624113.6689453,0.4279806613922119,-0.3471459746360779,-1.2918927669525146,-0.5474225282669067,-7.384583950042725,-1.0246992111206055,0.0,-0.0,0.0,-0.21935926377773285
1647624113.6853907,0.42644667625427246,-0.3471459746360779,-1.2918927669525146,-0.5474225282669067,-7.384583950042725,-1.026233196258545,0.0,-0.0,0.0,-0.21935926377773285
1647624113.7002234,0.424912691116333,-0.3471459746360779,-1.2918927669525146,-0.5474225282669067,-7.383049964904785,-1.026233196258545,0.0,-0.0,0.0,-0.21935926377773285
1647624113.7181041,0.424912691116333,-0.3471459746360779,-1.2918927669525146,-0.5474225282669067,-7.384583950042725,-1.026233196258545,0.0,-0.0,0.0,-0.21935926377773285
1647624113.7520401,0.42337873578071594,-0.3471459746360779,-1.2918927669525146,-0.5474225282669067,-7.383049964904785,-1.026233196258545,0.0,-0.0,0.0,-0.21935926377773285
1647624113.7548926,0.42337873578071594,-0.3471459746360779,-1.2918927669525146,-0.5474225282669067,-7.384583950042725,-1.026233196258545,0.0,-0.0,0.0,-0.21935926377773285
1647624113.7723205,0.4218447506427765,-0.3471459746360779,-1.2918927669525146,-0.5474225282669067,-7.384583950042725,-1.026233196258545,0.0,-0.0,0.0,-0.21935926377773285
1647624113.7874014,0.42031076550483704,-0.3471459746360779,-1.2918927669525146,-0.5474225282669067,-7.384583950042725,-1.026233196258545,0.0,-0.0,0.0,-0.21935926377773285
1647624113.8027418,0.4187767803668976,-0.3471459746360779,-1.2918927669525146,-0.5474225282669067,-7.386117935180664,-1.026233196258545,0.0,-0.0,0.0,-0.21935926377773285
1647624113.8190835,0.4187767803668976,-0.3471459746360779,-1.2918927669525146,-0.5474225282669067,-7.386117935180664,-1.0246992111206055,0.0,-0.0,0.0,-0.21935926377773285
1647624113.8572521,0.41724279522895813,-0.3471459746360779,-1.2918927669525146,-0.5474225282669067,-7.386117935180664,-1.026233196258545,0.0,-0.0,0.0,-0.2208932489156723
1647624113.868572,0.41724279522895813,-0.3471459746360779,-1.2918927669525146,-0.5474225282669067,-7.386117935180664,-1.026233196258545,0.0,-0.0,0.0,-0.21935926377773285
1647624113.88487,0.4157088100910187,-0.3471459746360779,-1.2918927669525146,-0.5474225282669067,-7.3876519203186035,-1.026233196258545,0.0,-0.0,0.0,-0.21935926377773285
1647624113.9018884,0.4157088100910187,-0.3471459746360779,-1.2918927669525146,-0.5474225282669067,-7.3876519203186035,-1.026233196258545,0.0,-0.0,0.0,-0.21935926377773285
1647624113.9174955,0.4157088100910187,-0.3471459746360779,-1.2918927669525146,-0.5474225282669067,-7.3876519203186035,-1.026233196258545,0.0,-0.0,0.0,-0.21935926377773285
1647624113.9340358,0.41724279522895813,-0.3471459746360779,-1.2922418117523193,-0.5489060282707214,-7.386117935180664,-1.026233196258545,0.0,-0.0,0.0,-0.21935926377773285
1647624113.9580214,0.41724279522895813,-0.3471459746360779,-1.2922418117523193,-0.5489060282707214,-7.386117935180664,-1.0246992111206055,0.0,-0.0,0.0,-0.21935926377773285
1647624113.973839,0.41724279522895813,-0.3471459746360779,-1.2922418117523193,-0.5489060282707214,-7.384583950042725,-1.0246992111206055,0.0,-0.0,0.0,-0.21935926377773285
1647624113.9938228,0.4187767803668976,-0.3456624448299408,-1.2922418117523193,-0.5489060282707214,-7.384583950042725,-1.0246992111206055,0.0,-0.0,0.0,-0.21935926377773285
1647624114.0101254,0.4187767803668976,-0.3456624448299408,-1.2922418117523193,-0.5489060282707214,-7.384583950042725,-1.026233196258545,0.0,-0.0,0.0,-0.21935926377773285
1647624114.0261476,0.42031076550483704,-0.3441789150238037,-1.2922418117523193,-0.5489060282707214,-7.386117935180664,-1.026233196258545,0.0,-0.0,0.0,-0.21935926377773285
1647624114.0577352,0.4218447506427765,-0.3441789150238037,-1.2922418117523193,-0.5489060282707214,-7.3876519203186035,-1.0246992111206055,0.0,-0.0,0.0,-0.21935926377773285
1647624114.077179,0.42337873578071594,-0.3426953852176666,-1.2922418117523193,-0.5489060282707214,-7.3876519203186035,-1.026233196258545,0.0,-0.0,0.0,-0.21935926377773285
1647624114.093515,0.42337873578071594,-0.34121185541152954,-1.292590856552124,-0.5474225282669067,-7.386117935180664,-1.026233196258545,0.0,-0.0,0.0,-0.21935926377773285
1647624114.1098008,0.424912691116333,-0.34121185541152954,-1.2929399013519287,-0.5474225282669067,-7.3876519203186035,-1.026233196258545,0.0,-0.0,0.0,-0.21935926377773285
1647624114.1261547,0.42644667625427246,-0.33972832560539246,-1.2929399013519287,-0.5474225282669067,-7.386117935180664,-1.026233196258545,0.0,-0.0,0.0,-0.21935926377773285
1647624114.1593046,0.4279806613922119,-0.33824479579925537,-1.2929399013519287,-0.5474225282669067,-7.3876519203186035,-1.026233196258545,0.0,-0.0,0.0,-0.21935926377773285
1647624114.1756058,0.4279806613922119,-0.3367612659931183,-1.2932889461517334,-0.5474225282669067,-7.386117935180664,-1.026233196258545,0.0,-0.0,0.0,-0.21935926377773285
1647624114.192287,0.4310486316680908,-0.3352777361869812,-1.2932889461517334,-0.5489060282707214,-7.386117935180664,-1.026233196258545,0.0,-0.0,0.0,-0.21935926377773285
1647624114.2082694,0.4341166019439697,-0.3337942063808441,-1.2932889461517334,-0.5489060282707214,-7.386117935180664,-1.026233196258545,0.0,-0.0,0.0,-0.21935926377773285
1647624114.226349,0.4356505572795868,-0.33231067657470703,-1.293637990951538,-0.5489060282707214,-7.386117935180664,-1.026233196258545,0.0,-0.0,0.0,-0.21935926377773285
1647624114.2410288,0.43718454241752625,-0.33082714676856995,-1.2939871549606323,-0.5489060282707214,-7.3876519203186035,-1.026233196258545,0.0,-0.0,0.0,-0.21935926377773285
1647624114.2684734,0.4387185275554657,-0.32934361696243286,-1.294336199760437,-0.5400048494338989,-7.393787860870361,-1.0246992111206055,0.0,-0.0,0.0,-0.21935926377773285
1647624114.282497,0.44025251269340515,-0.32934361696243286,-1.294336199760437,-0.5266531109809875,-7.39685583114624,-1.0246992111206055,0.0,-0.0,0.0,-0.21935926377773285
1647624114.29785,0.44025251269340515,-0.32934361696243286,-1.2957323789596558,-0.5133013129234314,-7.39838981628418,-1.026233196258545,0.0,-0.0,0.0,-0.21935926377773285
1647624114.3143313,0.44025251269340515,-0.32934361696243286,-1.2967796325683594,-0.5044001340866089,-7.399923801422119,-1.0246992111206055,0.0,-0.0,0.0,-0.21935926377773285
1647624114.329285,0.44025251269340515,-0.32934361696243286,-1.2974777221679688,-0.49994957447052,-7.399923801422119,-1.026233196258545,0.0,-0.0,0.0,-0.21935926377773285
1647624114.3459618,0.4417864978313446,-0.32934361696243286,-1.298874020576477,-0.49698251485824585,-7.399923801422119,-1.026233196258545,0.0,-0.0,0.0,-0.21935926377773285
1647624114.3650491,0.4417864978313446,-0.32934361696243286,-1.30061936378479,-0.4925319254398346,-7.399923801422119,-1.026233196258545,0.0,-0.0,0.0,-0.21935926377773285
1647624114.3814561,0.4417864978313446,-0.32934361696243286,-1.3020156621932983,-0.4895648658275604,-7.399923801422119,-1.026233196258545,0.0,-0.0,0.0,-0.21935926377773285
1647624114.397159,0.4417864978313446,-0.32934361696243286,-1.304110050201416,-0.4895648658275604,-7.39838981628418,-1.026233196258545,0.0,-0.0,0.0,-0.21935926377773285
1647624114.4132035,0.44332048296928406,-0.32934361696243286,-1.3055062294006348,-0.4895648658275604,-7.39685583114624,-1.0246992111206055,0.0,-0.0,0.0,-0.21935926377773285
1647624114.4284844,0.44332048296928406,-0.32934361696243286,-1.306902527809143,-0.4895648658275604,-7.393787860870361,-1.0246992111206055,0.0,-0.0,0.0,-0.2208932489156723
1647624114.4447708,0.4448544681072235,-0.32934361696243286,-1.3079497814178467,-0.4940154552459717,-7.392253875732422,-1.026233196258545,0.0,-0.0,0.0,-0.21935926377773285
1647624114.4729788,0.4448544681072235,-0.32934361696243286,-1.308647871017456,-0.5014330744743347,-7.390719890594482,-1.026233196258545,0.0,-0.0,0.0,-0.21935926377773285
1647624114.4865081,0.4463884234428406,-0.32934361696243286,-1.308647871017456,-0.5073671936988831,-7.390719890594482,-1.026233196258545,0.0,-0.0,0.0,-0.21935926377773285
1647624114.5036397,0.4494563937187195,-0.32934361696243286,-1.308647871017456,-0.5162683725357056,-7.392253875732422,-1.026233196258545,0.0,-0.0,0.0,-0.21935926377773285
1647624114.5191584,0.4525243639945984,-0.33082714676856995,-1.308647871017456,-0.5207189917564392,-7.395321846008301,-1.026233196258545,0.0,-0.0,0.0,-0.21935926377773285
1647624114.534411,0.4555923342704773,-0.33082714676856995,-1.308647871017456,-0.5251695513725281,-7.395321846008301,-1.026233196258545,0.0,-0.0,0.0,-0.2208932489156723
1647624114.571731,0.4586602747440338,-0.33231067657470703,-1.3082988262176514,-0.5296201705932617,-7.39685583114624,-1.026233196258545,0.0,-0.0,0.0,-0.21935926377773285
1647624114.5858483,0.4617282450199127,-0.33231067657470703,-1.3076006174087524,-0.5325872302055359,-7.395321846008301,-1.026233196258545,0.0,-0.0,0.0,-0.2208932489156723
1647624114.6021118,0.47093212604522705,-0.3337942063808441,-1.302364706993103,-0.5370377898216248,-7.395321846008301,-1.026233196258545,0.0,-0.0,0.0,-0.21935926377773285
1647624114.6200607,0.47706806659698486,-0.3337942063808441,-1.2992230653762817,-0.5385213494300842,-7.395321846008301,-1.026233196258545,0.0,-0.0,0.0,-0.21935926377773285
1647624114.6349761,0.4832039773464203,-0.3337942063808441,-1.29608154296875,-0.5400048494338989,-7.39685583114624,-1.026233196258545,0.0,-0.0,0.0,-0.21935926377773285
1647624114.651385,0.49087387323379517,-0.3337942063808441,-1.2929399013519287,-0.5414884090423584,-7.395321846008301,-1.026233196258545,0.0,-0.0,0.0,-0.21935926377773285
1647624114.6761675,0.5000777840614319,-0.3337942063808441,-1.2894492149353027,-0.5429719090461731,-7.39685583114624,-1.026233196258545,0.0,-0.0,0.0,-0.21935926377773285
1647624114.6913712,0.5077476501464844,-0.3337942063808441,-1.2859586477279663,-0.5444554686546326,-7.39685583114624,-1.026233196258545,0.0,-0.0,0.0,-0.21935926377773285
1647624114.7078943,0.5215535163879395,-0.3337942063808441,-1.281071662902832,-0.5474225282669067,-7.39685583114624,-1.026233196258545,0.0,-0.0,0.0,-0.21935926377773285
1647624114.7228842,0.5322913527488708,-0.3337942063808441,-1.277580976486206,-0.5474225282669067,-7.39838981628418,-1.026233196258545,0.0,-0.0,0.0,-0.21935926377773285
1647624114.7394862,0.5399612784385681,-0.33082714676856995,-1.274788498878479,-0.5474225282669067,-7.39685583114624,-1.026233196258545,0.0,-0.0,0.0,-0.21935926377773285
1647624114.7718563,0.5491651296615601,-0.3263765573501587,-1.2723450660705566,-0.5474225282669067,-7.39685583114624,-1.026233196258545,0.0,-0.0,0.0,-0.21935926377773285
1647624114.7784755,0.5583690404891968,-0.3234094977378845,-1.270250678062439,-0.5474225282669067,-7.39685583114624,-1.026233196258545,0.0,-0.0,0.0,-0.21935926377773285
1647624114.7946157,0.5675729513168335,-0.31895890831947327,-1.2692034244537354,-0.5474225282669067,-7.395321846008301,-1.026233196258545,0.0,-0.0,0.0,-0.21935926377773285
1647624114.8110256,0.5783107876777649,-0.3130247890949249,-1.2681562900543213,-0.5474225282669067,-7.395321846008301,-1.026233196258545,0.0,-0.0,0.0,-0.21935926377773285
1647624114.8270957,0.5859807133674622,-0.31005772948265076,-1.2681562900543213,-0.5474225282669067,-7.393787860870361,-1.026233196258545,0.0,-0.0,0.0,-0.21935926377773285
1647624114.843291,0.5936505794525146,-0.3070906698703766,-1.2681562900543213,-0.5459389686584473,-7.392253875732422,-1.026233196258545,0.0,-0.0,0.0,-0.21935926377773285
1647624114.8746943,0.6013205051422119,-0.3041236102581024,-1.2681562900543213,-0.5414884090423584,-7.392253875732422,-1.026233196258545,0.0,-0.0,0.0,-0.21935926377773285
1647624114.8816144,0.6074564456939697,-0.30115655064582825,-1.2681562900543213,-0.5385213494300842,-7.390719890594482,-1.026233196258545,0.0,-0.0,0.0,-0.21935926377773285
1647624114.8982663,0.6135923266410828,-0.2981894910335541,-1.2681562900543213,-0.5355542898178101,-7.389185905456543,-1.026233196258545,0.0,-0.0,0.0,-0.21935926377773285
1647624114.9148293,0.6197282671928406,-0.2952224314212799,-1.2681562900543213,-0.5325872302055359,-7.389185905456543,-1.026233196258545,0.0,-0.0,0.0,-0.2208932489156723
1647624114.9298007,0.6243302226066589,-0.2937389016151428,-1.2681562900543213,-0.5311036705970764,-7.3876519203186035,-1.026233196258545,0.0,-0.0,0.0,-0.21935926377773285
