Damindarov/ARM_ex/ARM_ROS/data_point.csv
time,q1,q2,q3,q4,q5,q6,q7,q8,q9,q10
1646249376.4165828,0.03988350182771683,-0.045989423990249634,-0.29391345381736755,-0.1869247555732727,-7.464350700378418,-1.641359567642212,0.0,-0.0006981316837482154,-0.02373647689819336,-0.19328159093856812
1646249376.5597432,0.40957289934158325,0.022252947092056274,-0.015358897857367992,-0.12016592174768448,-7.358506202697754,-1.641359567642212,0.0,-0.0006981316837482154,-0.02373647689819336,-0.19481557607650757
1646249376.5682313,0.4111068844795227,0.022252947092056274,-0.015358897857367992,-0.12164945155382156,-7.358506202697754,-1.641359567642212,0.0,-0.0006981316837482154,-0.02373647689819336,-0.19481557607650757
1646249376.7268467,0.4111068844795227,0.022252947092056274,-0.015358897857367992,-0.12164945155382156,-7.358506202697754,-1.6428935527801514,0.0,-0.0006981316837482154,-0.02373647689819336,-0.19481557607650757
1646249376.818638,0.4111068844795227,0.022252947092056274,-0.015358897857367992,-0.12164945155382156,-7.358506202697754,-1.641359567642212,0.0,-0.0006981316837482154,-0.02373647689819336,-0.19481557607650757
1646249376.8512566,0.4111068844795227,0.022252947092056274,-0.015358897857367992,-0.12164945155382156,-7.358506202697754,-1.641359567642212,0.0,-0.0006981316837482154,-0.02373647689819336,-0.19481557607650757
1646249376.9058921,0.4111068844795227,0.022252947092056274,-0.015358897857367992,-0.12164945155382156,-7.358506202697754,-1.641359567642212,0.0,-0.0006981316837482154,-0.02373647689819336,-0.19481557607650757
1646249377.0344682,0.4111068844795227,0.022252947092056274,-0.015358897857367992,-0.12016592174768448,-7.358506202697754,-1.641359567642212,0.0,-0.0006981316837482154,-0.02373647689819336,-0.19481557607650757
1646249377.0949137,0.40957289934158325,0.022252947092056274,-0.015358897857367992,-0.12164945155382156,-7.358506202697754,-1.641359567642212,0.0,-0.0006981316837482154,-0.02373647689819336,-0.19481557607650757
1646249377.239181,0.4111068844795227,0.022252947092056274,-0.015358897857367992,-0.12016592174768448,-7.358506202697754,-1.641359567642212,0.0,-0.0006981316837482154,-0.02373647689819336,-0.19481557607650757
1646249377.3414767,0.4111068844795227,0.022252947092056274,-0.015358897857367992,-0.12016592174768448,-7.358506202697754,-1.641359567642212,0.0,-0.0006981316837482154,-0.02373647689819336,-0.19481557607650757
1646249377.4413567,0.4111068844795227,0.022252947092056274,-0.015358897857367992,-0.12164945155382156,-7.358506202697754,-1.641359567642212,0.0,-0.0006981316837482154,-0.02373647689819336,-0.19481557607650757
1646249377.5427532,0.4111068844795227,0.022252947092056274,-0.015358897857367992,-0.12164945155382156,-7.358506202697754,-1.641359567642212,0.0,-0.0006981316837482154,-0.02373647689819336,-0.19481557607650757
1646249377.6463313,0.4111068844795227,0.022252947092056274,-0.015358897857367992,-0.12016592174768448,-7.358506202697754,-1.641359567642212,0.0,-0.0006981316837482154,-0.02373647689819336,-0.19481557607650757
1646249377.751081,0.40957289934158325,0.022252947092056274,-0.015358897857367992,-0.12016592174768448,-7.358506202697754,-1.641359567642212,0.0,-0.0006981316837482154,-0.02373647689819336,-0.19481557607650757
1646249377.8255665,0.4111068844795227,0.022252947092056274,-0.015358897857367992,-0.12016592174768448,-7.358506202697754,-1.641359567642212,0.0,-0.0006981316837482154,-0.02373647689819336,-0.19481557607650757
1646249377.8826964,0.4111068844795227,0.022252947092056274,-0.015358897857367992,-0.12164945155382156,-7.358506202697754,-1.641359567642212,0.0,-0.0006981316837482154,-0.02373647689819336,-0.19481557607650757
1646249377.939261,0.40957289934158325,0.022252947092056274,-0.015358897857367992,-0.12016592174768448,-7.358506202697754,-1.641359567642212,0.0,-0.0006981316837482154,-0.02373647689819336,-0.19481557607650757
1646249377.9958086,0.4111068844795227,0.022252947092056274,-0.015358897857367992,-0.12164945155382156,-7.358506202697754,-1.641359567642212,0.0,-0.0006981316837482154,-0.02373647689819336,-0.19481557607650757
1646249378.0517967,0.4111068844795227,0.022252947092056274,-0.015358897857367992,-0.12164945155382156,-7.358506202697754,-1.641359567642212,0.0,-0.0006981316837482154,-0.02373647689819336,-0.19481557607650757
1646249378.1086016,0.40957289934158325,0.022252947092056274,-0.015358897857367992,-0.12164945155382156,-7.358506202697754,-1.6428935527801514,0.0,-0.0006981316837482154,-0.02373647689819336,-0.19481557607650757
1646249378.163864,0.4111068844795227,0.022252947092056274,-0.015358897857367992,-0.12016592174768448,-7.358506202697754,-1.641359567642212,0.0,-0.0006981316837482154,-0.02373647689819336,-0.19328159093856812
1646249378.2257998,0.40957289934158325,0.022252947092056274,-0.015358897857367992,-0.12164945155382156,-7.358506202697754,-1.641359567642212,0.0,-0.0006981316837482154,-0.02373647689819336,-0.19481557607650757
1646249378.282412,0.4111068844795227,0.022252947092056274,-0.015358897857367992,-0.12016592174768448,-7.358506202697754,-1.641359567642212,0.0,-0.0006981316837482154,-0.02373647689819336,-0.19481557607650757
1646249378.3381538,0.40957289934158325,0.022252947092056274,-0.015358897857367992,-0.12016592174768448,-7.358506202697754,-1.641359567642212,0.0,-0.0006981316837482154,-0.02373647689819336,-0.19481557607650757
1646249378.3938718,0.4111068844795227,0.022252947092056274,-0.015358897857367992,-0.12164945155382156,-7.358506202697754,-1.641359567642212,0.0,-0.0006981316837482154,-0.02373647689819336,-0.19481557607650757
1646249378.4498022,0.4111068844795227,0.022252947092056274,-0.015358897857367992,-0.12164945155382156,-7.358506202697754,-1.641359567642212,0.0,-0.0006981316837482154,-0.02373647689819336,-0.19481557607650757
1646249378.505757,0.4111068844795227,0.022252947092056274,-0.015358897857367992,-0.12164945155382156,-7.358506202697754,-1.641359567642212,0.0,-0.0006981316837482154,-0.02373647689819336,-0.19481557607650757
1646249378.561529,0.4111068844795227,0.022252947092056274,-0.015358897857367992,-0.12164945155382156,-7.358506202697754,-1.641359567642212,0.0,-0.0006981316837482154,-0.02373647689819336,-0.19481557607650757
1646249378.6242154,0.4111068844795227,0.022252947092056274,-0.015358897857367992,-0.12164945155382156,-7.358506202697754,-1.641359567642212,0.0,-0.0006981316837482154,-0.02373647689819336,-0.19481557607650757
1646249378.6811473,0.4111068844795227,0.022252947092056274,-0.015358897857367992,-0.12016592174768448,-7.358506202697754,-1.641359567642212,0.0,-0.0006981316837482154,-0.02373647689819336,-0.19481557607650757
1646249378.737218,0.4111068844795227,0.022252947092056274,-0.015358897857367992,-0.12016592174768448,-7.358506202697754,-1.641359567642212,0.0,-0.0006981316837482154,-0.02373647689819336,-0.19481557607650757
1646249378.7948303,0.4111068844795227,0.022252947092056274,-0.015358897857367992,-0.12164945155382156,-7.358506202697754,-1.641359567642212,0.0,-0.0006981316837482154,-0.02373647689819336,-0.19481557607650757
1646249378.8544307,0.4111068844795227,0.022252947092056274,-0.015358897857367992,-0.12016592174768448,-7.358506202697754,-1.6428935527801514,0.0,-0.0006981316837482154,-0.02373647689819336,-0.19481557607650757
1646249378.9076765,0.4111068844795227,0.022252947092056274,-0.015358897857367992,-0.12164945155382156,-7.358506202697754,-1.641359567642212,0.0,-0.0006981316837482154,-0.02373647689819336,-0.19481557607650757
1646249378.9665966,0.4111068844795227,0.022252947092056274,-0.015358897857367992,-0.12164945155382156,-7.358506202697754,-1.641359567642212,0.0,-0.0006981316837482154,-0.02373647689819336,-0.19481557607650757
1646249379.025594,0.4111068844795227,0.022252947092056274,-0.015358897857367992,-0.12164945155382156,-7.358506202697754,-1.641359567642212,0.0,-0.0006981316837482154,-0.02373647689819336,-0.19481557607650757
1646249379.0855799,0.40957289934158325,0.022252947092056274,-0.015358897857367992,-0.12164945155382156,-7.358506202697754,-1.641359567642212,0.0,-0.0006981316837482154,-0.02373647689819336,-0.19481557607650757
1646249379.141417,0.4111068844795227,0.022252947092056274,-0.015358897857367992,-0.12164945155382156,-7.358506202697754,-1.641359567642212,0.0,-0.0006981316837482154,-0.02373647689819336,-0.19481557607650757
1646249379.2014241,0.40957289934158325,0.022252947092056274,-0.015358897857367992,-0.12016592174768448,-7.358506202697754,-1.641359567642212,0.0,-0.0006981316837482154,-0.02373647689819336,-0.19481557607650757
1646249379.2578328,0.4111068844795227,0.022252947092056274,-0.015358897857367992,-0.12164945155382156,-7.358506202697754,-1.641359567642212,0.0,-0.0006981316837482154,-0.02373647689819336,-0.19481557607650757
1646249379.317877,0.4111068844795227,0.022252947092056274,-0.015358897857367992,-0.12016592174768448,-7.358506202697754,-1.641359567642212,0.0,-0.0006981316837482154,-0.02373647689819336,-0.19481557607650757
1646249379.3747392,0.4111068844795227,0.022252947092056274,-0.015358897857367992,-0.12164945155382156,-7.358506202697754,-1.641359567642212,0.0,-0.0006981316837482154,-0.02373647689819336,-0.19481557607650757
1646249379.4285834,0.4111068844795227,0.022252947092056274,-0.015358897857367992,-0.12164945155382156,-7.358506202697754,-1.641359567642212,0.0,-0.0006981316837482154,-0.02373647689819336,-0.19481557607650757
1646249379.4898698,0.4111068844795227,0.022252947092056274,-0.015358897857367992,-0.12164945155382156,-7.358506202697754,-1.641359567642212,0.0,-0.0006981316837482154,-0.02373647689819336,-0.19481557607650757
1646249379.5530598,0.40957289934158325,0.022252947092056274,-0.015358897857367992,-0.12016592174768448,-7.358506202697754,-1.641359567642212,0.0,-0.0006981316837482154,-0.02373647689819336,-0.19481557607650757
1646249379.6065795,0.40957289934158325,0.022252947092056274,-0.015358897857367992,-0.12016592174768448,-7.358506202697754,-1.641359567642212,0.0,-0.0006981316837482154,-0.02373647689819336,-0.19481557607650757
1646249379.6658905,0.40957289934158325,0.022252947092056274,-0.015358897857367992,-0.12016592174768448,-7.358506202697754,-1.641359567642212,0.0,-0.0006981316837482154,-0.02373647689819336,-0.19481557607650757
1646249379.7230632,0.4111068844795227,0.022252947092056274,-0.015358897857367992,-0.12164945155382156,-7.358506202697754,-1.641359567642212,0.0,-0.0006981316837482154,-0.02373647689819336,-0.19481557607650757
1646249379.7770567,0.40957289934158325,0.022252947092056274,-0.015358897857367992,-0.12164945155382156,-7.358506202697754,-1.641359567642212,0.0,-0.0006981316837482154,-0.02373647689819336,-0.19481557607650757
1646249379.8366692,0.4111068844795227,0.022252947092056274,-0.015358897857367992,-0.12164945155382156,-7.358506202697754,-1.641359567642212,0.0,-0.0006981316837482154,-0.02373647689819336,-0.19481557607650757
1646249379.8934145,0.4111068844795227,0.022252947092056274,-0.015358897857367992,-0.12164945155382156,-7.358506202697754,-1.641359567642212,0.0,-0.0006981316837482154,-0.02373647689819336,-0.19481557607650757
1646249379.9487832,0.40957289934158325,0.022252947092056274,-0.015358897857367992,-0.12164945155382156,-7.358506202697754,-1.641359567642212,0.0,-0.0006981316837482154,-0.02373647689819336,-0.19481557607650757
1646249380.0082524,0.4111068844795227,0.022252947092056274,-0.015358897857367992,-0.12016592174768448,-7.358506202697754,-1.641359567642212,0.0,-0.0006981316837482154,-0.02373647689819336,-0.19481557607650757
1646249380.068845,0.4111068844795227,0.022252947092056274,-0.015358897857367992,-0.12164945155382156,-7.358506202697754,-1.641359567642212,0.0,-0.0006981316837482154,-0.02373647689819336,-0.19481557607650757
1646249380.127094,0.4111068844795227,0.022252947092056274,-0.015358897857367992,-0.12164945155382156,-7.358506202697754,-1.641359567642212,0.0,-0.0006981316837482154,-0.02373647689819336,-0.19481557607650757
1646249380.1836092,0.40957289934158325,0.022252947092056274,-0.015358897857367992,-0.12016592174768448,-7.358506202697754,-1.641359567642212,0.0,-0.0006981316837482154,-0.02373647689819336,-0.19481557607650757
1646249380.24571,0.4111068844795227,0.022252947092056274,-0.015358897857367992,-0.12016592174768448,-7.358506202697754,-1.641359567642212,0.0,-0.0006981316837482154,-0.02373647689819336,-0.19481557607650757
1646249380.3024468,0.4111068844795227,0.022252947092056274,-0.015358897857367992,-0.12164945155382156,-7.358506202697754,-1.641359567642212,0.0,-0.0006981316837482154,-0.02373647689819336,-0.19481557607650757
1646249380.3561106,0.4111068844795227,0.022252947092056274,-0.015358897857367992,-0.12164945155382156,-7.358506202697754,-1.641359567642212,0.0,-0.0006981316837482154,-0.02373647689819336,-0.19481557607650757
1646249380.4120655,0.4111068844795227,0.022252947092056274,-0.015358897857367992,-0.12164945155382156,-7.358506202697754,-1.641359567642212,0.0,-0.0006981316837482154,-0.02373647689819336,-0.19481557607650757
1646249380.4718173,0.40957289934158325,0.022252947092056274,-0.015358897857367992,-0.12016592174768448,-7.358506202697754,-1.641359567642212,0.0,-0.0006981316837482154,-0.02373647689819336,-0.19481557607650757
1646249380.5316107,0.4111068844795227,0.022252947092056274,-0.015358897857367992,-0.12164945155382156,-7.358506202697754,-1.6428935527801514,0.0,-0.0006981316837482154,-0.02373647689819336,-0.19481557607650757
1646249380.5847135,0.40957289934158325,0.022252947092056274,-0.015358897857367992,-0.12016592174768448,-7.358506202697754,-1.641359567642212,0.0,-0.0006981316837482154,-0.02373647689819336,-0.19481557607650757
1646249380.6485195,0.4111068844795227,0.022252947092056274,-0.015358897857367992,-0.12164945155382156,-7.358506202697754,-1.641359567642212,0.0,-0.0006981316837482154,-0.02373647689819336,-0.19481557607650757
1646249380.7046845,0.4111068844795227,0.022252947092056274,-0.015358897857367992,-0.12164945155382156,-7.358506202697754,-1.641359567642212,0.0,-0.0006981316837482154,-0.02373647689819336,-0.19481557607650757
1646249380.7619338,0.40957289934158325,0.022252947092056274,-0.015358897857367992,-0.12016592174768448,-7.358506202697754,-1.641359567642212,0.0,-0.0006981316837482154,-0.02373647689819336,-0.19481557607650757
1646249380.8210437,0.4111068844795227,0.022252947092056274,-0.015358897857367992,-0.12164945155382156,-7.358506202697754,-1.641359567642212,0.0,-0.0006981316837482154,-0.02373647689819336,-0.19481557607650757
1646249380.8774025,0.4111068844795227,0.022252947092056274,-0.015358897857367992,-0.12016592174768448,-7.358506202697754,-1.641359567642212,0.0,-0.0006981316837482154,-0.02373647689819336,-0.19481557607650757
1646249380.9348476,0.4111068844795227,0.022252947092056274,-0.015358897857367992,-0.12164945155382156,-7.358506202697754,-1.641359567642212,0.0,-0.0006981316837482154,-0.02373647689819336,-0.19481557607650757
1646249380.9918232,0.4111068844795227,0.022252947092056274,-0.015358897857367992,-0.12164945155382156,-7.358506202697754,-1.641359567642212,0.0,-0.0006981316837482154,-0.02373647689819336,-0.19481557607650757
1646249381.0490484,0.4111068844795227,0.022252947092056274,-0.015358897857367992,-0.12016592174768448,-7.358506202697754,-1.641359567642212,0.0,-0.0006981316837482154,-0.02373647689819336,-0.19481557607650757
1646249381.1031692,0.40957289934158325,0.022252947092056274,-0.015358897857367992,-0.12016592174768448,-7.358506202697754,-1.641359567642212,0.0,-0.0006981316837482154,-0.02373647689819336,-0.19481557607650757
1646249381.159501,0.40957289934158325,0.022252947092056274,-0.015358897857367992,-0.12016592174768448,-7.358506202697754,-1.641359567642212,0.0,-0.0006981316837482154,-0.02373647689819336,-0.19481557607650757
1646249381.2196426,0.4111068844795227,0.022252947092056274,-0.015358897857367992,-0.12016592174768448,-7.358506202697754,-1.641359567642212,0.0,-0.0006981316837482154,-0.02373647689819336,-0.19481557607650757
1646249381.2743258,0.4111068844795227,0.022252947092056274,-0.015358897857367992,-0.12164945155382156,-7.358506202697754,-1.641359567642212,0.0,-0.0006981316837482154,-0.02373647689819336,-0.19481557607650757
1646249381.3318384,0.4111068844795227,0.022252947092056274,-0.015358897857367992,-0.12016592174768448,-7.358506202697754,-1.641359567642212,0.0,-0.0006981316837482154,-0.02373647689819336,-0.19481557607650757
1646249381.3967786,0.40957289934158325,0.022252947092056274,-0.015358897857367992,-0.12164945155382156,-7.358506202697754,-1.641359567642212,0.0,-0.0006981316837482154,-0.02373647689819336,-0.19481557607650757
1646249381.4530737,0.4111068844795227,0.022252947092056274,-0.015358897857367992,-0.12164945155382156,-7.358506202697754,-1.641359567642212,0.0,-0.0006981316837482154,-0.02373647689819336,-0.19481557607650757
1646249381.513202,0.4111068844795227,0.022252947092056274,-0.015358897857367992,-0.12164945155382156,-7.358506202697754,-1.641359567642212,0.0,-0.0006981316837482154,-0.02373647689819336,-0.19481557607650757
1646249381.5701892,0.4111068844795227,0.022252947092056274,-0.015358897857367992,-0.12016592174768448,-7.358506202697754,-1.641359567642212,0.0,-0.0006981316837482154,-0.02373647689819336,-0.19481557607650757
1646249381.6203487,0.4111068844795227,0.022252947092056274,-0.015358897857367992,-0.12016592174768448,-7.358506202697754,-1.641359567642212,0.0,-0.0006981316837482154,-0.02373647689819336,-0.19481557607650757
1646249381.679333,0.40957289934158325,0.022252947092056274,-0.015358897857367992,-0.12016592174768448,-7.358506202697754,-1.641359567642212,0.0,-0.0006981316837482154,-0.02373647689819336,-0.19481557607650757
1646249381.735664,0.40957289934158325,0.022252947092056274,-0.015358897857367992,-0.12164945155382156,-7.358506202697754,-1.641359567642212,0.0,-0.0006981316837482154,-0.02373647689819336,-0.19481557607650757
1646249381.7921152,0.4111068844795227,0.022252947092056274,-0.015358897857367992,-0.12164945155382156,-7.358506202697754,-1.641359567642212,0.0,-0.0006981316837482154,-0.02373647689819336,-0.19481557607650757
1646249381.8482704,0.4111068844795227,0.022252947092056274,-0.015358897857367992,-0.12016592174768448,-7.358506202697754,-1.641359567642212,0.0,-0.0006981316837482154,-0.02373647689819336,-0.19481557607650757
1646249381.9104512,0.4111068844795227,0.022252947092056274,-0.015358897857367992,-0.12164945155382156,-7.358506202697754,-1.641359567642212,0.0,-0.0006981316837482154,-0.02373647689819336,-0.19481557607650757
1646249381.9709618,0.4111068844795227,0.022252947092056274,-0.015358897857367992,-0.12164945155382156,-7.358506202697754,-1.641359567642212,0.0,-0.0006981316837482154,-0.02373647689819336,-0.19481557607650757
1646249382.0304484,0.4111068844795227,0.022252947092056274,-0.015358897857367992,-0.12164945155382156,-7.358506202697754,-1.641359567642212,0.0,-0.0006981316837482154,-0.02373647689819336,-0.19481557607650757
1646249382.0878336,0.40957289934158325,0.022252947092056274,-0.015358897857367992,-0.12164945155382156,-7.358506202697754,-1.641359567642212,0.0,-0.0006981316837482154,-0.02373647689819336,-0.19481557607650757
1646249382.145114,0.4111068844795227,0.022252947092056274,-0.015358897857367992,-0.12016592174768448,-7.358506202697754,-1.6428935527801514,0.0,-0.0006981316837482154,-0.02373647689819336,-0.19481557607650757
1646249382.2019722,0.4111068844795227,0.022252947092056274,-0.015358897857367992,-0.12164945155382156,-7.358506202697754,-1.641359567642212,0.0,-0.0006981316837482154,-0.02373647689819336,-0.19481557607650757
1646249382.2587595,0.40957289934158325,0.022252947092056274,-0.015358897857367992,-0.12016592174768448,-7.358506202697754,-1.641359567642212,0.0,-0.0006981316837482154,-0.02373647689819336,-0.19481557607650757
1646249382.3173177,0.40957289934158325,0.022252947092056274,-0.015358897857367992,-0.12016592174768448,-7.358506202697754,-1.641359567642212,0.0,-0.0006981316837482154,-0.02373647689819336,-0.19328159093856812
1646249382.3799038,0.4111068844795227,0.022252947092056274,-0.015358897857367992,-0.12016592174768448,-7.358506202697754,-1.641359567642212,0.0,-0.0006981316837482154,-0.02373647689819336,-0.19481557607650757
1646249382.4363446,0.4111068844795227,0.022252947092056274,-0.015358897857367992,-0.12164945155382156,-7.358506202697754,-1.641359567642212,0.0,-0.0006981316837482154,-0.02373647689819336,-0.19481557607650757
1646249382.4984329,0.4111068844795227,0.022252947092056274,-0.015358897857367992,-0.12164945155382156,-7.358506202697754,-1.641359567642212,0.0,-0.0006981316837482154,-0.02373647689819336,-0.19481557607650757
1646249382.5619292,0.4111068844795227,0.022252947092056274,-0.015358897857367992,-0.12164945155382156,-7.358506202697754,-1.641359567642212,0.0,-0.0006981316837482154,-0.02373647689819336,-0.19481557607650757
1646249382.6205919,0.4111068844795227,0.022252947092056274,-0.015358897857367992,-0.12164945155382156,-7.358506202697754,-1.641359567642212,0.0,-0.0006981316837482154,-0.02373647689819336,-0.19328159093856812
1646249382.677956,0.40957289934158325,0.022252947092056274,-0.015358897857367992,-0.12164945155382156,-7.358506202697754,-1.641359567642212,0.0,-0.0006981316837482154,-0.02373647689819336,-0.19481557607650757
1646249382.7345324,0.40957289934158325,0.022252947092056274,-0.015358897857367992,-0.12016592174768448,-7.358506202697754,-1.641359567642212,0.0,-0.0006981316837482154,-0.02373647689819336,-0.19481557607650757
1646249382.7910962,0.40957289934158325,0.022252947092056274,-0.015358897857367992,-0.12016592174768448,-7.358506202697754,-1.641359567642212,0.0,-0.0006981316837482154,-0.02373647689819336,-0.19481557607650757
1646249382.845162,0.4111068844795227,0.022252947092056274,-0.015358897857367992,-0.12016592174768448,-7.358506202697754,-1.641359567642212,0.0,-0.0006981316837482154,-0.02373647689819336,-0.19481557607650757
1646249382.9048333,0.40957289934158325,0.022252947092056274,-0.015358897857367992,-0.12164945155382156,-7.358506202697754,-1.641359567642212,0.0,-0.0006981316837482154,-0.02373647689819336,-0.19481557607650757
1646249382.958546,0.40957289934158325,0.022252947092056274,-0.015358897857367992,-0.12016592174768448,-7.358506202697754,-1.641359567642212,0.0,-0.0006981316837482154,-0.02373647689819336,-0.19481557607650757
1646249383.019991,0.40957289934158325,0.022252947092056274,-0.015358897857367992,-0.12164945155382156,-7.358506202697754,-1.641359567642212,0.0,-0.0006981316837482154,-0.02373647689819336,-0.19481557607650757
1646249383.0751207,0.40957289934158325,0.022252947092056274,-0.015358897857367992,-0.12164945155382156,-7.358506202697754,-1.641359567642212,0.0,-0.0006981316837482154,-0.02373647689819336,-0.19481557607650757
1646249383.1346874,0.40957289934158325,0.022252947092056274,-0.015358897857367992,-0.12016592174768448,-7.358506202697754,-1.641359567642212,0.0,-0.0006981316837482154,-0.02373647689819336,-0.19328159093856812
1646249383.1911106,0.40957289934158325,0.022252947092056274,-0.015358897857367992,-0.12016592174768448,-7.358506202697754,-1.641359567642212,0.0,-0.0006981316837482154,-0.02373647689819336,-0.19481557607650757
1646249383.2443144,0.40957289934158325,0.022252947092056274,-0.015358897857367992,-0.12016592174768448,-7.358506202697754,-1.641359567642212,0.0,-0.0006981316837482154,-0.02373647689819336,-0.19481557607650757
1646249383.3036256,0.40957289934158325,0.022252947092056274,-0.015358897857367992,-0.12164945155382156,-7.358506202697754,-1.641359567642212,0.0,-0.0006981316837482154,-0.02373647689819336,-0.19481557607650757
1646249383.3567624,0.4111068844795227,0.022252947092056274,-0.015358897857367992,-0.12016592174768448,-7.358506202697754,-1.641359567642212,0.0,-0.0006981316837482154,-0.02373647689819336,-0.19481557607650757
1646249383.4129553,0.4111068844795227,0.022252947092056274,-0.015358897857367992,-0.12164945155382156,-7.358506202697754,-1.641359567642212,0.0,-0.0006981316837482154,-0.02373647689819336,-0.19481557607650757
1646249383.4724178,0.4111068844795227,0.022252947092056274,-0.015358897857367992,-0.12016592174768448,-7.358506202697754,-1.641359567642212,0.0,-0.0006981316837482154,-0.02373647689819336,-0.19481557607650757
1646249383.530149,0.4111068844795227,0.022252947092056274,-0.015358897857367992,-0.12164945155382156,-7.358506202697754,-1.641359567642212,0.0,-0.0006981316837482154,-0.02373647689819336,-0.19481557607650757
1646249383.5921946,0.40957289934158325,0.022252947092056274,-0.015358897857367992,-0.12164945155382156,-7.358506202697754,-1.641359567642212,0.0,-0.0006981316837482154,-0.02373647689819336,-0.19328159093856812
1646249383.6490977,0.40957289934158325,0.022252947092056274,-0.015358897857367992,-0.12164945155382156,-7.358506202697754,-1.641359567642212,0.0,-0.0006981316837482154,-0.02373647689819336,-0.19481557607650757
1646249383.7063012,0.4111068844795227,0.022252947092056274,-0.015358897857367992,-0.12164945155382156,-7.358506202697754,-1.641359567642212,0.0,-0.0006981316837482154,-0.02373647689819336,-0.19481557607650757
1646249383.7635016,0.40957289934158325,0.022252947092056274,-0.015358897857367992,-0.12016592174768448,-7.358506202697754,-1.641359567642212,0.0,-0.0006981316837482154,-0.02373647689819336,-0.19481557607650757
1646249383.8175037,0.40957289934158325,0.022252947092056274,-0.015358897857367992,-0.12164945155382156,-7.358506202697754,-1.641359567642212,0.0,-0.0006981316837482154,-0.02373647689819336,-0.19481557607650757
1646249383.8823218,0.40957289934158325,0.022252947092056274,-0.015358897857367992,-0.12016592174768448,-7.358506202697754,-1.641359567642212,0.0,-0.0006981316837482154,-0.02373647689819336,-0.19481557607650757
1646249383.9391534,0.40957289934158325,0.022252947092056274,-0.015358897857367992,-0.12016592174768448,-7.358506202697754,-1.641359567642212,0.0,-0.0006981316837482154,-0.02373647689819336,-0.19481557607650757
1646249383.9980798,0.41264086961746216,0.022252947092056274,-0.015358897857367992,-0.12164945155382156,-7.360040187835693,-1.6428935527801514,0.0,-0.0006981316837482154,-0.02373647689819336,-0.19481557607650757
1646249384.0542204,0.41724279522895813,0.022252947092056274,-0.015358897857367992,-0.12164945155382156,-7.361574172973633,-1.641359567642212,0.0,-0.0006981316837482154,-0.02373647689819336,-0.19481557607650757
1646249384.1114736,0.42337873578071594,0.022252947092056274,-0.015358897857367992,-0.12164945155382156,-7.360040187835693,-1.641359567642212,0.0,-0.0006981316837482154,-0.02373647689819336,-0.19328159093856812
1646249384.1663675,0.4279806613922119,0.022252947092056274,-0.015358897857367992,-0.12164945155382156,-7.355438232421875,-1.641359567642212,0.0,-0.0006981316837482154,-0.02373647689819336,-0.19481557607650757
1646249384.2253792,0.42951464653015137,0.022252947092056274,-0.015358897857367992,-0.12164945155382156,-7.3539042472839355,-1.641359567642212,0.0,-0.0006981316837482154,-0.02373647689819336,-0.19481557607650757
1646249384.278611,0.42951464653015137,0.022252947092056274,-0.015358897857367992,-0.12164945155382156,-7.355438232421875,-1.641359567642212,0.0,-0.0006981316837482154,-0.02373647689819336,-0.19481557607650757
1646249384.3843272,0.42951464653015137,0.022252947092056274,-0.015358897857367992,-0.12164945155382156,-7.358506202697754,-1.641359567642212,0.0,-0.0006981316837482154,-0.02373647689819336,-0.19481557607650757
1646249384.4370964,0.42337873578071594,0.022252947092056274,-0.01326450239866972,-0.12461651116609573,-7.372312068939209,-1.641359567642212,0.0,-0.0006981316837482154,-0.02373647689819336,-0.19481557607650757
1646249384.5032995,0.4080389142036438,0.028187068179249763,-0.003839724464341998,-0.1275835633277893,-7.389185905456543,-1.641359567642212,0.0,-0.0006981316837482154,-0.02373647689819336,-0.19328159093856812
1646249384.559991,0.40957289934158325,0.031154127791523933,-0.0027925267349928617,-0.11571533232927322,-7.372312068939209,-1.641359567642212,0.0,-0.0006981316837482154,-0.02373647689819336,-0.19481557607650757
1646249384.6134813,0.4310486316680908,0.031154127791523933,-0.0027925267349928617,-0.09939650446176529,-7.337030410766602,-1.641359567642212,0.0,-0.0006981316837482154,-0.02373647689819336,-0.19634954631328583
1646249384.6741781,0.4494563937187195,0.031154127791523933,-0.009773843921720982,-0.09494590759277344,-7.287943363189697,-1.641359567642212,0.0,-0.0006981316837482154,-0.02373647689819336,-0.19481557607650757
1646249384.7324257,0.45405834913253784,0.031154127791523933,-0.027227137237787247,-0.09494590759277344,-7.258797645568848,-1.641359567642212,0.0,-0.0006981316837482154,-0.02373647689819336,-0.19481557607650757
1646249384.7889237,0.4555923342704773,0.031154127791523933,-0.03874630853533745,-0.13648474216461182,-7.284875392913818,-1.641359567642212,0.0,-0.0006981316837482154,-0.02373647689819336,-0.19634954631328583
1646249384.8460712,0.42031076550483704,0.031154127791523933,-0.06632251292467117,-0.20324359834194183,-7.344700336456299,-1.641359567642212,0.0,-0.0006981316837482154,-0.02373647689819336,-0.19481557607650757
1646249384.905647,0.4019030034542084,0.031154127791523933,-0.11449360102415085,-0.24329890310764313,-7.372312068939209,-1.641359567642212,0.0,-0.0006981316837482154,-0.02373647689819336,-0.19328159093856812
1646249384.961166,0.3850291967391968,0.031154127791523933,-0.17418386042118073,-0.24329890310764313,-7.344700336456299,-1.641359567642212,0.0,-0.0006981316837482154,-0.02373647689819336,-0.19328159093856812
1646249385.0203094,0.36815541982650757,0.022252947092056274,-0.23527038097381592,-0.18395769596099854,-7.268001556396484,-1.641359567642212,0.0,-0.0006981316837482154,-0.02373647689819336,-0.19481557607650757
1646249385.0765743,0.31446608901023865,0.019285887479782104,-0.3061307370662689,-0.1483529806137085,-7.22351598739624,-1.641359567642212,0.0,-0.0006981316837482154,-0.02373647689819336,-0.19481557607650757
1646249385.1319664,0.2577087879180908,0.019285887479782104,-0.35814157128334045,-0.0786270797252655,-7.215846061706543,-1.641359567642212,0.0,-0.0006981316837482154,-0.02373647689819336,-0.19634954631328583
1646249385.1878517,0.23009712994098663,0.02373647689819336,-0.39618974924087524,-0.001483529806137085,-7.1974382400512695,-1.641359567642212,0.0,-0.0006981316837482154,-0.02373647689819336,-0.19788353145122528
1646249385.2440066,0.22242723405361176,0.0489564873278141,-0.4335397779941559,0.03857177495956421,-7.189768314361572,-1.641359567642212,0.0,-0.0006981316837482154,-0.02373647689819336,-0.19481557607650757
1646249385.3041487,0.2208932489156723,0.07417649030685425,-0.469493567943573,0.025220008566975594,-7.208176136016846,-1.6428935527801514,0.0,-0.0006981316837482154,-0.02373647689819336,-0.19328159093856812
1646249385.365323,0.21935926377773285,0.09346237778663635,-0.5106833577156067,0.00593411922454834,-7.217380046844482,-1.641359567642212,0.0,-0.0006981316837482154,-0.02373647689819336,-0.19481557607650757
1646249385.4180777,0.2070874124765396,0.10384709388017654,-0.5619960427284241,-0.014835298992693424,-7.218914031982422,-1.641359567642212,0.0,-0.0006981316837482154,-0.02373647689819336,-0.19634954631328583
1646249385.4775176,0.19481557607650757,0.10978121310472488,-0.6216862797737122,-0.016318827867507935,-7.209710121154785,-1.641359567642212,0.0,-0.0006981316837482154,-0.02373647689819336,-0.19634954631328583
1646249385.5341084,0.18407770991325378,0.11126474291086197,-0.6883578300476074,-0.016318827867507935,-7.206642150878906,-1.641359567642212,0.0,-0.0006981316837482154,-0.02373647689819336,-0.19634954631328583
1646249385.5920472,0.17947576940059662,0.11126474291086197,-0.759916365146637,-0.016318827867507935,-7.19590425491333,-1.641359567642212,0.0,-0.0006981316837482154,-0.02373647689819336,-0.19634954631328583
1646249385.6496243,0.17333984375,0.11126474291086197,-0.8335692286491394,-0.019285887479782104,-7.186700344085693,-1.641359567642212,0.0,-0.0006981316837482154,-0.02373647689819336,-0.19481557607650757
1646249385.7081552,0.1702718734741211,0.11571533232927322,-0.9026842713356018,-0.01186823844909668,-7.1805644035339355,-1.641359567642212,0.0,-0.0006981316837482154,-0.02373647689819336,-0.19481557607650757
1646249385.7657182,0.1702718734741211,0.12313298135995865,-0.968308687210083,0.014835298992693424,-7.182098388671875,-1.641359567642212,0.0,-0.0006981316837482154,-0.02373647689819336,-0.19481557607650757
1646249385.821843,0.17487381398677826,0.13351768255233765,-1.016479730606079,0.05044001713395119,-7.185166358947754,-1.641359567642212,0.0,-0.0006981316837482154,-0.02373647689819336,-0.19481557607650757
1646249385.8784475,0.18100973963737488,0.14093533158302307,-1.0587167739868164,0.12313298135995865,-7.165224552154541,-1.641359567642212,0.0,-0.0006981316837482154,-0.02373647689819336,-0.19634954631328583
1646249385.9394412,0.19174760580062866,0.14538592100143433,-1.0946705341339111,0.21807889640331268,-7.137612819671631,-1.641359567642212,0.0,-0.0006981316837482154,-0.02373647689819336,-0.19634954631328583
1646249385.997602,0.19328159093856812,0.14538592100143433,-1.123642921447754,0.2952224314212799,-7.110001564025879,-1.641359567642212,0.0,-0.0006981316837482154,-0.02373647689819336,-0.19634954631328583
1646249386.0566258,0.18867965042591095,0.14538592100143433,-1.1515682935714722,0.35011303424835205,-7.097729682922363,-1.641359567642212,0.0,-0.0006981316837482154,-0.02373647689819336,-0.19481557607650757
1646249386.1128707,0.17333984375,0.14538592100143433,-1.1739084720611572,0.3456624448299408,-7.111535549163818,-1.641359567642212,0.0,-0.0006981316837482154,-0.02373647689819336,-0.19481557607650757
1646249386.1701202,0.15493206679821014,0.14538592100143433,-1.1906635761260986,0.3056071400642395,-7.131476879119873,-1.641359567642212,0.0,-0.0006981316837482154,-0.02373647689819336,-0.19634954631328583
1646249386.223282,0.13499031960964203,0.14538592100143433,-1.2011356353759766,0.26110124588012695,-7.159088611602783,-1.641359567642212,0.0,-0.0006981316837482154,-0.02373647689819336,-0.19634954631328583
1646249386.3592021,0.11658255010843277,0.14538592100143433,-1.209862232208252,0.2151118367910385,-7.1805644035339355,-1.6428935527801514,0.0,-0.0006981316837482154,-0.02373647689819336,-0.19634954631328583
1646249386.4175053,0.09970875829458237,0.1468694508075714,-1.2175416946411133,0.1780235767364502,-7.198972225189209,-1.6428935527801514,0.0,-0.0006981316837482154,-0.02373647689819336,-0.19634954631328583
1646249386.4703827,0.07669904083013535,0.16467180848121643,-1.2245229482650757,0.14093533158302307,-7.228117942810059,-1.641359567642212,0.0,-0.0006981316837482154,-0.02373647689819336,-0.19634954631328583
1646249386.5264883,0.07209710031747818,0.17505651712417603,-1.2245229482650757,0.14093533158302307,-7.234253883361816,-1.641359567642212,0.0,-0.0006981316837482154,-0.02373647689819336,-0.19634954631328583
1646249386.5825908,0.07056312263011932,0.1884082853794098,-1.2238248586654663,0.14093533158302307,-7.238855838775635,-1.641359567642212,0.0,-0.0006981316837482154,-0.02373647689819336,-0.19634954631328583
1646249386.6417794,0.06596117466688156,0.20472712814807892,-1.2199851274490356,0.139451801776886,-7.243457794189453,-1.641359567642212,0.0,-0.0006981316837482154,-0.02373647689819336,-0.19481557607650757
1646249386.69757,0.05368933081626892,0.2165953665971756,-1.214400053024292,0.139451801776886,-7.2480597496032715,-1.641359567642212,0.0,-0.0006981316837482154,-0.02373647689819336,-0.19634954631328583
1646249386.7599654,0.03988350182771683,0.2269800752401352,-1.2091641426086426,0.139451801776886,-7.254195690155029,-1.641359567642212,0.0,-0.0006981316837482154,-0.02373647689819336,-0.19481557607650757
1646249386.8129656,0.030679617077112198,0.23439772427082062,-1.2067205905914307,0.139451801776886,-7.254195690155029,-1.641359567642212,0.0,-0.0006981316837482154,-0.02373647689819336,-0.19481557607650757
1646249386.8720088,0.029145637527108192,0.2373647838830948,-1.2067205905914307,0.14241886138916016,-7.249593734741211,-1.641359567642212,0.0,-0.0006981316837482154,-0.02373647689819336,-0.19481557607650757
1646249386.9286728,0.03528156131505966,0.23884831368923187,-1.2067205905914307,0.1468694508075714,-7.246525764465332,-1.641359567642212,0.0,-0.0006981316837482154,-0.02373647689819336,-0.19634954631328583
1646249386.9894125,0.04448544606566429,0.2447824329137802,-1.2067205905914307,0.15577062964439392,-7.243457794189453,-1.641359567642212,0.0,-0.0006981316837482154,-0.02373647689819336,-0.19481557607650757
1646249387.0479336,0.05062136799097061,0.25071653723716736,-1.2042771577835083,0.16318827867507935,-7.2480597496032715,-1.641359567642212,0.0,-0.0006981316837482154,-0.02373647689819336,-0.19481557607650757
1646249387.1052449,0.04908738657832146,0.2566506564617157,-1.2014846801757812,0.16318827867507935,-7.254195690155029,-1.641359567642212,0.0,-0.0006981316837482154,-0.02373647689819336,-0.19481557607650757
1646249387.1596546,0.04141748324036598,0.25961771607398987,-1.2007864713668823,0.16318827867507935,-7.255729675292969,-1.641359567642212,0.0,-0.0006981316837482154,-0.02373647689819336,-0.19481557607650757
1646249387.226106,0.03374757990241051,0.26110124588012695,-1.2007864713668823,0.16318827867507935,-7.249593734741211,-1.641359567642212,0.0,-0.0006981316837482154,-0.02373647689819336,-0.19481557607650757
1646249387.283794,0.026077674701809883,0.26110124588012695,-1.2007864713668823,0.16318827867507935,-7.2480597496032715,-1.641359567642212,0.0,-0.0006981316837482154,-0.02373647689819336,-0.19634954631328583
1646249387.340343,0.009203885681927204,0.26110124588012695,-1.2007864713668823,0.16170474886894226,-7.260331630706787,-1.641359567642212,0.0,-0.0006981316837482154,-0.02373647689819336,-0.19788353145122528
1646249387.3967927,-0.012271846644580364,0.26110124588012695,-1.2007864713668823,0.1587376892566681,-7.275671482086182,-1.641359567642212,0.0,-0.0006981316837482154,-0.02373647689819336,-0.19634954631328583
1646249387.454713,-0.03988350182771683,0.26110124588012695,-1.2007864713668823,0.1587376892566681,-7.2818074226379395,-1.641359567642212,0.0,-0.0006981316837482154,-0.02373647689819336,-0.19634954631328583
1646249387.5118644,-0.07363108545541763,0.26110124588012695,-1.2007864713668823,0.1587376892566681,-7.277205467224121,-1.6428935527801514,0.0,-0.0006981316837482154,-0.02373647689819336,-0.19634954631328583
1646249387.5679228,-0.10124273598194122,0.26110124588012695,-1.204626202583313,0.15428709983825684,-7.272603511810303,-1.641359567642212,0.0,-0.0006981316837482154,-0.02373647689819336,-0.19634954631328583
1646249387.6298788,-0.12118449062108994,0.2581341862678528,-1.213352918624878,0.14538592100143433,-7.272603511810303,-1.641359567642212,0.0,-0.0006981316837482154,-0.02373647689819336,-0.19634954631328583
1646249387.6826544,-0.13192234933376312,0.2551671266555786,-1.2262682914733887,0.14241886138916016,-7.272603511810303,-1.641359567642212,0.0,-0.0006981316837482154,-0.02373647689819336,-0.19634954631328583
1646249387.7427282,-0.13192234933376312,0.24923302233219147,-1.244419813156128,0.14241886138916016,-7.271069526672363,-1.641359567642212,0.0,-0.0006981316837482154,-0.02373647689819336,-0.19634954631328583
1646249387.7998,-0.12732040882110596,0.24329890310764313,-1.2650146484375,0.1379682719707489,-7.268001556396484,-1.641359567642212,0.0,-0.0006981316837482154,-0.02373647689819336,-0.19634954631328583
1646249387.8542051,-0.1288543939590454,0.23884831368923187,-1.286307692527771,0.13500121235847473,-7.268001556396484,-1.641359567642212,0.0,-0.0006981316837482154,-0.02373647689819336,-0.19481557607650757
1646249387.9132483,-0.13499031960964203,0.23439772427082062,-1.30515718460083,0.13500121235847473,-7.269535541534424,-1.641359567642212,0.0,-0.0006981316837482154,-0.02373647689819336,-0.19481557607650757
1646249387.9694188,-0.14726217091083527,0.2269800752401352,-1.3187707662582397,0.13203415274620056,-7.269535541534424,-1.641359567642212,0.0,-0.0006981316837482154,-0.02373647689819336,-0.19481557607650757
1646249388.0223706,-0.1564660519361496,0.21807889640331268,-1.3306390047073364,0.13203415274620056,-7.272603511810303,-1.641359567642212,0.0,-0.0006981316837482154,-0.02373647689819336,-0.19481557607650757
1646249388.0840154,-0.16260197758674622,0.20472712814807892,-1.3404128551483154,0.13203415274620056,-7.272603511810303,-1.6428935527801514,0.0,-0.0006981316837482154,-0.02373647689819336,-0.19481557607650757
1646249388.1406484,-0.16106799244880676,0.1884082853794098,-1.3501867055892944,0.13203415274620056,-7.269535541534424,-1.641359567642212,0.0,-0.0006981316837482154,-0.02373647689819336,-0.19481557607650757
1646249388.194188,-0.1533980816602707,0.17357298731803894,-1.3599605560302734,0.13203415274620056,-7.272603511810303,-1.641359567642212,0.0,-0.0006981316837482154,-0.02373647689819336,-0.19481557607650757
1646249388.253117,-0.14419420063495636,0.16022121906280518,-1.3679890632629395,0.13203415274620056,-7.272603511810303,-1.641359567642212,0.0,-0.0006981316837482154,-0.02373647689819336,-0.19481557607650757
1646249388.3091736,-0.13805827498435974,0.1483529806137085,-1.3732250928878784,0.13203415274620056,-7.272603511810303,-1.641359567642212,0.0,-0.0006981316837482154,-0.02373647689819336,-0.19481557607650757
1646249388.3710828,-0.13345633447170258,0.13500121235847473,-1.3784610033035278,0.13351768255233765,-7.272603511810303,-1.641359567642212,0.0,-0.0006981316837482154,-0.02373647689819336,-0.19481557607650757
1646249388.4267218,-0.13038837909698486,0.1186823919415474,-1.3857914209365845,0.13351768255233765,-7.272603511810303,-1.641359567642212,0.0,-0.0006981316837482154,-0.02373647689819336,-0.19634954631328583
1646249388.4825497,-0.12732040882110596,0.10088003426790237,-1.394867181777954,0.13351768255233765,-7.266467571258545,-1.641359567642212,0.0,-0.0006981316837482154,-0.02373647689819336,-0.19481557607650757
1646249388.5450356,-0.12425245344638824,0.08307766914367676,-1.4032447338104248,0.13500121235847473,-7.260331630706787,-1.641359567642212,0.0,-0.0006981316837482154,-0.02373647689819336,-0.19481557607650757
1646249388.5998237,-0.12271846830844879,0.06675884127616882,-1.4130185842514038,0.13648474216461182,-7.255729675292969,-1.641359567642212,0.0,-0.0006981316837482154,-0.02373647689819336,-0.19481557607650757
1646249388.6594126,-0.12118449062108994,0.0489564873278141,-1.4248868227005005,0.1379682719707489,-7.25266170501709,-1.641359567642212,0.0,-0.0006981316837482154,-0.02373647689819336,-0.19481557607650757
1646249388.7169116,-0.11965050548315048,0.031154127791523933,-1.4364060163497925,0.139451801776886,-7.249593734741211,-1.641359567642212,0.0,-0.0006981316837482154,-0.02373647689819336,-0.19481557607650757
1646249388.7731154,-0.11198060214519501,0.014835298992693424,-1.4475760459899902,0.1468694508075714,-7.240389823913574,-1.641359567642212,0.0,-0.0006981316837482154,-0.02373647689819336,-0.19634954631328583
1646249388.8271396,-0.09817477315664291,0.00296705961227417,-1.4573498964309692,0.16170474886894226,-7.2311859130859375,-1.641359567642212,0.0,-0.0006981316837482154,-0.02373647689819336,-0.19634954631328583
1646249388.8988035,-0.07209710031747818,-0.00593411922454834,-1.4664256572723389,0.17357298731803894,-7.221982002258301,-1.641359567642212,0.0,-0.0006981316837482154,-0.02373647689819336,-0.19481557607650757
1646249388.9554706,-0.03988350182771683,-0.01186823844909668,-1.472708821296692,0.17208945751190186,-7.212778091430664,-1.641359567642212,0.0,-0.0006981316837482154,-0.02373647689819336,-0.19481557607650757
1646249389.0126436,0.004601942840963602,-0.014835298992693424,-1.4779448509216309,0.17208945751190186,-7.202040195465088,-1.641359567642212,0.0,-0.0006981316837482154,-0.02373647689819336,-0.19481557607650757
1646249389.0693007,0.04295146465301514,-0.016318827867507935,-1.4793410301208496,0.17357298731803894,-7.19590425491333,-1.641359567642212,0.0,-0.0006981316837482154,-0.02373647689819336,-0.19481557607650757
1646249389.12962,0.08436895161867142,-0.016318827867507935,-1.4793410301208496,0.17950710654258728,-7.194370269775391,-1.641359567642212,0.0,-0.0006981316837482154,-0.02373647689819336,-0.19481557607650757
1646249389.19501,0.13038837909698486,-0.016318827867507935,-1.4793410301208496,0.18099063634872437,-7.203574180603027,-1.641359567642212,0.0,-0.0006981316837482154,-0.02373647689819336,-0.19481557607650757
1646249389.2510688,0.18254372477531433,-0.016318827867507935,-1.4775956869125366,0.18099063634872437,-7.212778091430664,-1.641359567642212,0.0,-0.0006981316837482154,-0.02373647689819336,-0.19481557607650757
1646249389.31004,0.24083499610424042,-0.010384708642959595,-1.4744541645050049,0.18395769596099854,-7.22504997253418,-1.641359567642212,0.0,-0.0006981316837482154,-0.02373647689819336,-0.19481557607650757
1646249389.3661783,0.28685441613197327,-0.00593411922454834,-1.470963478088379,0.18989181518554688,-7.237321853637695,-1.641359567642212,0.0,-0.0006981316837482154,-0.02373647689819336,-0.19481557607650757
1646249389.4205172,0.3298058807849884,-0.001483529806137085,-1.4660766124725342,0.18989181518554688,-7.255729675292969,-1.641359567642212,0.0,-0.0006981316837482154,-0.02373647689819336,-0.19481557607650757
1646249389.4797251,0.369689404964447,0.001483529806137085,-1.4618878364562988,0.1958259493112564,-7.2649335861206055,-1.641359567642212,0.0,-0.0006981316837482154,-0.02373647689819336,-0.19481557607650757
1646249389.5358975,0.4080389142036438,0.00296705961227417,-1.4597933292388916,0.20324359834194183,-7.266467571258545,-1.641359567642212,0.0,-0.0006981316837482154,-0.02373647689819336,-0.19481557607650757
1646249389.595759,0.4448544681072235,0.004450589418411255,-1.4597933292388916,0.206210657954216,-7.260331630706787,-1.641359567642212,0.0,-0.0006981316837482154,-0.02373647689819336,-0.19481557607650757
1646249389.6516654,0.48166999220848083,0.007417649496346712,-1.4597933292388916,0.21807889640331268,-7.2480597496032715,-1.641359567642212,0.0,-0.0006981316837482154,-0.02373647689819336,-0.19481557607650757
1646249389.718045,0.5138835906982422,0.010384708642959595,-1.4590952396392822,0.22994713485240936,-7.237321853637695,-1.641359567642212,0.0,-0.0006981316837482154,-0.02373647689819336,-0.19481557607650757
1646249389.7711043,0.543029248714447,0.01335176918655634,-1.4583971500396729,0.23439772427082062,-7.226583957672119,-1.641359567642212,0.0,-0.0006981316837482154,-0.02373647689819336,-0.19481557607650757
1646249389.8321116,0.5599030256271362,0.014835298992693424,-1.4580481052398682,0.24329890310764313,-7.260331630706787,-1.641359567642212,0.0,-0.0006981316837482154,-0.02373647689819336,-0.19328159093856812
1646249389.8887918,0.566038966178894,0.014835298992693424,-1.4611896276474,0.24329890310764313,-7.271069526672363,-1.641359567642212,0.0,-0.0006981316837482154,-0.02373647689819336,-0.19328159093856812
1646249389.9445074,0.5721748471260071,0.014835298992693424,-1.4653784036636353,0.28038713335990906,-7.266467571258545,-1.641359567642212,0.0,-0.0006981316837482154,-0.02373647689819336,-0.19481557607650757
1646249390.0005283,0.5813787579536438,0.014835298992693424,-1.4699163436889648,0.29077184200286865,-7.25266170501709,-1.641359567642212,0.0,-0.0006981316837482154,-0.02373647689819336,-0.19481557607650757
1646249390.0568943,0.5921165943145752,0.014835298992693424,-1.4730578660964966,0.29077184200286865,-7.254195690155029,-1.6428935527801514,0.0,-0.0006981316837482154,-0.02373647689819336,-0.19481557607650757
1646249390.1136787,0.5967185497283936,0.016318827867507935,-1.4734069108963013,0.29077184200286865,-7.257263660430908,-1.641359567642212,0.0,-0.0006981316837482154,-0.02373647689819336,-0.19328159093856812
1646249390.1694536,0.5967185497283936,0.01780235767364502,-1.4734069108963013,0.29077184200286865,-7.263399600982666,-1.641359567642212,0.0,-0.0006981316837482154,-0.02373647689819336,-0.19481557607650757
1646249390.22268,0.5967185497283936,0.019285887479782104,-1.4734069108963013,0.2878047823905945,-7.269535541534424,-1.641359567642212,0.0,-0.0006981316837482154,-0.02373647689819336,-0.19481557607650757
1646249390.279109,0.5951845645904541,0.022252947092056274,-1.4734069108963013,0.2863212525844574,-7.274137496948242,-1.641359567642212,0.0,-0.0006981316837482154,-0.02373647689819336,-0.19481557607650757
1646249390.3404956,0.598252534866333,0.02670353837311268,-1.4734069108963013,0.2848377227783203,-7.275671482086182,-1.641359567642212,0.0,-0.0006981316837482154,-0.02373647689819336,-0.19481557607650757
1646249390.3941932,0.6043884754180908,0.031154127791523933,-1.4734069108963013,0.2848377227783203,-7.277205467224121,-1.641359567642212,0.0,-0.0006981316837482154,-0.02373647689819336,-0.19481557607650757
1646249390.4503644,0.6089904308319092,0.03263765573501587,-1.472708821296692,0.2848377227783203,-7.277205467224121,-1.641359567642212,0.0,-0.0006981316837482154,-0.02373647689819336,-0.19481557607650757
1646249390.5097582,0.6105244159698486,0.03263765573501587,-1.472708821296692,0.28928831219673157,-7.277205467224121,-1.641359567642212,0.0,-0.0006981316837482154,-0.02373647689819336,-0.19481557607650757
1646249390.5695133,0.6089904308319092,0.03263765573501587,-1.472708821296692,0.2937389016151428,-7.274137496948242,-1.641359567642212,0.0,-0.0006981316837482154,-0.02373647689819336,-0.19328159093856812
1646249390.6228495,0.6059224605560303,0.03263765573501587,-1.472708821296692,0.2952224314212799,-7.269535541534424,-1.641359567642212,0.0,-0.0006981316837482154,-0.02373647689819336,-0.19328159093856812
1646249390.685523,0.5967185497283936,0.03263765573501587,-1.472708821296692,0.2952224314212799,-7.269535541534424,-1.641359567642212,0.0,-0.0006981316837482154,-0.02373647689819336,-0.19481557607650757
1646249390.7425714,0.5829127430915833,0.03263765573501587,-1.472708821296692,0.2952224314212799,-7.274137496948242,-1.641359567642212,0.0,-0.0006981316837482154,-0.02373647689819336,-0.19481557607650757
1646249390.795862,0.5645049810409546,0.03263765573501587,-1.4702653884887695,0.29225537180900574,-7.277205467224121,-1.641359567642212,0.0,-0.0006981316837482154,-0.02373647689819336,-0.19481557607650757
1646249390.8600328,0.5399612784385681,0.03263765573501587,-1.4667747020721436,0.2863212525844574,-7.2802734375,-1.641359567642212,0.0,-0.0006981316837482154,-0.02373647689819336,-0.19328159093856812
1646249390.9133213,0.5092816352844238,0.03263765573501587,-1.462934970855713,0.2759365439414978,-7.286409378051758,-1.641359567642212,0.0,-0.0006981316837482154,-0.02373647689819336,-0.19328159093856812
1646249390.97324,0.4663302004337311,0.03263765573501587,-1.4601424932479858,0.2655518352985382,-7.291011333465576,-1.641359567642212,0.0,-0.0006981316837482154,-0.02373647689819336,-0.19328159093856812
1646249391.0291078,0.424912691116333,0.03263765573501587,-1.4601424932479858,0.25961771607398987,-7.294078826904297,-1.641359567642212,0.0,-0.0006981316837482154,-0.02373647689819336,-0.19328159093856812
1646249391.0879962,0.37889328598976135,0.03263765573501587,-1.4601424932479858,0.2566506564617157,-7.298680782318115,-1.641359567642212,0.0,-0.0006981316837482154,-0.02373647689819336,-0.19481557607650757
1646249391.1441078,0.3359418213367462,0.03263765573501587,-1.4601424932479858,0.25220006704330444,-7.301748752593994,-1.641359567642212,0.0,-0.0006981316837482154,-0.02373647689819336,-0.19481557607650757
1646249391.1979434,0.2899223864078522,0.03263765573501587,-1.462934970855713,0.25220006704330444,-7.304816722869873,-1.641359567642212,0.0,-0.0006981316837482154,-0.02373647689819336,-0.19481557607650757
1646249391.2605417,0.24390296638011932,0.03263765573501587,-1.4664256572723389,0.25071653723716736,-7.307884693145752,-1.641359567642212,0.0,-0.0006981316837482154,-0.02373647689819336,-0.19328159093856812
1646249391.318593,0.19174760580062866,0.031154127791523933,-1.4699163436889648,0.24774949252605438,-7.31248664855957,-1.641359567642212,0.0,-0.0006981316837482154,-0.02373647689819336,-0.19481557607650757
1646249391.3725057,0.13345633447170258,0.031154127791523933,-1.4702653884887695,0.24329890310764313,-7.317088603973389,-1.641359567642212,0.0,-0.0006981316837482154,-0.02373647689819336,-0.19481557607650757
1646249391.4322062,0.07056312263011932,0.031154127791523933,-1.4702653884887695,0.24329890310764313,-7.327826499938965,-1.641359567642212,0.0,-0.0006981316837482154,-0.02373647689819336,-0.19481557607650757
1646249391.4895616,0.0015339808305725455,0.031154127791523933,-1.4702653884887695,0.22846360504627228,-7.347768306732178,-1.641359567642212,0.0,-0.0006981316837482154,-0.02373647689819336,-0.19481557607650757
1646249391.5494277,-0.06902913749217987,0.031154127791523933,-1.4720107316970825,0.2076941877603531,-7.361574172973633,-1.641359567642212,0.0,-0.0006981316837482154,-0.02373647689819336,-0.19481557607650757
1646249391.603387,-0.1395922601222992,0.031154127791523933,-1.4744541645050049,0.20027653872966766,-7.375380039215088,-1.641359567642212,0.0,-0.0006981316837482154,-0.02373647689819336,-0.19481557607650757
1646249391.66443,-0.2040194571018219,0.03263765573501587,-1.4793410301208496,0.19879300892353058,-7.384583950042725,-1.641359567642212,0.0,-0.0006981316837482154,-0.02373647689819336,-0.19481557607650757
1646249391.721515,-0.2577087879180908,0.04153883457183838,-1.4849261045455933,0.19285888969898224,-7.390719890594482,-1.641359567642212,0.0,-0.0006981316837482154,-0.02373647689819336,-0.19481557607650757
1646249391.7779841,-0.3067961633205414,0.05192354694008827,-1.4912092685699463,0.18395769596099854,-7.39685583114624,-1.641359567642212,0.0,-0.0006981316837482154,-0.02373647689819336,-0.19481557607650757
1646249391.8339727,-0.3543495833873749,0.06082472577691078,-1.4936528205871582,0.17950710654258728,-7.401457786560059,-1.641359567642212,0.0,-0.0006981316837482154,-0.02373647689819336,-0.19481557607650757
1646249391.889977,-0.40343695878982544,0.069725900888443,-1.4936528205871582,0.17950710654258728,-7.410661697387695,-1.641359567642212,0.0,-0.0006981316837482154,-0.02373647689819336,-0.19481557607650757
1646249391.948252,-0.44332048296928406,0.07714354991912842,-1.494001865386963,0.17950710654258728,-7.419865608215332,-1.641359567642212,0.0,-0.0006981316837482154,-0.02373647689819336,-0.19481557607650757
1646249392.004515,-0.4755340814590454,0.08159413933753967,-1.494001865386963,0.17950710654258728,-7.42600154876709,-1.641359567642212,0.0,-0.0006981316837482154,-0.02373647689819336,-0.19481557607650757
1646249392.0607822,-0.5000777840614319,0.08307766914367676,-1.495048999786377,0.17950710654258728,-7.435205459594727,-1.641359567642212,0.0,-0.0006981316837482154,-0.02373647689819336,-0.19481557607650757
1646249392.1166136,-0.5246214866638184,0.08456119894981384,-1.4971433877944946,0.1780235767364502,-7.449011325836182,-1.641359567642212,0.0,-0.0006981316837482154,-0.02373647689819336,-0.19481557607650757
1646249392.1832478,-0.5399612784385681,0.08752825856208801,-1.4981906414031982,0.1780235767364502,-7.456681251525879,-1.641359567642212,0.0,-0.0006981316837482154,-0.02373647689819336,-0.19481557607650757
1646249392.2410388,-0.5460972189903259,0.09049531817436218,-1.4981906414031982,0.1780235767364502,-7.459749221801758,-1.641359567642212,0.0,-0.0006981316837482154,-0.02373647689819336,-0.19328159093856812
1646249392.2970836,-0.5414952635765076,0.09049531817436218,-1.498539686203003,0.1780235767364502,-7.456681251525879,-1.641359567642212,0.0,-0.0006981316837482154,-0.02373647689819336,-0.19328159093856812
1646249392.3593369,-0.5230875015258789,0.09049531817436218,-1.4988887310028076,0.18247416615486145,-7.449011325836182,-1.641359567642212,0.0,-0.0006981316837482154,-0.02373647689819336,-0.19481557607650757
1646249392.4159162,-0.5016117691993713,0.09346237778663635,-1.4988887310028076,0.18247416615486145,-7.449011325836182,-1.641359567642212,0.0,-0.0006981316837482154,-0.02373647689819336,-0.19481557607650757
1646249392.4724116,-0.47093212604522705,0.0979129746556282,-1.4988887310028076,0.18247416615486145,-7.444409370422363,-1.641359567642212,0.0,-0.0006981316837482154,-0.02373647689819336,-0.19328159093856812
1646249392.533139,-0.43718454241752625,0.10088003426790237,-1.4988887310028076,0.18395769596099854,-7.436739444732666,-1.641359567642212,0.0,-0.0006981316837482154,-0.02373647689819336,-0.19328159093856812
1646249392.5968215,-0.39576706290245056,0.10533062368631363,-1.4988887310028076,0.1869247555732727,-7.430603504180908,-1.641359567642212,0.0,-0.0006981316837482154,-0.02373647689819336,-0.19481557607650757
1646249392.6510777,-0.3497476279735565,0.11126474291086197,-1.498539686203003,0.1884082853794098,-7.429069519042969,-1.641359567642212,0.0,-0.0006981316837482154,-0.02373647689819336,-0.19481557607650757
1646249392.7105856,-0.2929903566837311,0.11423180252313614,-1.4981906414031982,0.19285888969898224,-7.419865608215332,-1.641359567642212,0.0,-0.0006981316837482154,-0.02373647689819336,-0.19481557607650757
1646249392.7646446,-0.24390296638011932,0.11571533232927322,-1.4981906414031982,0.1973094791173935,-7.412195682525635,-1.641359567642212,0.0,-0.0006981316837482154,-0.02373647689819336,-0.19481557607650757
1646249392.8247457,-0.19481557607650757,0.1186823919415474,-1.4964452981948853,0.20324359834194183,-7.406059741973877,-1.641359567642212,0.0,-0.0006981316837482154,-0.02373647689819336,-0.19481557607650757
1646249392.8814502,-0.14419420063495636,0.1186823919415474,-1.4960962533950806,0.20472712814807892,-7.4045257568359375,-1.641359567642212,0.0,-0.0006981316837482154,-0.02373647689819336,-0.19328159093856812
1646249392.9355454,-0.09203885495662689,0.1186823919415474,-1.4960962533950806,0.20472712814807892,-7.402991771697998,-1.641359567642212,0.0,-0.0006981316837482154,-0.02373647689819336,-0.19481557607650757
1646249392.9948297,-0.04141748324036598,0.1186823919415474,-1.4960962533950806,0.21066124737262726,-7.39685583114624,-1.641359567642212,0.0,-0.0006981316837482154,-0.02373647689819336,-0.19481557607650757
1646249393.0513852,0.0076699042692780495,0.1186823919415474,-1.4957472085952759,0.21807889640331268,-7.393787860870361,-1.641359567642212,0.0,-0.0006981316837482154,-0.02373647689819336,-0.19481557607650757
1646249393.1113298,0.0475534088909626,0.1186823919415474,-1.4957472085952759,0.22104595601558685,-7.390719890594482,-1.641359567642212,0.0,-0.0006981316837482154,-0.02373647689819336,-0.19481557607650757
1646249393.1681387,0.08743690699338913,0.1186823919415474,-1.4957472085952759,0.22104595601558685,-7.390719890594482,-1.641359567642212,0.0,-0.0006981316837482154,-0.02373647689819336,-0.19481557607650757
1646249393.2261643,0.13038837909698486,0.12313298135995865,-1.4957472085952759,0.22104595601558685,-7.390719890594482,-1.641359567642212,0.0,-0.0006981316837482154,-0.02373647689819336,-0.19481557607650757
1646249393.282686,0.1702718734741211,0.1290670931339264,-1.4946999549865723,0.22104595601558685,-7.389185905456543,-1.641359567642212,0.0,-0.0006981316837482154,-0.02373647689819336,-0.19328159093856812
1646249393.3391554,0.21015538275241852,0.13500121235847473,-1.4936528205871582,0.22104595601558685,-7.3876519203186035,-1.641359567642212,0.0,-0.0006981316837482154,-0.02373647689819336,-0.19328159093856812
1646249393.3970094,0.2485049068927765,0.14093533158302307,-1.4926055669784546,0.22104595601558685,-7.381515979766846,-1.641359567642212,0.0,-0.0006981316837482154,-0.02373647689819336,-0.19481557607650757
1646249393.4533813,0.2853204309940338,0.14390239119529724,-1.4926055669784546,0.22401301562786102,-7.375380039215088,-1.641359567642212,0.0,-0.0006981316837482154,-0.02373647689819336,-0.19481557607650757
1646249393.506859,0.3160000741481781,0.14390239119529724,-1.4915584325790405,0.22401301562786102,-7.36924409866333,-1.641359567642212,0.0,-0.0006981316837482154,-0.02373647689819336,-0.19328159093856812
1646249393.5636578,0.3359418213367462,0.14390239119529724,-1.4908602237701416,0.2269800752401352,-7.36924409866333,-1.641359567642212,0.0,-0.0006981316837482154,-0.02373647689819336,-0.19481557607650757
1646249393.6318734,0.3497476279735565,0.14390239119529724,-1.4880677461624146,0.2269800752401352,-7.373846054077148,-1.641359567642212,0.0,-0.0006981316837482154,-0.02373647689819336,-0.19481557607650757
1646249393.6932435,0.3666214346885681,0.14390239119529724,-1.485275149345398,0.2269800752401352,-7.378448009490967,-1.641359567642212,0.0,-0.0006981316837482154,-0.02373647689819336,-0.19481557607650757
1646249393.7496572,0.3942330777645111,0.14390239119529724,-1.485275149345398,0.2269800752401352,-7.375380039215088,-1.641359567642212,0.0,-0.0006981316837482154,-0.02373647689819336,-0.19328159093856812
1646249393.8031569,0.42337873578071594,0.14390239119529724,-1.485275149345398,0.2269800752401352,-7.367710113525391,-1.641359567642212,0.0,-0.0006981316837482154,-0.02373647689819336,-0.19481557607650757
1646249393.8613725,0.45099037885665894,0.1468694508075714,-1.485275149345398,0.23884831368923187,-7.361574172973633,-1.641359567642212,0.0,-0.0006981316837482154,-0.02373647689819336,-0.19634954631328583
1646249393.9172785,0.4755340814590454,0.1483529806137085,-1.485275149345398,0.2551671266555786,-7.358506202697754,-1.641359567642212,0.0,-0.0006981316837482154,-0.02373647689819336,-0.19634954631328583
1646249393.9762726,0.4954758286476135,0.14983651041984558,-1.485275149345398,0.2655518352985382,-7.3539042472839355,-1.641359567642212,0.0,-0.0006981316837482154,-0.02373647689819336,-0.19328159093856812
1646249394.03494,0.5108156204223633,0.14983651041984558,-1.4859733581542969,0.27000242471694946,-7.349302291870117,-1.641359567642212,0.0,-0.0006981316837482154,-0.02373647689819336,-0.19328159093856812
1646249394.0877304,0.5230875015258789,0.14983651041984558,-1.487020492553711,0.27000242471694946,-7.346234321594238,-1.641359567642212,0.0,-0.0006981316837482154,-0.02373647689819336,-0.19328159093856812
1646249394.1435337,0.5338253378868103,0.14983651041984558,-1.4873695373535156,0.27000242471694946,-7.344700336456299,-1.641359567642212,0.0,-0.0006981316837482154,-0.02373647689819336,-0.19481557607650757
1646249394.206315,0.5414952635765076,0.14983651041984558,-1.4873695373535156,0.27000242471694946,-7.346234321594238,-1.6428935527801514,0.0,-0.0006981316837482154,-0.02373647689819336,-0.19481557607650757
1646249394.2666523,0.5491651296615601,0.14983651041984558,-1.4873695373535156,0.27148595452308655,-7.344700336456299,-1.641359567642212,0.0,-0.0006981316837482154,-0.02373647689819336,-0.19634954631328583
1646249394.3229706,0.5568350553512573,0.14983651041984558,-1.4877187013626099,0.2759365439414978,-7.343166351318359,-1.641359567642212,0.0,-0.0006981316837482154,-0.02373647689819336,-0.19634954631328583
1646249394.3754945,0.5614370107650757,0.14983651041984558,-1.4877187013626099,0.278903603553772,-7.3400983810424805,-1.641359567642212,0.0,-0.0006981316837482154,-0.02373647689819336,-0.19481557607650757
1646249394.4384904,0.5599030256271362,0.14983651041984558,-1.4877187013626099,0.28038713335990906,-7.3400983810424805,-1.641359567642212,0.0,-0.0006981316837482154,-0.02373647689819336,-0.19481557607650757
1646249394.4923656,0.5491651296615601,0.1483529806137085,-1.4877187013626099,0.28038713335990906,-7.3400983810424805,-1.641359567642212,0.0,-0.0006981316837482154,-0.02373647689819336,-0.19328159093856812
1646249394.5515313,0.5276893973350525,0.14390239119529724,-1.4877187013626099,0.28038713335990906,-7.34163236618042,-1.641359567642212,0.0,-0.0006981316837482154,-0.02373647689819336,-0.19328159093856812
1646249394.6088264,0.49854379892349243,0.139451801776886,-1.4877187013626099,0.28038713335990906,-7.338564395904541,-1.641359567642212,0.0,-0.0006981316837482154,-0.02373647689819336,-0.19481557607650757
1646249394.6645877,0.4617282450199127,0.13203415274620056,-1.4873695373535156,0.2774200737476349,-7.330894470214844,-1.641359567642212,0.0,-0.0006981316837482154,-0.02373647689819336,-0.19481557607650757
1646249394.7200475,0.4111068844795227,0.12610003352165222,-1.4859733581542969,0.27000242471694946,-7.327826499938965,-1.641359567642212,0.0,-0.0006981316837482154,-0.02373647689819336,-0.19481557607650757
1646249394.7797105,0.36201947927474976,0.12016592174768448,-1.4859733581542969,0.2447824329137802,-7.343166351318359,-1.641359567642212,0.0,-0.0006981316837482154,-0.02373647689819336,-0.19328159093856812
1646249394.8347738,0.3129321038722992,0.11719886213541031,-1.4859733581542969,0.21066124737262726,-7.3707780838012695,-1.6428935527801514,0.0,-0.0006981316837482154,-0.02373647689819336,-0.19328159093856812
1646249394.8906662,0.26691266894340515,0.11571533232927322,-1.4863224029541016,0.18989181518554688,-7.392253875732422,-1.6428935527801514,0.0,-0.0006981316837482154,-0.02373647689819336,-0.19328159093856812
1646249394.9515707,0.22242723405361176,0.11423180252313614,-1.4863224029541016,0.18544122576713562,-7.401457786560059,-1.6428935527801514,0.0,-0.0006981316837482154,-0.02373647689819336,-0.19481557607650757
1646249395.010699,0.17794178426265717,0.11126474291086197,-1.4863224029541016,0.18395769596099854,-7.401457786560059,-1.641359567642212,0.0,-0.0006981316837482154,-0.02373647689819336,-0.19481557607650757
1646249395.0640628,0.12732040882110596,0.1082976832985878,-1.4863224029541016,0.18395769596099854,-7.4045257568359375,-1.641359567642212,0.0,-0.0006981316837482154,-0.02373647689819336,-0.19481557607650757
1646249395.1199594,0.07363108545541763,0.10681415349245071,-1.4863224029541016,0.18247416615486145,-7.413729667663574,-1.641359567642212,0.0,-0.0006981316837482154,-0.02373647689819336,-0.19634954631328583
1646249395.1956155,0.02147573232650757,0.10533062368631363,-1.4863224029541016,0.17357298731803894,-7.422933578491211,-1.641359567642212,0.0,-0.0006981316837482154,-0.02373647689819336,-0.19481557607650757
1646249395.2450023,-0.03221359848976135,0.10533062368631363,-1.4894639253616333,0.16318827867507935,-7.430603504180908,-1.6428935527801514,0.0,-0.0006981316837482154,-0.02373647689819336,-0.19328159093856812
1646249395.3039353,-0.09817477315664291,0.10533062368631363,-1.493303656578064,0.15428709983825684,-7.435205459594727,-1.6428935527801514,0.0,-0.0006981316837482154,-0.02373647689819336,-0.19481557607650757
1646249395.3610926,-0.1457281857728958,0.10533062368631363,-1.4957472085952759,0.15428709983825684,-7.4382734298706055,-1.6428935527801514,0.0,-0.0006981316837482154,-0.02373647689819336,-0.19634954631328583
1646249395.4210722,-0.1902136355638504,0.10533062368631363,-1.498539686203003,0.15132004022598267,-7.441341400146484,-1.6428935527801514,0.0,-0.0006981316837482154,-0.02373647689819336,-0.19481557607650757
1646249395.4772272,-0.23009712994098663,0.10533062368631363,-1.50133216381073,0.14538592100143433,-7.441341400146484,-1.641359567642212,0.0,-0.0006981316837482154,-0.02373647689819336,-0.19481557607650757
1646249395.5354047,-0.26384469866752625,0.10533062368631363,-1.5027284622192383,0.14538592100143433,-7.444409370422363,-1.641359567642212,0.0,-0.0006981316837482154,-0.02373647689819336,-0.19481557607650757
1646249395.59144,-0.29452434182167053,0.10533062368631363,-1.5027284622192383,0.14538592100143433,-7.445943355560303,-1.641359567642212,0.0,-0.0006981316837482154,-0.02373647689819336,-0.19328159093856812
1646249395.6483507,-0.3190680146217346,0.10533062368631363,-1.5027284622192383,0.14538592100143433,-7.447477340698242,-1.641359567642212,0.0,-0.0006981316837482154,-0.02373647689819336,-0.19481557607650757
1646249395.7096438,-0.33747580647468567,0.10533062368631363,-1.5027284622192383,0.14538592100143433,-7.450545310974121,-1.641359567642212,0.0,-0.0006981316837482154,-0.02373647689819336,-0.19481557607650757
1646249395.7627525,-0.3497476279735565,0.10533062368631363,-1.5027284622192383,0.14538592100143433,-7.450545310974121,-1.641359567642212,0.0,-0.0006981316837482154,-0.02373647689819336,-0.19481557607650757
1646249395.8186758,-0.3604854941368103,0.10533062368631363,-1.5027284622192383,0.14538592100143433,-7.450545310974121,-1.641359567642212,0.0,-0.0006981316837482154,-0.02373647689819336,-0.19481557607650757
1646249395.8780951,-0.37275734543800354,0.10384709388017654,-1.5027284622192383,0.14538592100143433,-7.449011325836182,-1.6428935527801514,0.0,-0.0006981316837482154,-0.02373647689819336,-0.19481557607650757
1646249395.93188,-0.3834952116012573,0.10236356407403946,-1.5027284622192383,0.14538592100143433,-7.449011325836182,-1.6428935527801514,0.0,-0.0006981316837482154,-0.02373647689819336,-0.19328159093856812
1646249395.9911168,-0.39576706290245056,0.10236356407403946,-1.5027284622192383,0.14538592100143433,-7.449011325836182,-1.641359567642212,0.0,-0.0006981316837482154,-0.02373647689819336,-0.19481557607650757
1646249396.0479167,-0.4049709439277649,0.10088003426790237,-1.5027284622192383,0.14538592100143433,-7.447477340698242,-1.641359567642212,0.0,-0.0006981316837482154,-0.02373647689819336,-0.19481557607650757
1646249396.1023195,-0.4111068844795227,0.10088003426790237,-1.5027284622192383,0.14538592100143433,-7.447477340698242,-1.641359567642212,0.0,-0.0006981316837482154,-0.02373647689819336,-0.19481557607650757
1646249396.1676013,-0.41264086961746216,0.10088003426790237,-1.5027284622192383,0.14538592100143433,-7.447477340698242,-1.641359567642212,0.0,-0.0006981316837482154,-0.02373647689819336,-0.19481557607650757
1646249396.2463923,-0.41264086961746216,0.10088003426790237,-1.5027284622192383,0.14538592100143433,-7.444409370422363,-1.641359567642212,0.0,-0.0006981316837482154,-0.02373647689819336,-0.19481557607650757
1646249396.3066633,-0.4141748249530792,0.10088003426790237,-1.5027284622192383,0.14538592100143433,-7.441341400146484,-1.641359567642212,0.0,-0.0006981316837482154,-0.02373647689819336,-0.19481557607650757
1646249396.3651898,-0.4157088100910187,0.10088003426790237,-1.5027284622192383,0.14538592100143433,-7.435205459594727,-1.6428935527801514,0.0,-0.0006981316837482154,-0.02373647689819336,-0.19481557607650757
1646249396.4183104,-0.41264086961746216,0.10088003426790237,-1.5027284622192383,0.14538592100143433,-7.433671474456787,-1.641359567642212,0.0,-0.0006981316837482154,-0.02373647689819336,-0.19481557607650757
1646249396.4769044,-0.4019030034542084,0.10088003426790237,-1.5027284622192383,0.14538592100143433,-7.429069519042969,-1.641359567642212,0.0,-0.0006981316837482154,-0.02373647689819336,-0.19481557607650757
1646249396.5407643,-0.3850291967391968,0.10088003426790237,-1.5027284622192383,0.1468694508075714,-7.42446756362915,-1.641359567642212,0.0,-0.0006981316837482154,-0.02373647689819336,-0.19481557607650757
1646249396.597302,-0.3604854941368103,0.10088003426790237,-1.5027284622192383,0.15132004022598267,-7.4213995933532715,-1.641359567642212,0.0,-0.0006981316837482154,-0.02373647689819336,-0.19481557607650757
1646249396.6734362,-0.33440783619880676,0.10088003426790237,-1.5027284622192383,0.1587376892566681,-7.419865608215332,-1.641359567642212,0.0,-0.0006981316837482154,-0.02373647689819336,-0.19481557607650757
1646249396.7337096,-0.3067961633205414,0.09939650446176529,-1.5027284622192383,0.16318827867507935,-7.418331623077393,-1.6428935527801514,0.0,-0.0006981316837482154,-0.02373647689819336,-0.19328159093856812
1646249396.7871637,-0.26691266894340515,0.09939650446176529,-1.5027284622192383,0.16170474886894226,-7.419865608215332,-1.641359567642212,0.0,-0.0006981316837482154,-0.02373647689819336,-0.19481557607650757
1646249396.843053,-0.2346990704536438,0.09939650446176529,-1.5027284622192383,0.16170474886894226,-7.42446756362915,-1.641359567642212,0.0,-0.0006981316837482154,-0.02373647689819336,-0.19481557607650757
1646249396.9076204,-0.2009515017271042,0.09642944484949112,-1.5027284622192383,0.16170474886894226,-7.42600154876709,-1.641359567642212,0.0,-0.0006981316837482154,-0.02373647689819336,-0.19481557607650757
1646249396.9625049,-0.16566993296146393,0.09494590759277344,-1.5027284622192383,0.16318827867507935,-7.42600154876709,-1.641359567642212,0.0,-0.0006981316837482154,-0.02373647689819336,-0.19481557607650757
1646249397.0255284,-0.12118449062108994,0.09346237778663635,-1.5027284622192383,0.16615533828735352,-7.427535533905029,-1.641359567642212,0.0,-0.0006981316837482154,-0.02373647689819336,-0.19481557607650757
1646249397.082504,-0.08436895161867142,0.09346237778663635,-1.5027284622192383,0.17060592770576477,-7.427535533905029,-1.641359567642212,0.0,-0.0006981316837482154,-0.02373647689819336,-0.19481557607650757
1646249397.1359923,-0.04141748324036598,0.09346237778663635,-1.5027284622192383,0.1780235767364502,-7.429069519042969,-1.6428935527801514,0.0,-0.0006981316837482154,-0.02373647689819336,-0.19481557607650757
1646249397.195029,-0.0015339808305725455,0.09346237778663635,-1.5027284622192383,0.17950710654258728,-7.430603504180908,-1.641359567642212,0.0,-0.0006981316837482154,-0.02373647689819336,-0.19481557607650757
1646249397.2512264,0.036815542727708817,0.09346237778663635,-1.5027284622192383,0.17950710654258728,-7.430603504180908,-1.6428935527801514,0.0,-0.0006981316837482154,-0.02373647689819336,-0.19481557607650757
1646249397.304531,0.07363108545541763,0.09346237778663635,-1.5034266710281372,0.18099063634872437,-7.432137489318848,-1.641359567642212,0.0,-0.0006981316837482154,-0.02373647689819336,-0.19481557607650757
1646249397.3634224,0.1089126393198967,0.09346237778663635,-1.5055210590362549,0.18099063634872437,-7.433671474456787,-1.6428935527801514,0.0,-0.0006981316837482154,-0.02373647689819336,-0.19481557607650757
1646249397.4230745,0.1426602154970169,0.09346237778663635,-1.5072662830352783,0.18099063634872437,-7.432137489318848,-1.641359567642212,0.0,-0.0006981316837482154,-0.02373647689819336,-0.19481557607650757
1646249397.4761329,0.17487381398677826,0.09346237778663635,-1.5086625814437866,0.18099063634872437,-7.432137489318848,-1.641359567642212,0.0,-0.0006981316837482154,-0.02373647689819336,-0.19328159093856812
1646249397.5379508,0.20862139761447906,0.09346237778663635,-1.5093607902526855,0.18099063634872437,-7.432137489318848,-1.6428935527801514,0.0,-0.0006981316837482154,-0.02373647689819336,-0.19481557607650757
1646249397.5945554,0.2377670407295227,0.09346237778663635,-1.5097098350524902,0.18099063634872437,-7.432137489318848,-1.641359567642212,0.0,-0.0006981316837482154,-0.02373647689819336,-0.19481557607650757
1646249397.6553519,0.26384469866752625,0.09346237778663635,-1.510058879852295,0.18099063634872437,-7.432137489318848,-1.6428935527801514,0.0,-0.0006981316837482154,-0.02373647689819336,-0.19481557607650757
1646249397.7120194,0.2883884012699127,0.09346237778663635,-1.510058879852295,0.18544122576713562,-7.430603504180908,-1.641359567642212,0.0,-0.0006981316837482154,-0.02373647689819336,-0.19481557607650757
1646249397.7651443,0.31446608901023865,0.09346237778663635,-1.510058879852295,0.19285888969898224,-7.430603504180908,-1.641359567642212,0.0,-0.0006981316837482154,-0.02373647689819336,-0.19481557607650757
1646249397.8252535,0.33747580647468567,0.09346237778663635,-1.510058879852295,0.1973094791173935,-7.429069519042969,-1.641359567642212,0.0,-0.0006981316837482154,-0.02373647689819336,-0.19481557607650757
1646249397.9020815,0.35895153880119324,0.09346237778663635,-1.510058879852295,0.20176006853580475,-7.427535533905029,-1.6428935527801514,0.0,-0.0006981316837482154,-0.02373647689819336,-0.19481557607650757
1646249397.9562986,0.37889328598976135,0.09346237778663635,-1.510058879852295,0.206210657954216,-7.42600154876709,-1.641359567642212,0.0,-0.0006981316837482154,-0.02373647689819336,-0.19481557607650757
1646249398.0091584,0.39883503317832947,0.09346237778663635,-1.510058879852295,0.2151118367910385,-7.422933578491211,-1.641359567642212,0.0,-0.0006981316837482154,-0.02373647689819336,-0.19481557607650757
1646249398.0693157,0.41264086961746216,0.09346237778663635,-1.510058879852295,0.22104595601558685,-7.4213995933532715,-1.641359567642212,0.0,-0.0006981316837482154,-0.02373647689819336,-0.19328159093856812
1646249398.1227899,0.42337873578071594,0.09494590759277344,-1.510058879852295,0.2254965454339981,-7.4213995933532715,-1.641359567642212,0.0,-0.0006981316837482154,-0.02373647689819336,-0.19481557607650757
1646249398.1816943,0.4325826168060303,0.09494590759277344,-1.510058879852295,0.23143066465854645,-7.419865608215332,-1.641359567642212,0.0,-0.0006981316837482154,-0.02373647689819336,-0.19481557607650757
1646249399.2761457,0.4417864978313446,0.09494590759277344,-1.5104079246520996,0.2373647838830948,-7.416797637939453,-1.641359567642212,0.0,-0.0006981316837482154,-0.02373647689819336,-0.19481557607650757
1646249399.3287716,0.44792240858078003,0.09494590759277344,-1.5107569694519043,0.24329890310764313,-7.415263652801514,-1.641359567642212,0.0,-0.0006981316837482154,-0.02373647689819336,-0.19481557607650757
1646249399.384618,0.42951464653015137,0.09494590759277344,-1.549154281616211,0.22104595601558685,-7.412195682525635,-1.641359567642212,0.0,-0.0006981316837482154,-0.02373647689819336,-0.19481557607650757
1646249399.4405348,0.4387185275554657,0.09494590759277344,-1.5540411472320557,0.21807889640331268,-7.412195682525635,-1.641359567642212,0.0,-0.0006981316837482154,-0.02373647689819336,-0.19481557607650757
1646249399.4994354,0.44792240858078003,0.09494590759277344,-1.558229923248291,0.21807889640331268,-7.412195682525635,-1.641359567642212,0.0,-0.0006981316837482154,-0.02373647689819336,-0.19481557607650757
1646249399.559348,0.45405834913253784,0.09494590759277344,-1.560673475265503,0.21807889640331268,-7.412195682525635,-1.641359567642212,0.0,-0.0006981316837482154,-0.02373647689819336,-0.19481557607650757
1646249399.6217585,0.4586602747440338,0.09346237778663635,-1.5631169080734253,0.21807889640331268,-7.412195682525635,-1.6428935527801514,0.0,-0.0006981316837482154,-0.02373647689819336,-0.19481557607650757
1646249399.6814387,0.45712628960609436,0.09346237778663635,-1.5707963705062866,0.21214477717876434,-7.412195682525635,-1.641359567642212,0.0,-0.0006981316837482154,-0.02373647689819336,-0.19481557607650757
1646249399.7387428,0.44792240858078003,0.09346237778663635,-1.5903440713882446,0.19137535989284515,-7.412195682525635,-1.641359567642212,0.0,-0.0006981316837482154,-0.02373647689819336,-0.19481557607650757
1646249399.7921062,0.4310486316680908,0.09346237778663635,-1.6130332946777344,0.16615533828735352,-7.412195682525635,-1.641359567642212,0.0,-0.0006981316837482154,-0.02373647689819336,-0.19481557607650757
1646249399.851171,0.40957289934158325,0.09346237778663635,-1.6357225179672241,0.14390239119529724,-7.412195682525635,-1.641359567642212,0.0,-0.0006981316837482154,-0.02373647689819336,-0.19481557607650757
1646249399.9082522,0.38656318187713623,0.0979129746556282,-1.655968427658081,0.13203415274620056,-7.415263652801514,-1.641359567642212,0.0,-0.0006981316837482154,-0.02373647689819336,-0.19481557607650757
1646249399.9612458,0.36508744955062866,0.10533062368631363,-1.6804029941558838,0.11719886213541031,-7.415263652801514,-1.641359567642212,0.0,-0.0006981316837482154,-0.02373647689819336,-0.19481557607650757
1646249400.0206244,0.34821367263793945,0.11126474291086197,-1.7086772918701172,0.09197884798049927,-7.415263652801514,-1.641359567642212,0.0,-0.0006981316837482154,-0.02373647689819336,-0.19481557607650757
1646249400.0741923,0.3359418213367462,0.11274827271699905,-1.7352063655853271,0.06824237108230591,-7.415263652801514,-1.641359567642212,0.0,-0.0006981316837482154,-0.02373647689819336,-0.19634954631328583
1646249400.1471598,0.32520395517349243,0.11274827271699905,-1.7603391408920288,0.05489060655236244,-7.413729667663574,-1.641359567642212,0.0,-0.0006981316837482154,-0.02373647689819336,-0.19481557607650757
1646249400.2939312,0.3190680146217346,0.11274827271699905,-1.7840756177902222,0.04450589418411255,-7.412195682525635,-1.641359567642212,0.0,-0.0006981316837482154,-0.02373647689819336,-0.19481557607650757
1646249400.4248068,0.31139811873435974,0.11274827271699905,-1.813048005104065,0.034121185541152954,-7.409127712249756,-1.641359567642212,0.0,-0.0006981316837482154,-0.02373647689819336,-0.19328159093856812
1646249400.5838861,0.2960582971572876,0.10681415349245071,-1.8626153469085693,0.016318827867507935,-7.399923801422119,-1.6428935527801514,0.0,-0.0006981316837482154,-0.02373647689819336,-0.19481557607650757
1646249400.6915607,0.28378647565841675,0.09939650446176529,-1.884955644607544,-0.007417649496346712,-7.39685583114624,-1.641359567642212,0.0,-0.0006981316837482154,-0.02373647689819336,-0.19481557607650757
1646249400.8306727,0.2761165499687195,0.09346237778663635,-1.873436450958252,-0.00296705961227417,-7.39838981628418,-1.641359567642212,0.0,-0.0006981316837482154,-0.02373647689819336,-0.19481557607650757
1646249400.9685276,0.28071850538253784,0.08307766914367676,-1.8207274675369263,0.03857177495956421,-7.39838981628418,-1.641359567642212,0.0,-0.0006981316837482154,-0.02373647689819336,-0.19328159093856812
1646249401.0985584,0.28378647565841675,0.06675884127616882,-1.730668544769287,0.0786270797252655,-7.401457786560059,-1.641359567642212,0.0,-0.0006981316837482154,-0.02373647689819336,-0.19481557607650757
1646249401.229406,0.28071850538253784,0.06082472577691078,-1.621410846710205,0.12313298135995865,-7.4045257568359375,-1.641359567642212,0.0,-0.0006981316837482154,-0.02373647689819336,-0.19481557607650757
1646249401.3809643,0.27304860949516296,0.06082472577691078,-1.547408938407898,0.157254159450531,-7.415263652801514,-1.641359567642212,0.0,-0.0006981316837482154,-0.02373647689819336,-0.19481557607650757
1646249401.505991,0.26998063921928406,0.05785766616463661,-1.5337953567504883,0.1765400469303131,-7.418331623077393,-1.641359567642212,0.0,-0.0006981316837482154,-0.02373647689819336,-0.19481557607650757
1646249401.678168,0.2715146243572235,0.05785766616463661,-1.6046557426452637,0.1186823919415474,-7.42446756362915,-1.641359567642212,0.0,-0.0006981316837482154,-0.02373647689819336,-0.19634954631328583
1646249401.8503625,0.26998063921928406,0.05785766616463661,-1.6744688749313354,0.06082472577691078,-7.429069519042969,-1.641359567642212,0.0,-0.0006981316837482154,-0.02373647689819336,-0.19328159093856812
1646249402.0175023,0.26691266894340515,0.05785766616463661,-1.7613862752914429,-0.007417649496346712,-7.433671474456787,-1.641359567642212,0.0,-0.0006981316837482154,-0.02373647689819336,-0.19481557607650757
1646249402.1832845,0.25310683250427246,0.05489060655236244,-1.7777923345565796,-0.025220008566975594,-7.432137489318848,-1.641359567642212,0.0,-0.0006981316837482154,-0.02373647689819336,-0.19481557607650757
1646249402.3814273,0.24390296638011932,0.04747295379638672,-1.6943656206130981,0.02373647689819336,-7.442875385284424,-1.641359567642212,0.0,-0.0006981316837482154,-0.02373647689819336,-0.19481557607650757
1646249402.5277317,0.23930101096630096,0.03857177495956421,-1.591042160987854,0.08011060953140259,-7.4520792961120605,-1.6428935527801514,0.0,-0.0006981316837482154,-0.02373647689819336,-0.19481557607650757
1646249402.6920147,0.24697092175483704,0.031154127791523933,-1.493303656578064,0.13648474216461182,-7.4520792961120605,-1.641359567642212,0.0,-0.0006981316837482154,-0.02373647689819336,-0.19481557607650757
1646249402.8600268,0.2546408176422119,0.02670353837311268,-1.4381513595581055,0.16170474886894226,-7.445943355560303,-1.6428935527801514,0.0,-0.0006981316837482154,-0.02373647689819336,-0.19481557607650757
1646249402.9497533,0.2653786838054657,0.02076941728591919,-1.3973106145858765,0.20027653872966766,-7.427535533905029,-1.641359567642212,0.0,-0.0006981316837482154,-0.02373647689819336,-0.19481557607650757
1646249403.1265032,0.2761165499687195,0.016318827867507935,-1.3721778392791748,0.2269800752401352,-7.416797637939453,-1.641359567642212,0.0,-0.0006981316837482154,-0.02373647689819336,-0.19481557607650757
1646249403.2931097,0.28071850538253784,0.016318827867507935,-1.3634512424468994,0.2358812540769577,-7.415263652801514,-1.641359567642212,0.0,-0.0006981316837482154,-0.02373647689819336,-0.19481557607650757
1646249403.3485072,0.27765053510665894,0.014835298992693424,-1.3547245264053345,0.24033184349536896,-7.415263652801514,-1.641359567642212,0.0,-0.0006981316837482154,-0.02373647689819336,-0.19481557607650757
1646249403.4100623,0.28071850538253784,0.014835298992693424,-1.3547245264053345,0.24329890310764313,-7.415263652801514,-1.641359567642212,0.0,-0.0006981316837482154,-0.02373647689819336,-0.19481557607650757
1646249403.4635499,0.2822524905204773,0.014835298992693424,-1.3547245264053345,0.24329890310764313,-7.416797637939453,-1.641359567642212,0.0,-0.0006981316837482154,-0.02373647689819336,-0.19481557607650757
1646249403.5195172,0.2853204309940338,0.014835298992693424,-1.3550736904144287,0.24329890310764313,-7.416797637939453,-1.641359567642212,0.0,-0.0006981316837482154,-0.02373647689819336,-0.19481557607650757
1646249403.579485,0.28685441613197327,0.014835298992693424,-1.3651965856552124,0.24329890310764313,-7.419865608215332,-1.641359567642212,0.0,-0.0006981316837482154,-0.02373647689819336,-0.19481557607650757
1646249403.6337123,0.2899223864078522,0.014835298992693424,-1.385093331336975,0.24181537330150604,-7.416797637939453,-1.641359567642212,0.0,-0.0006981316837482154,-0.02373647689819336,-0.19481557607650757
1646249403.6930056,0.29452434182167053,0.014835298992693424,-1.4133676290512085,0.22104595601558685,-7.412195682525635,-1.641359567642212,0.0,-0.0006981316837482154,-0.02373647689819336,-0.19481557607650757
1646249403.7501695,0.2960582971572876,0.014835298992693424,-1.441641926765442,0.1958259493112564,-7.412195682525635,-1.641359567642212,0.0,-0.0006981316837482154,-0.02373647689819336,-0.19481557607650757
1646249403.8066895,0.29759228229522705,0.014835298992693424,-1.467472791671753,0.17060592770576477,-7.418331623077393,-1.641359567642212,0.0,-0.0006981316837482154,-0.02373647689819336,-0.19481557607650757
1646249403.8641331,0.2991262674331665,0.014835298992693424,-1.493303656578064,0.14241886138916016,-7.427535533905029,-1.641359567642212,0.0,-0.0006981316837482154,-0.02373647689819336,-0.19328159093856812
1646249403.9211497,0.30066025257110596,0.014835298992693424,-1.5170401334762573,0.12313298135995865,-7.435205459594727,-1.641359567642212,0.0,-0.0006981316837482154,-0.02373647689819336,-0.19481557607650757
1646249403.9805386,0.3021942377090454,0.014835298992693424,-1.542871117591858,0.11274827271699905,-7.4382734298706055,-1.641359567642212,0.0,-0.0006981316837482154,-0.02373647689819336,-0.19328159093856812
1646249404.0368252,0.3021942377090454,0.014835298992693424,-1.56800377368927,0.10236356407403946,-7.439807415008545,-1.6428935527801514,0.0,-0.0006981316837482154,-0.02373647689819336,-0.19481557607650757
1646249404.0902317,0.3021942377090454,0.014835298992693424,-1.592089295387268,0.09049531817436218,-7.439807415008545,-1.641359567642212,0.0,-0.0006981316837482154,-0.02373647689819336,-0.19481557607650757
1646249404.1467645,0.2991262674331665,0.014835298992693424,-1.6158257722854614,0.08456119894981384,-7.439807415008545,-1.641359567642212,0.0,-0.0006981316837482154,-0.02373647689819336,-0.19481557607650757
1646249404.206299,0.2960582971572876,0.014835298992693424,-1.6378170251846313,0.08159413933753967,-7.441341400146484,-1.641359567642212,0.0,-0.0006981316837482154,-0.02373647689819336,-0.19328159093856812
1646249404.2628634,0.29452434182167053,0.014835298992693424,-1.6591099500656128,0.07269296050071716,-7.442875385284424,-1.641359567642212,0.0,-0.0006981316837482154,-0.02373647689819336,-0.19481557607650757
1646249404.3201034,0.2914563715457916,0.014835298992693424,-1.6824973821640015,0.05637413635849953,-7.442875385284424,-1.641359567642212,0.0,-0.0006981316837482154,-0.02373647689819336,-0.19328159093856812
1646249404.3764203,0.2883884012699127,0.014835298992693424,-1.7041394710540771,0.04450589418411255,-7.442875385284424,-1.641359567642212,0.0,-0.0006981316837482154,-0.02373647689819336,-0.19481557607650757
1646249404.436668,0.28378647565841675,0.014835298992693424,-1.7233381271362305,0.034121185541152954,-7.442875385284424,-1.641359567642212,0.0,-0.0006981316837482154,-0.02373647689819336,-0.19481557607650757
1646249404.4933476,0.2791845202445984,0.01335176918655634,-1.7376497983932495,0.02670353837311268,-7.439807415008545,-1.641359567642212,0.0,-0.0006981316837482154,-0.02373647689819336,-0.19481557607650757
1646249404.5461855,0.27458256483078003,0.01335176918655634,-1.7502161264419556,0.025220008566975594,-7.441341400146484,-1.641359567642212,0.0,-0.0006981316837482154,-0.02373647689819336,-0.19481557607650757
1646249404.6026711,0.2715146243572235,0.01335176918655634,-1.7592918872833252,0.025220008566975594,-7.439807415008545,-1.641359567642212,0.0,-0.0006981316837482154,-0.02373647689819336,-0.19481557607650757
1646249404.663409,0.26998063921928406,0.01335176918655634,-1.7669713497161865,0.022252947092056274,-7.439807415008545,-1.641359567642212,0.0,-0.0006981316837482154,-0.02373647689819336,-0.19481557607650757
1646249404.7205915,0.26998063921928406,0.01335176918655634,-1.7725564241409302,0.019285887479782104,-7.4382734298706055,-1.641359567642212,0.0,-0.0006981316837482154,-0.02373647689819336,-0.19481557607650757
1646249404.7809484,0.2684466540813446,0.01335176918655634,-1.7736035585403442,0.02076941728591919,-7.4382734298706055,-1.641359567642212,0.0,-0.0006981316837482154,-0.02373647689819336,-0.19328159093856812
1646249404.878988,0.2653786838054657,0.01186823844909668,-1.7736035585403442,0.02076941728591919,-7.4382734298706055,-1.6428935527801514,0.0,-0.0006981316837482154,-0.02373647689819336,-0.19481557607650757
1646249404.938812,0.2653786838054657,0.010384708642959595,-1.7697638273239136,0.02076941728591919,-7.4382734298706055,-1.6428935527801514,0.0,-0.0006981316837482154,-0.02373647689819336,-0.19481557607650757
1646249405.0001047,0.2653786838054657,0.00890117883682251,-1.7366026639938354,0.04153883457183838,-7.4382734298706055,-1.641359567642212,0.0,-0.0006981316837482154,-0.02373647689819336,-0.19481557607650757
1646249405.0577123,0.26691266894340515,0.007417649496346712,-1.7090264558792114,0.06675884127616882,-7.4382734298706055,-1.641359567642212,0.0,-0.0006981316837482154,-0.02373647689819336,-0.19328159093856812
1646249405.1106918,0.2684466540813446,0.00593411922454834,-1.6762142181396484,0.0890117883682251,-7.4382734298706055,-1.641359567642212,0.0,-0.0006981316837482154,-0.02373647689819336,-0.19481557607650757
1646249405.1699264,0.2715146243572235,0.00593411922454834,-1.648987054824829,0.09939650446176529,-7.4382734298706055,-1.641359567642212,0.0,-0.0006981316837482154,-0.02373647689819336,-0.19328159093856812
1646249405.223131,0.2761165499687195,0.004450589418411255,-1.6182693243026733,0.11719886213541031,-7.441341400146484,-1.641359567642212,0.0,-0.0006981316837482154,-0.02373647689819336,-0.19481557607650757
1646249405.285429,0.28071850538253784,0.004450589418411255,-1.5885987281799316,0.13648474216461182,-7.4382734298706055,-1.641359567642212,0.0,-0.0006981316837482154,-0.02373647689819336,-0.19481557607650757
1646249405.3402627,0.2883884012699127,0.004450589418411255,-1.5603243112564087,0.15132004022598267,-7.4382734298706055,-1.641359567642212,0.0,-0.0006981316837482154,-0.02373647689819336,-0.19481557607650757
1646249405.3996487,0.29452434182167053,0.004450589418411255,-1.5337953567504883,0.1676388680934906,-7.433671474456787,-1.641359567642212,0.0,-0.0006981316837482154,-0.02373647689819336,-0.19481557607650757
1646249405.453475,0.30066025257110596,0.004450589418411255,-1.511106014251709,0.18395769596099854,-7.42600154876709,-1.641359567642212,0.0,-0.0006981316837482154,-0.02373647689819336,-0.19481557607650757
1646249405.509408,0.3052622079849243,0.004450589418411255,-1.4873695373535156,0.20027653872966766,-7.419865608215332,-1.641359567642212,0.0,-0.0006981316837482154,-0.02373647689819336,-0.19481557607650757
1646249405.5668316,0.31139811873435974,0.004450589418411255,-1.467472791671753,0.2151118367910385,-7.415263652801514,-1.641359567642212,0.0,-0.0006981316837482154,-0.02373647689819336,-0.19481557607650757
1646249405.6261992,0.3160000741481781,0.004450589418411255,-1.4493213891983032,0.2269800752401352,-7.413729667663574,-1.641359567642212,0.0,-0.0006981316837482154,-0.02373647689819336,-0.19481557607650757
1646249405.6798124,0.3221359848976135,0.004450589418411255,-1.4332643747329712,0.24033184349536896,-7.413729667663574,-1.641359567642212,0.0,-0.0006981316837482154,-0.02373647689819336,-0.19481557607650757
1646249405.7418187,0.3267379403114319,0.004450589418411255,-1.4189527034759521,0.24774949252605438,-7.407593727111816,-1.641359567642212,0.0,-0.0006981316837482154,-0.02373647689819336,-0.19481557607650757
1646249405.7958202,0.3328738510608673,0.004450589418411255,-1.4060372114181519,0.25071653723716736,-7.399923801422119,-1.641359567642212,0.0,-0.0006981316837482154,-0.02373647689819336,-0.19481557607650757
1646249405.8551128,0.33747580647468567,0.004450589418411255,-1.3955652713775635,0.25961771607398987,-7.393787860870361,-1.641359567642212,0.0,-0.0006981316837482154,-0.02373647689819336,-0.19481557607650757
1646249405.9116175,0.3405437469482422,0.004450589418411255,-1.3903292417526245,0.26110124588012695,-7.392253875732422,-1.641359567642212,0.0,-0.0006981316837482154,-0.02373647689819336,-0.19481557607650757
1646249405.96751,0.34207773208618164,0.004450589418411255,-1.3903292417526245,0.19137535989284515,-7.39685583114624,-1.641359567642212,0.0,-0.0006981316837482154,-0.02373647689819336,-0.19481557607650757
1646249406.0266776,0.34514570236206055,0.004450589418411255,-1.3917255401611328,0.08011060953140259,-7.4213995933532715,-1.641359567642212,0.0,-0.0006981316837482154,-0.02373647689819336,-0.19481557607650757
1646249406.0835447,0.34821367263793945,0.004450589418411255,-1.3980087041854858,-0.03263765573501587,-7.458215236663818,-1.641359567642212,0.0,-0.0006981316837482154,-0.02373647689819336,-0.19481557607650757
1646249406.1398823,0.3528155982494354,0.004450589418411255,-1.4014993906021118,-0.13055062294006348,-7.490428447723389,-1.641359567642212,0.0,-0.0006981316837482154,-0.02373647689819336,-0.19481557607650757
1646249406.1981366,0.3604854941368103,0.004450589418411255,-1.4032447338104248,-0.1973094791173935,-7.51497220993042,-1.641359567642212,0.0,-0.0006981316837482154,-0.02373647689819336,-0.19481557607650757
1646249406.2544355,0.369689404964447,0.004450589418411255,-1.404641032218933,-0.25961771607398987,-7.521108150482178,-1.641359567642212,0.0,-0.0006981316837482154,-0.02373647689819336,-0.19328159093856812
1646249406.3157444,0.37582531571388245,0.004450589418411255,-1.4074335098266602,-0.30857419967651367,-7.5272440910339355,-1.641359567642212,0.0,-0.0006981316837482154,-0.02373647689819336,-0.19328159093856812
1646249406.3793113,0.3773593008518219,0.004450589418411255,-1.4126695394515991,-0.36198127269744873,-7.528778076171875,-1.641359567642212,0.0,-0.0006981316837482154,-0.02373647689819336,-0.19328159093856812
1646249406.4359002,0.3773593008518219,0.004450589418411255,-1.4206980466842651,-0.40945425629615784,-7.5303120613098145,-1.641359567642212,0.0,-0.0006981316837482154,-0.02373647689819336,-0.19481557607650757
1646249406.5189645,0.3773593008518219,0.004450589418411255,-1.4287265539169312,-0.44950956106185913,-7.528778076171875,-1.641359567642212,0.0,-0.0006981316837482154,-0.02373647689819336,-0.19481557607650757
1646249406.580481,0.3773593008518219,0.004450589418411255,-1.4336134195327759,-0.46731191873550415,-7.5272440910339355,-1.641359567642212,0.0,-0.0006981316837482154,-0.02373647689819336,-0.19481557607650757
1646249406.6335301,0.369689404964447,0.004450589418411255,-1.4343116283416748,-0.4613777995109558,-7.5303120613098145,-1.641359567642212,0.0,-0.0006981316837482154,-0.02373647689819336,-0.19481557607650757
1646249406.6900208,0.36508744955062866,0.004450589418411255,-1.4343116283416748,-0.4598942697048187,-7.5303120613098145,-1.641359567642212,0.0,-0.0006981316837482154,-0.02373647689819336,-0.19481557607650757
1646249406.7514317,0.36201947927474976,0.004450589418411255,-1.4353587627410889,-0.4598942697048187,-7.531846046447754,-1.641359567642212,0.0,-0.0006981316837482154,-0.02373647689819336,-0.19481557607650757
1646249406.8054352,0.35895153880119324,0.004450589418411255,-1.4364060163497925,-0.45692721009254456,-7.5303120613098145,-1.641359567642212,0.0,-0.0006981316837482154,-0.02373647689819336,-0.19481557607650757
1646249406.8648927,0.3574175536632538,0.004450589418411255,-1.4374531507492065,-0.45841073989868164,-7.5303120613098145,-1.641359567642212,0.0,-0.0006981316837482154,-0.02373647689819336,-0.19481557607650757
1646249406.9255414,0.3574175536632538,0.004450589418411255,-1.4381513595581055,-0.45841073989868164,-7.5303120613098145,-1.641359567642212,0.0,-0.0006981316837482154,-0.02373647689819336,-0.19481557607650757
1646249406.988937,0.35588356852531433,0.004450589418411255,-1.4381513595581055,-0.45841073989868164,-7.5303120613098145,-1.641359567642212,0.0,-0.0006981316837482154,-0.02373647689819336,-0.19481557607650757
1646249407.0456393,0.35588356852531433,0.004450589418411255,-1.4381513595581055,-0.45841073989868164,-7.531846046447754,-1.641359567642212,0.0,-0.0006981316837482154,-0.02373647689819336,-0.19328159093856812
1646249407.100153,0.35588356852531433,0.004450589418411255,-1.4381513595581055,-0.45841073989868164,-7.531846046447754,-1.641359567642212,0.0,-0.0006981316837482154,-0.02373647689819336,-0.19481557607650757
1646249407.1583936,0.35588356852531433,0.004450589418411255,-1.4381513595581055,-0.4598942697048187,-7.531846046447754,-1.641359567642212,0.0,-0.0006981316837482154,-0.02373647689819336,-0.19328159093856812
1646249407.2178905,0.35588356852531433,0.004450589418411255,-1.4381513595581055,-0.4598942697048187,-7.531846046447754,-1.641359567642212,0.0,-0.0006981316837482154,-0.02373647689819336,-0.19328159093856812
1646249407.2759528,0.35588356852531433,0.004450589418411255,-1.4381513595581055,-0.4598942697048187,-7.531846046447754,-1.641359567642212,0.0,-0.0006981316837482154,-0.02373647689819336,-0.19328159093856812
1646249407.3306801,0.35588356852531433,0.004450589418411255,-1.4381513595581055,-0.4598942697048187,-7.531846046447754,-1.641359567642212,0.0,-0.0006981316837482154,-0.02373647689819336,-0.19481557607650757
1646249407.3895323,0.34821367263793945,0.004450589418411255,-1.4381513595581055,-0.41687190532684326,-7.5303120613098145,-1.641359567642212,0.0,-0.0006981316837482154,-0.02373647689819336,-0.19481557607650757
1646249407.4471257,0.33747580647468567,0.004450589418411255,-1.4395475387573242,-0.3263765573501587,-7.508836269378662,-1.641359567642212,0.0,-0.0006981316837482154,-0.02373647689819336,-0.19328159093856812
1646249407.5009863,0.32520395517349243,0.004450589418411255,-1.4395475387573242,-0.20917771756649017,-7.488894462585449,-1.641359567642212,0.0,-0.0006981316837482154,-0.02373647689819336,-0.19481557607650757
1646249407.5599577,0.3129321038722992,0.004450589418411255,-1.4419909715652466,-0.0890117883682251,-7.45361328125,-1.641359567642212,0.0,-0.0006981316837482154,-0.02373647689819336,-0.19481557607650757
1646249407.6148524,0.30066025257110596,0.004450589418411255,-1.4423401355743408,0.06824237108230591,-7.413729667663574,-1.641359567642212,0.0,-0.0006981316837482154,-0.02373647689819336,-0.19481557607650757
1646249407.6745162,0.2899223864078522,0.004450589418411255,-1.4458307027816772,0.18099063634872437,-7.361574172973633,-1.641359567642212,0.0,-0.0006981316837482154,-0.02373647689819336,-0.19481557607650757
1646249407.744297,0.2822524905204773,0.004450589418411255,-1.4503686428070068,0.2759365439414978,-7.326292514801025,-1.641359567642212,0.0,-0.0006981316837482154,-0.02373647689819336,-0.19481557607650757
1646249407.8043,0.27458256483078003,0.004450589418411255,-1.4535101652145386,0.37978363037109375,-7.292545318603516,-1.641359567642212,0.0,-0.0006981316837482154,-0.02373647689819336,-0.19481557607650757
1646249407.8613362,0.2684466540813446,0.004450589418411255,-1.4556045532226562,0.45692721009254456,-7.263399600982666,-1.641359567642212,0.0,-0.0006981316837482154,-0.02373647689819336,-0.19481557607650757
1646249407.9182525,0.2623107433319092,0.00593411922454834,-1.4559537172317505,0.5014330744743347,-7.25266170501709,-1.641359567642212,0.0,-0.0006981316837482154,-0.02373647689819336,-0.19481557607650757
1646249407.9746501,0.2546408176422119,0.00593411922454834,-1.4559537172317505,0.5518730878829956,-7.255729675292969,-1.641359567642212,0.0,-0.0006981316837482154,-0.02373647689819336,-0.19481557607650757
